#ifndef PROJECT_BUTTON_SPRITES_XPM
#define PROJECT_BUTTON_SPRITES_XPM

static char *button_xpm[] = {
"20 10 5 1",
"  c #FFFFFE",
". c #000000",
"+ c #00ED2F",
"- c #027A18",
"@ c #FFFFFF",
"  ................  ",
" .................. ",
"..++++++++++++++++..",
".++++++++++++++++++.",
".++++++++++++++++++.",
".++++++++++++++++++.",
".++++++++++++++++++.",
"..++++++++++++++++..",
" .................. ",
"  ................  "
};

static char *button_pressed_xpm[] = {
"20 10 5 1",
"  c #FFFFFE",
". c #000000",
"+ c #027A18",
"- c #00ED2F",
"@ c #FFFFFF",
"  ................  ",
" .................. ",
"..++++++++++++++++..",
".++++++++++++++++++.",
".++++++++++++++++++.",
".++++++++++++++++++.",
".++++++++++++++++++.",
"..++++++++++++++++..",
" .................. ",
"  ................  "
};

static char *mouse_cursor_xpm[] = {
"11 16 3 1",
"  c #FFFFFE",
". c #000000",
"+ c #FFFFFF",
".          ",
"..         ",
".+.        ",
".++.       ",
".+++.      ",
".++++.     ",
".+++++.    ",
".++++++.   ",
".+++++++.  ",
".++++++++. ",
".++++..... ",
".+++.      ",
".++.       ",
".+.        ",
"..         ",
".          "
};

#endif
