/* XPM */
static char *b9eb1cb3924a4a89cd449e69fb35d556fHKr1debNstGhuGO[] = {
/* columns rows colors chars-per-pixel */
"111 55 63 1 ",
"  c #640000",
". c #670606",
"X c #680000",
"o c #680606",
"O c #6A0A0A",
"+ c #6B0C0C",
"@ c #6C0C0C",
"# c #700000",
"$ c #740000",
"% c #730505",
"& c #740606",
"* c #7C0000",
"= c #760A0A",
"- c #770C0C",
"; c #780D0D",
": c #6F1313",
"> c #701313",
", c #701414",
"< c #731919",
"1 c #741A1A",
"2 c #810000",
"3 c #800505",
"4 c #880000",
"5 c #8C0000",
"6 c #8C0505",
"7 c #930000",
"8 c #950000",
"9 c #990000",
"0 c #873A3A",
"q c #883A3A",
"w c #883C3C",
"e c #8B4040",
"r c #8F4646",
"t c #924B4B",
"y c #924C4C",
"u c #944E4E",
"i c #965353",
"p c #AA7373",
"a c #AB7474",
"s c #AC7575",
"d c #AE7A7A",
"f c #B28080",
"g c #B58585",
"h c #B98B8B",
"j c #B98C8C",
"k c #CEAFAF",
"l c #CFB1B1",
"z c #D0B2B2",
"x c #D2B5B5",
"c c #D5BABA",
"v c #D8BFBF",
"b c #DBC4C4",
"n c #DCC5C5",
"m c #F0E6E6",
"M c #F2EAEA",
"N c #F3ECEC",
"B c #F5EFEF",
"V c #F7F3F3",
"C c #F8F3F3",
"Z c #F8F4F4",
"A c #FBF9F9",
"S c #FCFAFA",
"D c #ffffff",
/* pixels */
"999999999999999999999999999999999999999999999999999999999999999999999999999999999999999999999999999999999999995",
"999999999999999999999999999999999999999999999999999999999999999999999999999999999999999999999999999999999999995",
"999999999999999999999999999999999999999999999999999999999999999999999999999999999999999999999999999999999999999",
"999999999999999999999999999999999999999999999999999999999999999999999999999999999999999999999999999999999999999",
"999999999999999999999999999999999999999999999999999999999999999999999999999999999999999999999999999999999999999",
"999999999999999999999999999999999999999999999999999999999999999999999999999999999999999999999999999999999999999",
"999999999999999999999999999999999999999999999999999999999999999999999999999999999999999999999999999999999999999",
"999999999999999999999999999999999999999999999999999999999999999999999999999999999999999999999999999999999999999",
"999999999999999999999999999999999999999999999999999999999999999999999999999999999999999999999999999999999999999",
"999999999999999999999999999999999999999999999999999999999999999999999999999999999999999999999999999999999999999",
"999999999999999999999999999999999999999999999999999999999999999999999999999999999999999999999999999999999999999",
"999999999999999999999999999999999999999999999999999999999999999999999999999999999999999999999999999999999999999",
"999999999999999999999999999999999999999999999999999999999999999999999999999999999999999999999999999999999999999",
"999999999999999999999999999999999999999999999999999999999999999999999999999999999999999999999999999999999999999",
"999999999999999999999999999999999999999999999999999999999999998889999999888888888888877987777444444444789999999",
"99999999999999999999999999999999999999888888999999999999998744***4478994*33333&&;;;;;@ 4*o,,,,,,111111,&4899999",
"99999999888888998888888999999999999988*3&&&348899999999988*@>111111>&89*@iiiiiiijjjjjjo* rnnnnnnDDDDDDni1;48999",
"99999884*3;&3*84&;;;;;*9999999999984*@1iiiii1>3899999998*@1jnDDDDDDne*9#fDDDDDDDDDDDDDe##fDDDDDDDDDDDDDDDj>*899",
"99998*@@<ijiio* rjjjjj 59999999998*@<jDDDDDDDni-4899999*@jDDDDDDDDDDe#9#dDDDDDDDDDDDDDr##fDDDDDDDDDDDDDDDDn@*89",
"9998*@jjDDDDDe* fDDDDD 5999999998*-jDDDDDDDDDDDj-*99998ojDDDDDDDDDDD0*9#eDDDDDDDDDDDDDf##fDDDDDAVVVAADDDDDDj@*9",
"998#:jDDDDDDDe* fDDDDD 499999999*@jDDDDDDDDDDDDDj@4999 yDDDDDVBBBADD 29#eDDDDDAmmmmmmmp##fDDDDDcpppkkBADDDDDj 9",
"98#:nDDDDDDDDr# fDDDDD *99999994ojDDDDDDDDDDDDDDDj 894onDDDDAd000kmB 29*eDDDDDz        ##dDDDDDd     0zDDDDDD+4",
"9*+nDDDDDDDDDf##fDDDDD *9999999#yDDDDDDCBBCADDDDDD+*9#eDDDDDne     0 29*eDDDDDy        *#eDDDDDe      0BDDDDDg#",
"4 hDDDDDDZZBZd##fDDDDD.*9999994.bDDDDDZa00axZDDDDDh 8#rDDDDDDi..     59*eDDDDDb::::::,O*#eDDDDDe       0ADDDDb ",
"#.DDDDDDBaa0sq##fDDDDDe*999999#rDDDDDBa    0aZDDDDD.*#dDDDDDDDii,:.  49*eDDDDDDbbbbbbDf *eDDDDDe XXXX   vDDDDD ",
"#tDDDDDBq     ##fDDDDDe*999999#gDDDDDq       fDDDDDr**qDDDDDDDDDDbi,.*9*qDDDDDDDDDDDDDf *eDDDDDe#5555$  vDDDDD ",
" vDDDDSq      ##dDDDDDe*999999 vDDDDD        dDDDDDf#* BSDDDDDDDDDDDi#8* DDDDDDDDDDDDDf *eDDDDDr#99999# vDDDDS ",
" bDDDDv       *#eDDDDDe*999999 vDDDDD   X$X  eDDDDDf#* qkBSSDDDDDDDDDO** DDDDDDSSSSZZZf 2eDDDDDf#99999*.bDDDDv ",
" DDDDDb   X$X *#eDDDDDe*999999 cDDDDDO 29992 eDDDDDd#*   qkkMBDDDDDDDg * DDDDDSxkkkssss *qDDDDDf#99988 tDDDDDx ",
" SDDDDD  2999#$*eDDDDDe*999999 fDDDDDg%89988 iDDDDDe#2       qMSDDDDDv * DDDDDcq       #* DDDDDf#888*O,bDDDDSq ",
" cDDDDD@*899848*eDDDDDr#999999#sDDDDDbt=48*O@DDDDDSq*9        .vDDDDDv 2 DDDDDgO.......#* DDDDDh@@@@,hDDDDDDx  ",
" fDDDDDb@%463O *eDDDDDf#888889# ZDDDDDbh@,,hbDDDDDx #9*.,O..  rbDDDDDx 5 DDDDDbhuuuuuut * DDDDDDbbbbDDDDDDDZq  ",
" sSDDDDDbu@tug *eDDDDDhO%===#4# sDDDDDDDbDDDDDDDDZq 29#eDhuu>>hDDDDDDq 5 DDDDDDDDDDDDDv * DDDDDDDDDDDDDDDDZs  #",
"  xDDDDDDDbbDv *eDDDDDDhuhhhO#*  VDDDDDDDDDDDDDDSs  59#tDDDDDDDDDDDDV  5 SDDDDDDDDDDDDv * DDDDDDDDDDDDDDZNs   5",
"  qZDDDDDDDDDv *qDDDDDDDDDDDf#2  qVDDDDDDDDDDDDZl   59 vDDDDDDDDDDDVq  5 vDDDDDDDDDDDDb * DDDDSSSSSSSZZBs    #9",
"*  sZDDDDDDDDv * DDDDDDDDDDDf#9   qBSDDDDDDDDDZs   #95 xSSDDDDDDZZBq  #5 xZZZZZVVVVVVVB * BBBBzzzzzzzss      59",
"2   sVSDDDDDDv # DDDDDDDDDDDf#92    zVVSSSSZZBs    599 qzzBVVVBBss    #5 qsssssqqqqqqq  2                   299",
"92   wzVVSSSZc # VVVVVVVBBBBs#99     wwzzzzss     $999#    www        59                9                  2999",
"95     wwzzzss 2 wwwwwww     #995                #9999#              299                9                 29999",
"992            5             *9995              #59999              2999                9              #2999999",
"9992           5             *99995#           2999999#           259999   X       ####29##22222222555999999999",
"99995#         5             #9999995#       2299999999952#####229999999555999999999999999999999999999999999999",
"9999995#       9     #######22999999995522259999999999999999999999999999999999999999999999999999999999999999999",
"999999995552599999999999999999999999999999999999999999999999999999999999999999999999999999999999999999999999999",
"999999999999999999999999999999999999999999999999999999999999999999999999999999999999999999999999999999999999999",
"999999999999999999999999999999999999999999999999999999999999999999999999999999999999999999999999999999999999999",
"999999999999999999999999999999999999999999999999999999999999999999999999999999999999999999999999999999999999999",
"999999999999999999999999999999999999999999999999999999999999999999999999999999999999999999999999999999999999999",
"999999999999999999999999999999999999999999999999999999999999999999999999999999999999999999999999999999999999999",
"999999999999999999999999999999999999999999999999999999999999999999999999999999999999999999999999999999999999999",
"999999999999999999999999999999999999999999999999999999999999999999999999999999999999999999999999999999999999999",
"999999999999999999999999999999999999999999999999999999999999999999999999999999999999999999999999999999999999999",
"999999999999999999999999999999999999999999999999999999999999999999999999999999999999999999999999999999999999999",
"999999999999999999999999999999999999999999999999999999999999999999999999999999999999999999999999999999999999999",
"999999999999999999999999999999999999999999999999999999999999999999999999999999999999999999999999999999999999999"
};
