/* XPM */
static char *f2a3fbb0a3df4a57f9195f171b9727cd1drfa9J7j21wCTz5[] = {
/* columns rows colors chars-per-pixel */
"780 481 245 2 ",
"   c #550000",
".  c #580504",
"X  c #6E0D0D",
"o  c #77352E",
"O  c #3A4B29",
"+  c #3E512C",
"@  c #4C4E2E",
"#  c #42552F",
"$  c #445731",
"%  c #465A32",
"&  c #485E33",
"*  c #495B38",
"=  c #595133",
"-  c #625437",
";  c #77553C",
":  c #4B6136",
">  c #4F6638",
",  c #506739",
"<  c #536B3A",
"1  c #58713E",
"2  c #404040",
"3  c #4D4D4C",
"4  c #5A5754",
"5  c #6E4141",
"6  c #794443",
"7  c #74574F",
"8  c #586B48",
"9  c #5B7641",
"0  c #5E7A43",
"q  c #5D724C",
"w  c #5F7150",
"e  c #617D44",
"r  c #60744F",
"t  c #746C55",
"y  c #647955",
"u  c #565B62",
"i  c #67576D",
"p  c #4E6D71",
"a  c #666666",
"s  c #696C66",
"d  c #6B6B6B",
"f  c #726F6C",
"g  c #697769",
"h  c #6A7D69",
"j  c #737373",
"k  c #777A73",
"l  c #7B7B7B",
"z  c #861A1A",
"x  c #9E2626",
"c  c #A02B2B",
"v  c #B73333",
"b  c #B83635",
"n  c #894438",
"m  c #8C4A3E",
"M  c #934A3D",
"N  c #97493E",
"B  c #84573F",
"V  c #884342",
"C  c #984241",
"Z  c #9A4E41",
"A  c #8A5648",
"S  c #965746",
"D  c #8E5B56",
"F  c #A94242",
"G  c #B34040",
"H  c #BE4040",
"J  c #BA4B4A",
"K  c #A35244",
"L  c #AD5647",
"P  c #A25648",
"I  c #A75849",
"U  c #AD594A",
"Y  c #B75F4F",
"T  c #A55757",
"R  c #AC5F52",
"E  c #BB5C53",
"W  c #8B6955",
"Q  c #986759",
"!  c #9D735D",
"~  c #B6644C",
"^  c #B66C49",
"/  c #AB6153",
"(  c #A56F50",
")  c #A46A58",
"_  c #B46253",
"`  c #B96454",
"'  c #BA6758",
"]  c #B36D5A",
"[  c #BB6859",
"{  c #B37159",
"}  c #BB7459",
"|  c #BB7959",
" . c #8B6764",
".. c #8E716A",
"X. c #9A7964",
"o. c #8C7B78",
"O. c #AD7368",
"+. c #C94141",
"@. c #D54242",
"#. c #D94040",
"$. c #C05B54",
"%. c #DE5858",
"&. c #CC6666",
"*. c #D96565",
"=. c #E06565",
"-. c #E16A6A",
";. c #E37373",
":. c #6F8461",
">. c #6B8269",
",. c #6C8B69",
"<. c #748B67",
"1. c #6D9369",
"2. c #6E9969",
"3. c #739B6D",
"4. c #60827B",
"5. c #7A8578",
"6. c #7C9578",
"7. c #7CA377",
"8. c #B58D46",
"9. c #938466",
"0. c #958669",
"q. c #98876B",
"w. c #85877D",
"e. c #9A8A75",
"r. c #8B9477",
"t. c #B18E6E",
"y. c #A78A7A",
"u. c #A59879",
"i. c #88A77E",
"p. c #CEAA5A",
"a. c #C98275",
"s. c #C3957E",
"d. c #E0C265",
"f. c #4A6E8F",
"g. c #667096",
"h. c #4075A5",
"j. c #4077AE",
"k. c #4A7BB4",
"l. c #607FC0",
"z. c #85798E",
"x. c #748CA8",
"c. c #4082C4",
"v. c #4C89C8",
"b. c #5892CB",
"n. c #6E8DC8",
"m. c #7F99D0",
"M. c #75A5D4",
"N. c #838383",
"B. c #8B8885",
"V. c #8A8A8A",
"C. c #918C8B",
"Z. c #869285",
"A. c #899A87",
"S. c #97958A",
"D. c #838A95",
"F. c #909090",
"G. c #939C92",
"H. c #999999",
"J. c #A8998B",
"K. c #B69C8A",
"L. c #88A684",
"P. c #8AAD86",
"I. c #89A189",
"U. c #94A98A",
"Y. c #99B58E",
"T. c #99A597",
"R. c #94AD93",
"E. c #9BB597",
"W. c #B0A489",
"Q. c #BBA28A",
"!. c #B4A989",
"~. c #A8A598",
"^. c #A3BA9B",
"/. c #BDB498",
"(. c #838EB2",
"). c #A3A3A3",
"_. c #A5AAA3",
"`. c #ACACAC",
"'. c #B3ACA4",
"]. c #BAAFA3",
"[. c #A8BBA6",
"{. c #BCB1A5",
"}. c #BDB6A9",
"|. c #B4B4B4",
" X c #B9BBB7",
".X c #EA9897",
"XX c #D3AA95",
"oX c #CAB193",
"OX c #E5B790",
"+X c #C1B9AB",
"@X c #D8BEA5",
"#X c #C5BCB1",
"$X c #C6BCB5",
"%X c #A7C49D",
"&X c #A8CB9C",
"*X c #AAC6A7",
"=X c #ADCEA2",
"-X c #B0CFA5",
";X c #B4C9AA",
":X c #AFD0A4",
">X c #B1D0A7",
",X c #B7D4AE",
"<X c #B9D5AF",
"1X c #B9CAB5",
"2X c #BBD6B3",
"3X c #B9D4B6",
"4X c #BED8B6",
"5X c #BCDEB8",
"6X c #C9C1A3",
"7X c #D3CAAC",
"8X c #D0C8B7",
"9X c #C2D5BB",
"0X c #C7DDBF",
"qX c #DBD2B6",
"wX c #DCD4B8",
"eX c #DCD5B8",
"rX c #EAC6A0",
"tX c #EECEAD",
"yX c #F5CBA5",
"uX c #F5CEAA",
"iX c #F9D6B6",
"pX c #FFD9B3",
"aX c #8DAFD5",
"sX c #A7C5E3",
"dX c #C3C4C2",
"fX c #CACACA",
"gX c #D1CAC2",
"hX c #C7DBC2",
"jX c #C9DEC1",
"kX c #D3D4D3",
"lX c #D6D9D5",
"zX c #D9D9D9",
"xX c #E6DCC5",
"cX c #CDE1C6",
"vX c #CEE2C7",
"bX c #D2E4CB",
"nX c #DEE1DE",
"mX c #F3E1C8",
"MX c #EAE6D5",
"NX c #C7DBED",
"BX c #E0E0E0",
"VX c #EAEBEA",
"CX c #ECEFF5",
"ZX c #F2F3F3",
"AX c #FFFFFF",
/* pixels */
"e e e e e e e e e e e e e e e e e e e e e e e e e e e e e e e e e e e e e e e e e e e e e e e e e e e e e e e e e e e e e e e e e e e e e e e e e e e e e e e e e e e e e e e e e e e e e e e e e e e e e e e e e e e e e e e e e e e e e e e e e e e e e e e e e e e e e e e e e e e e e e e e e e e e e e e e e e e e e e e e e e e e e e e e e e e e e e e e e e e e e e e e e e e e 1 $ $ $ 7 R R / / R R R R R R R R R R R R R R R X.9.9.!.!.!.!.!.!.!.!.!.!.u.9.9.!.!.!.!.eXeXeXeXeXMXxXeXeXeXeXeXeXeXeXeXeXeXeXeXeXeXeXeXeXeXeXeXeXeXeXeXeXeXeXeXeXeXeXeXeXeXeXeXeXQ o     z z x v v v $.X   x v v v v v v v v x     v v v v v v v v v v v v v v v v v v v v v v a.eXeXeXeXeXQ.      x v v v v v v v v v v v v v v v v v v v v v v v v Q     v v v v v v $.Q.    X v v v v v v v v v v a.XXXXXX$.v v v v eXeXeXeXeXeXeXeXeXeXeXeXeXeXeXeXeXeXeXQ     x v v v v v v v v a.eXeXeXo     v v v v v v v v v z     v v v v v v v v v XXeXeXeXeXeXQ.    x v v v v v v v v v $.eXeXeXeXeXeXeXeXeXeXeXo     v v v v v v v v v v eXeXeXeXeXeXeX    z v v v v v v v v v a.eXeXeXeXQ     z v v v v v v v v v v a.eXxXMXMX/.9.9.] [ [ [ [ [ [ [ [ [ [ [ [ [ [ [ [ [ [ [ [ [ [ [ [ [ - $ $ : < < < < < < < < < < < < < < < < < < < < < < < < < < < < < < < < < < < < < < < < < < < < < < < < < < < < < < < < < < < < < < < < : $ $ , 9 9 9 9 9 e e e e e e e e e e e e e e e e e e e e e e e e e e e e e e e e e e e e e e e e e e e e e e e e e e e e e e e e e e e e e e e e e e e e e e e e e e e e e e e e e e e e e e e e e e e e e e e e e e e e e e e e e e e e e e e e e e e e e e e e e e e e e e e e e e e e e e e e ",
"e e e e e e e e e e e e e e e e e e e e e e e e e e e e e e e e e e e e e e e e e e e e e e e e e e e e e e e e e e e e e e e e e e e e e e e e e e e e e e e e e e e e e e e e e e e e e e e e e e e e e e e e e e e e e e e e e e e e e e e e e e e e e e e e e e e e e e e e e e e e e e e e e e e e e e e e e e e e e e e e e e e e e e e e e e e e e e e e e e e e e e e e e e e e e 1 $ $ $ 7 R R R R R R R R R R R R R R R R R R X.9.9.!.!.!.!.!.!.!.!.!.!.u.9.9.!.!.!./.eXeXeXeXeXeXeXeXeXeXeXeXeXeXeXeXeXeXeXeXeXeXQ.Q.Q.Q.Q.eXeXeXeXeXeXeXeXeXeXeXeXeXeXeXeXQ       z v v v v v v v v v x x v v v v v v v v x     v v v v v v v v v v v v v v v v v v v v v v v a.eXeXeXeXo     x v v v v v v v v v v v v v v v v v v v v v v v v v Q.    x v v v v v $.Q.    x v v v v v v v v v $.eXeXeXeXeXK.O.$.$.eXeXeXeXeXeXeXeXeXeXeXeXeXeXeXeXeXeXeXQ     x v v v v v v v v a.eXeXQ     X v v v v v v v v v X     v v v v v v v v v XXeXeXeXeXeXo     v v v v v v v v v v XXeXeXeXeXeXeXeXeXeXeXQ.    X v v v v v v v v v $.eXeXeXeXeXeXeXo   z v v v v v v v v v v a.Q.Q       z v v v v v v v v v v v a.eXxXMXMX/.9.9.] [ [ [ [ [ [ [ [ [ [ [ [ [ [ [ [ [ [ [ [ [ [ [ [ [ - $ $ : < < < < < < < < < < < < < < < < < < < < < < < < < < < < < < < < < < < < < < < < < < < < < < < < < < < < < < < < < < < < < < < < < : $ $ , 9 9 9 9 0 e e e e e e e e e e e e e e e e e e e e e e e e e e e e e e e e e e e e e e e e e e e e e e e e e e e e e e e e e e e e e e e e e e e e e e e e e e e e e e e e e e e e e e e e e e e e e e e e e e e e e e e e e e e e e e e e e e e e e e e e e e e e e e e e e e e e e e e ",
"e e e e e e e e e e e e e e e e e e e e e e e e e e e e e e e e e e e e e e e e e e e e e e e e e e e e e e e e e e e e e e e e e e e e e e e e e e e e e e e e e e e e e e e e e e e e e e e e e e e e e e e e e e e e e e e e e e e e e e e e e e e e e e e e e e e e e e e e e e e e e e e e e e e e e e e e e e e e e e e e e e e e e e e e e e e e e e e e e e e e e e e e e e e e e e 1 $ $ $ 7 R R R R R R R R R R R R R R R R R X.9.9.!.!.!.!.!.!.!.!.!.!.u.9.9.!.!.!./.eXeXeXeXeXeXeXeXQ.Q.Q.Q Q Q Q o o o     X X X z z z z $.$.XXXXeXeXeXeXeXeXeXeXeXeXeXQ     z v v v v v v v v v v v v v v v v v v v v v x     v v v v v v v v v v v v v v v v v v v v v v v v eXeXeXQ     z v v v v v v v v v v v v v v v v v v v v v v v v v v eX    z v v v v v a.Q     x v v v v v v v v v $.XXeXeXeXeXeXeXeXXXeXeXeXeXeXeXeXeXeXeXeXeXeXeXeXeXeXeXeXQ     x v v v v v v v v K o   X X z v v v v v v v v v v o     v v v v v v v v v XXeXeXeXeXQ.    X v v v v v v v v v $.eXeXeXeXeXeXeXeXeXeXeXo     x v v v v v v v v v XXeXeXeXeXeXeXeXQ     v v v v v v v v v v v v x z z v v v v v v v v v v v v v a.eXxXMXMX/.9.9.] [ [ [ [ [ [ [ [ [ [ [ [ [ [ [ [ [ [ [ [ [ [ [ [ [ - $ $ : < < < < < < < < < < < < < < < < < < < < < < < < < < < < < < < < < < < < < < < < < < < < < < < < < < < < < < < < < < < < < < < < < < $ $ $ 9 9 9 9 0 e e e e e e e e e e e e e e e e e e e e e e e e e e e e e e e e e e e e e e e e e e e e e e e e e e e e e e e e e e e e e e e e e e e e e e e e e e e e e e e e e e e e e e e e e e e e e e e e e e e e e e e e e e e e e e e e e e e e e e e e e e e e e e e e e e e e e e e ",
"e e e e e e e e e e e e e e e e e e e e e e e e e e e e e e e e e e e e e e e e e e e e e e e e e e e e e e e e e e e e e e e e e e e e e e e e e e e e e e e e e e e e e e e e e e e e e e e e e e e e e e e e e e e e e e e e e e e e e e e e e e e e e e e e e e e e e e e e e e e e e e e e e e e e e e e e e e e e e e e e e e e e e e e e e e e e e e e e e e e e e e e e e e e e e e e 1 $ $ $ 7 R R R R R R R R R R R R R R R R X.9.9.!.!.!.!.!.!.!.!.!.!.u.9.9.!.!.!./.eXeXeXeXeXeXeXeXo   X z z x x x v v v v v v v v v v v v v v v $.eXeXeXeXeXeXeXeXeXo     z v v v v v v v v v v v v v v v v v v v v v v x     v v v v v v v v v v v v v v v v v v v v v v v v a.eXQ.    X v v v v v v v v v v v v v v v v v v v v v v v v v v v eX    z v v v v v a.Q     v v v v v v v v v v v v $.$.XXXXeXeXeXeXeXeXeXeXeXeXeXeXeXeXeXeXeXeXeXeXeXeXeXQ     x v v v v v v v v v v v v v v v v v v v v v v v $.o     v v v v v v v v v XXeXeXeXeXo     x v v v v v v v v v XXeXeXeXeXeXeXeXeXeXeXQ.    X v v v v v v v v v $.eXeXeXeXeXeXeXeXeX    z v v v v v v v v v v v v v v v v v v v v v v v v v v v a.eXMXMXMX/.9.9.] [ [ [ [ [ [ [ [ [ [ [ [ [ [ [ [ [ [ [ [ [ [ [ [ [ - % % : < < < < < < < < < < < < < < < < < < < < < < < < < < < < < < < < < < < < < < < < < < < < < < < < < < < < < < < < < < < < < < < < < < : $ $ & 9 9 9 9 0 e e e e e e e e e e e e e e e e e e e e e e e e e e e e e e e e e e e e e e e e e e e e e e e e e e e e e e e e e e e e e e e e e e e e e e e e e e e e e e e e e e e e e e e e e e e e e e e e e e e e e e e e e e e e e e e e e e e e e e e e e e e e e e e e e e e e e e ",
"e e e e e e e e e e e e e e e e e e e e e e e e e e e e e e e e e e e e e e e e e e e e e e e e e e e e e e e e e e e e e e e e e e e e e e e e e e e e e e e e e e e e e e e e e e e e e e e e e e e e e e e e e e e e e e e e e e e e e e e e e e e e e e e e e e e e e e e e e e e e e e e e e e e e e e e e e e e e e e e e e e e e e e e e e e e e e e e e e e e e e e e e e e e e e e e e < $ $ $ S R R R R R R R R R R R R R R R X.9.9.!.!.!.!.!.!.!.!.!.!.u.9.9.!.!.!./.eXeXeXeXeXeXeXeXo   X v v v v v v v v v v v v v v v v v v v v v $.XXeXeXeXeXeXeXo     z v v v v v v v v v v v v v v v v v v v v v v v x     v v v v v v v v v v v v v v v v v v v v v v v v v eXo     x v v v v v v v v v v v v v v v v v v v v v v v v v v v eXo   X v v v v v XXQ     v v v v v v v v v v v v v v v v v $.XXeXeXeXeXeXeXeXeXeXeXeXeXeXeXeXeXeXeXeXeXQ     x v v v v v v v v v v v v v v v v v v v v v v v XXo     v v v v v v v v v XXeXeXeXQ.    X v v v v v v v v v $.eXeXeXeXeXeXeXeXeXeXeXo     x v v v v v v v v v O.Q Q Q Q o Q.eXeXeXQ   z v v v v v v v v v v v v v v v v v v v v v v v v v v v a.eXMXMXMX/.9.9.] [ [ [ [ [ [ [ [ [ [ [ [ [ [ [ [ [ [ [ [ [ [ [ [ [ - $ $ : < < < < < < < < < < < < < < < < < < < < < < < < < < < < < < < < < < < < < < < < < < < < < < < < < < < < < < < < < < < < < < < < < < < : $ $ , 9 9 9 9 e e e e e e e e e e e e e e e e e e e e e e e e e e e e e e e e e e e e e e e e e e e e e e e e e e e e e e e e e e e e e e e e e e e e e e e e e e e e e e e e e e e e e e e e e e e e e e e e e e e e e e e e e e e e e e e e e e e e e e e e e e e e e e e e e e e e e e ",
"e e e e e e e e e e e e e e e e e e e e e e e e e e e e e e e e e e e e e e e e e e e e e e e e e e e e e e e e e e e e e e e e e e e e e e e e e e e e e e e e e e e e e e e e e e e e e e e e e e e e e e e e e e e e e e e e e e e e e e e e e e e e e e e e e e e e e e e e e e e e e e e e e e e e e e e e e e e e e e e e e e e e e e e e e e e e e e e e e e e e e e e e e e e e e e e e e < $ $ = R R R R R R R R R R R R R R R X.9.9.!.!.!.!.!.!.!.!.!.!.u.9.9.!.!.!./.eXeXeXeXeXeXeXeXo   X v v v v v v v v v v v v v v v v v v v v v v $.eXeXeXeXeXo     z v v v v v v v v v v v v v v v v v v v v v v v v x     v v v v v v v v v v v v v v v v v v v v v v v v v XX    X v v v v v v v v v v v a.XXeXn X x v v v v v v v v v v v eXeXqXXX$.a.a.a.XXeXQ     x v v v v v v v v v v v v v v v v v v $.eXeXeXeXeXeXeXeXeXeXeXeXeXeXeXeXeXeXeXQ     x v v v v v v v v v v v v v v v v v v v v v v $.eXo     v v v v v v v v v XXeXeXeXo     x v v v v v v v v v XXeXeXeXeXeXeXeXeXeXeXeX    X v v v v v v v v v v z z x x x x v v v eXeX    z v v v v v v v v v v v v v v v v v v v v v v v v v v a.eXMXMXMX/.9.9.] [ [ [ [ [ [ [ [ [ [ [ [ [ [ [ [ [ [ [ [ [ [ [ [ [ - $ $ : < < < < < < < < < < < < < < < < < < < < < < < < < < < < < < < < < < < < < < < < < < < < < < < < < < < < < < < < < < < < < < < < < < < < & $ $ < 9 9 9 0 e e e e e e e e e e e e e e e e e e e e e e e e e e e e e e e e e e e e e e e e e e e e e e e e e e e e e e e e e e e e e e e e e e e e e e e e e e e e e e e e e e e e e e e e e e e e e e e e e e e e e e e e e e e e e e e e e e e e e e e e e e e e e e e e e e e e e ",
"e e e e e e e e e e e e e e e e e e e e e e e e e e e e e e e e e e e e e e e e e e e e e e e e e e e e e e e e e e e e e e e e e e e e e e e e e e e e e e e e e e e e e e e e e e e e e e e e e e e e e e e e e e e e e e e e e e e e e e e e e e e e e e e e e e e e e e e e e e e e e e e e e e e e e e e e e e e e e e e e e e e e e e e e e e e e e e e e e e e e e e e e e e e e e e e e e e < $ % 7 R R R R R R R R R R R R R R X.9.9.!.!.!.!.!.!.!.!.!.!.u.9.9.!.!.!.+XeXeXeXeXeXeXeXeXo   X v v v v v v v v v v v v v v v v v v v v v v v a.eXeXeXQ     z v v v v v v v v v v v v v v v v v v v v v v v v v x     v v v v v v v v v $.XXXXXX  X x v v v v v v v v v O.    X v v v v v v v v v v XXeXeXeXqX    x v v v v v v v v v v eXeXeXeXeXeXeXeXeXeXeX    z v v v v v v v v v v v v v v v v v v v $.eXeXeXeXeXeXeXeXeXeXeXeXeXeXeXeXeXeXQ     x v v v v v v v v v v v v v v v v v v v v v $.eXeXo     v v v v v v v v v XXeXeXeX    X v v v v v v v v v v Q Q Q o o o eXeXXXeXeXQ     x v v v v v v v v v v v v v v v v v v v eXeXK.    v v v v v v v v v v v v v v v v v v v v v v v v v v a.eXMXMXMX/.9.9.] [ [ [ [ [ [ [ [ [ [ [ [ [ [ [ [ [ [ [ [ [ [ [ [ [ - $ $ & < < < < < < < < < < < < < < < < < < < < < < < < < < < < < < < < < < < < < < < < < < < < < < < < < < < < < < < < < < < < < < < < < < < < > $ $ $ 9 9 9 9 e e e e e e e e e e e e e e e e e e e e e e e e e e e e e e e e e e e e e e e e e e e e e e e e e e e e e e e e e e e e e e e e e e e e e e e e e e e e e e e e e e e e e e e e e e e e e e e e e e e e e e e e e e e e e e e e e e e e e e e e e e e e e e e e e e e e e ",
"e e e e e e e e e e e e e e e e e e e e e e e e e e e e e e e e e e e e e e e e e e e e e e e e e e e e e e e e e e e e e e e e e e e e e e e e e e e e e e e e e e e e e e e e e e e e e e e e e e e e e e e e e e e e e e e e e e e e e e e e e e e e e e e e e e e e e e e e e e e e e e e e e e e e e e e e e e e e e e e e e e e e e e e e e e e e e e e e e e e e e e e e e e e e e e e e e e e : % $ 7 R R R R R R R R R R R R R X.9.9.!.!.!.!.!.!.!.!.!.!.u.9.9.!.!.!.+XeXeXeXeXeXeXeXeXo   X v v v v v v v v v v v v v v v v v v v v v v v v XXeXQ.    X v v v v v v v v v v v v v v v v v v v v v v v v v v x     v v v v v v v v v a.eXeXeXo   z v v v v v v v v v n     x v v v v v v v v v XXeXeXeXeXeXQ     v v v v v v v v v v eXeXeXeXeXeXeXeXeXeXeXQ     v v v v v v v v v v v v v v v v v v v v a.eXeXeXeXeXeXeXeXeXeXeXeXeXeXeXeXeXQ     x v v v v v v v v v v v v v v v v v v v v v XXeXeXo     v v v v v v v v v XXeXeXQ.    z v v v v v v v v v v x x x x v v v v $.eXeXo     v v v v v v v v v v v v v v v v v v v v eXeXeXQ   z v v v v v v v v v v v v v v v v v v v v v v v v v a.eXMXMXMX/.9.9.] [ [ [ [ [ [ [ [ [ [ [ [ [ [ [ [ [ [ [ [ [ [ [ [ [ - $ $ & < < < < < < < < < < < < < < < < < < < < < < < < < < < < < < < < < < < < < < < < < < < < < < < < < < < < < < < < < < < < < < < < < < < < < : $ $ , 9 9 9 0 e e e e e e e e e e e e e e e e e e e e e e e e e e e e e e e e e e e e e e e e e e e e e e e e e e e e e e e e e e e e e e e e e e e e e e e e e e e e e e e e e e e e e e e e e e e e e e e e e e e e e e e e e e e e e e e e e e e e e e e e e e e e e e e e e e e e ",
"e e e e e e e e e e e e e e e e e e e e e e e e e e e e e e e e e e e e e e e e e e e e e e e e e e e e e e e e e e e e e e e e e e e e e e e e e e e e e e e e e e e e e e e e e e e e e e e e e e e e e e e e e e e e e e e e e e e e e e e e e e e e e e e e e e e e e e e e e e e e e e e e e e e e e e e e e e e e e e e e e e e e e e e e e e e e e e e e e e e e e e e e e e e e e e e e e e e 1 $ $ $ S R R R R R R R R R R R R X.9.9.!.!.!.!.!.!.!.!.!.!.u.9.9.!.!.!.+XeXeXeXeXeXeXeXeXo   X v v v v v v v v v v v v v v v v v v v v v v v v a.eXo     x v v v v v v v v v v v v v v v v v v v v v v v v v v x     v v v v v v v v v a.eXeXeXo     v v v v v v v v v X     v v v v v v v v v $.eXeXeXeXeXeXK.    z v v v v v v v v v eXeXeXeXeXeXeXeXeXeXeXqXQ   z v v v v v v v v v v v v v v v v v v v v eXeXeXeXeXeXeXeXeXeXeXeXeXeXeXeXeXQ     x v v v v v v v v v v v v v v v v v v v a.qXeXeXeXo     v v v v v v v v v XXeXeXo     v v v v v v v v v v v v v v v v v v v $.eXQ.    X v v v v v v v v v v v v v v v v v v v v eXeXeXqXK.o z v v v v v v v v v v v v v v v v v v v v v v v v a.eXMXMXMX/.9.9.] [ [ [ [ [ [ [ [ [ [ [ [ [ [ [ [ [ [ [ [ [ [ [ [ [ - $ $ & < < < < < < < < < < < < < < < < < < < < < < < < < < < < < < < < < < < < < < < < < < < < < < < < < < < < < < < < < < < < < < < < < < < < < < & $ $ , 9 9 9 0 e e e e e e e e e e e e e e e e e e e e e e e e e e e e e e e e e e e e e e e e e e e e e e e e e e e e e e e e e e e e e e e e e e e e e e e e e e e e e e e e e e e e e e e e e e e e e e e e e e e e e e e e e e e e e e e e e e e e e e e e e e e e e e e e e e e ",
"e e e e e e e e e e e e e e e e e e e e e e e e e e e e e e e e e e e e e e e e e e e e e e e e e e e e e e e e e e e e e e e e e e e e e e e e e e e e e e e e e e e e e e e e e e e e e e e e e e e e e e e e e e e e e e e e e e e e e e e e e e e e e e e e e e e e e e e e e e e e e e e e e e e e e e e e e e e e e e e e e e e e e e e e e e e e e e e e e e e e e e e e e e e e e e e e e e e e < $ $ = R R R R R R R R R R R R X.9.9.!.!.!.!.!.!.!.!.!.!.u.9.9.!.!.!.+XeXeXeXeXeXeXeXeXo   X v v v v v v v v v v v v v v v v v v v v v v v v $.Q.    X v v v v v v v v v v v $.a.K x x v v v v v v v v v v v x     v v v v v v v v v a.eXeX!     X v v v v v v v v v X   X v v v v v v v v v XXeXeXeXeXeXeXQ.    z v v v v v v v v v eXeXeXeXeXeXeXeXeXeXeXeXqXqXK.n $.v v v v v v v v v v v v v v v v v v eXeXeXeXeXeXeXeXeXeXeXeXeXeXeXeXeXQ     x v v v v v v v v v v v v v v v v v $.a.eXeXeXeXeXo     v v v v v v v v v XXeXQ.    X v v v v v v v v v v v v v v v v v v v $.eXo     x v v v v v v v v v v v v v v v v v v v v eXeXeXeXeXqXQ X x v v v v v v v v v v v v x v v v v v v v v v a.MXMXMXMX/.9.9.] [ [ [ [ [ [ [ [ [ [ [ [ [ [ [ [ [ [ [ [ [ [ [ [ [ - $ $ & < < < < < < < < < < < < < < < < < < < < < < < < < < < < < < < < < < < < < < < < < < < < < < < < < < < < < < < < < < < < < < < < < < < < < < > $ $ & 9 9 9 9 0 e e e e e e e e e e e e e e e e e e e e e e e e e e e e e e e e e e e e e e e e e e e e e e e e e e e e e e e e e e e e e e e e e e e e e e e e e e e e e e e e e e e e e e e e e e e e e e e e e e e e e e e e e e e e e e e e e e e e e e e e e e e e e e e e e e ",
"e e e e e e e e e e e e e e e e e e e e e e e e e e e e e e e e e e e e e e e e e e e e e e e e e e e e e e e e e e e e e e e e e e e e e e e e e e e e e e e e e e e e e e e e e e e e e e e e e e e e e e e e e e e e e e e e e e e e e e e e e e e e e e e e e e e e e e e e e e e e e e e e e e e e e e e e e e e e e e e e e e e e e e e e e e e e e e e e e e e e e e e e e e e e e e e e e e e e e < $ $ 7 / R R R R R R R R R R X.9.9.!.!.!.!.!.!.!.!.!.!.u.9.9.!.!.!.7XeXeXeXeXeXeXeXeXo   X v v v v v v v v v $.$.a.K z x v v v v v v v v v v Q.    x v v v v v v v v v v a.qXeXqXQ   z v v v v v v v v v v x     v v v v v v v v v L ! !     z x v v v v v v v v v o   X v v v v v v v v v XXeXeXeXeXeXeXQ.    z v v v v v v v v v eXeXeXeXeXeXeXeXeXeXeXeXeXeXeXqXqXXXXX$.$.v v v v v v v v v v v v v v XXeXeXeXeXeXeXeXeXeXeXeXeXeXeXeXeXQ     x v v v v v v v v v $.a.a.a.a.a.XXqXqXeXeXeXeXeXeXo     v v v v v v v v v XXeXo     x v v v v v v v v v v v v v v v v v v v $.Q.    X v v v v v v v v v v v v v v v v v v v v v eXeXeXeXeXeXqXqXK.K x v v v v v v v v v a.Q v v v v $.$.a.a.a.XXMXMXMXMX/.9.9.] [ [ [ [ [ [ [ [ [ [ [ [ [ [ [ [ [ [ [ [ [ [ [ [ [ - $ $ & < < < < < < < < < < < < < < < < < < < < < < < < < < < < < < < < < < < < < < < < < < < < < < < < < < < < < < < < < < < < < < < < < < < < < < < : $ $ , 9 9 9 9 0 e e e e e e e e e e e e e e e e e e e e e e e e e e e e e e e e e e e e e e e e e e e e e e e e e e e e e e e e e e e e e e e e e e e e e e e e e e e e e e e e e e e e e e e e e e e e e e e e e e e e e e e e e e e e e e e e e e e e e e e e e e e e e e e e e ",
"e e e e e e e e e e e e e e e e e e e e e e e e e e e e e e e e e e e e e e e e e e e e e e e e e e e e e e e e e e e e e e e e e e e e e e e e e e e e e e e e e e e e e e e e e e e e e e e e e e e e e e e e e e e e e e e e e e e e e e e e e e e e e e e e e e e e e e e e e e e e e e e e e e e e e e e e e e e e e e e e e e e e e e e e e e e e e e e e e e e e e e e e e e e e e e e e e e e e e e $ $ $ / R R R R R R R R R R X.9.9.!.!.!.!.!.!.!.!.!.!.u.9.9.!.!.!.7XeXeXeXeXeXeXeXeXo   X v v v v v v v v v XXqXeXqX    z v v v v v v v v v o     v v v v v v v v v v XXeXeXeXeXqXo   z v v v v v v v v v x     v v v v v v v v v x x x x v v v v v v v v v v v $.o   X v v v v v v v v v XXeXeXeXeXeXeXo     x v v v v v v v v v eXeXeXeXeXeXeXeXeXeXeXeXeXeXeXeXeXeXeXqXqXK.X X v v v v v v v v v v v XXeXeXeXeXeXeXeXeXeXeXeXeXeXeXeXeXQ     x v v v v v v v v a.qXeXeXeXeXeXeXeXeXeXeXeXeXeXeXo     v v v v v v v v v XXQ.    X v v v v v v v v v v v v v v v v v v v v $.o     x v v v v v v v v v v v v v v v v v v v v v eXeXeXeXeXeXeXeXeXqXqXXXXX$.$.$.$.$.a.XXeXqXqXqXqXqXqXqXeXeXeXeXMXMXMXMX/.9.9.] [ [ [ [ [ [ [ [ [ [ [ [ [ [ [ [ [ [ [ [ [ [ [ [ [ - $ $ & < < < < < < < < < < < < < < < < < < < < < < < < < < < < < < < < < < < < < < < < < < < < < < < < < < < < < < < < < < < < < < < < < < < < < < < < $ $ $ 9 9 9 9 0 e e e e e e e e e e e e e e e e e e e e e e e e e e e e e e e e e e e e e e e e e e e e e e e e e e e e e e e e e e e e e e e e e e e e e e e e e e e e e e e e e e e e e e e e e e e e e e e e e e e e e e e e e e e e e e e e e e e e e e e e e e e e e e e e e ",
"e e e e e e e e e e e e e e e e e e e e e e e e e e e e e e e e e e e e e e e e e e e e e e e e e e e e e e e e e e e e e e e e e e e e e e e e e e e e e e e e e e e e e e e e e e e e e e e e e e e e e e e e e e e e e e e e e e e e e e e e e e e e e e e e e e e e e e e e e e e e e e e e e e e e e e e e e e e e e e e e e e e e e e e e e e e e e e e e e e e e e e e e e e e e e e e e e e e e e e < $ $ 7 R R R R R R R R R R X.9.9.!.!.!.!.!.!.!.!.!.!.u.9.9.!.!.!.7XeXeXeXeXeXeXeXeXo   X v v v v v v v v v XXeXeXeX    z v v v v v v v v v o   X v v v v v v v v v a.eXeXeXeXeXeXQ     v v v v v v v v v x     v v v v v v v v v v v v v v v v v v v v v v v v XXo   X v v v v v v v v v a.eXeXeXeXeXQ.    X v v v v v v v v v v eXeXeXeXeXeXeXeXeXeXeXeXQ.eXeXeXeXeXeXeXeXeX    z v v v v v v v v v v eXeXeXeXeXeXeXeXeXeXeXeXeXeXeXeXeXQ     x v v v v v v v v a.eXeXeXeXeXeXeXeXeXeXeXeXeXeXeXo     v v v v v v v v v XXo     x v v v v v v v v v v v v v v v v v v v v x     X v v v v v v v v v v v v v v v v v v v v $.$.eXeXeXeXeXeXeXeXeXeXeXeXeXqXqXqXqXqXeXeXeXeXeXeXeXeXeXeXeXeXeXeXMXMXMXMX/.9.9.] [ [ [ [ [ [ [ [ [ [ [ [ [ [ [ [ [ [ [ [ [ [ [ [ [ - $ $ $ < < < < < < < < < < < < < < < < < < < < < < < < < < < < < < < < < < < < < < < < < < < < < < < < < < < < < < < < < < < < < < < < < < < < < < < < : $ $ , 9 9 9 9 0 0 e e e e e e e e e e e e e e e e e e e e e e e e e e e e e e e e e e e e e e e e e e e e e e e e e e e e e e e e e e e e e e e e e e e e e e e e e e e e e e e e e e e e e e e e e e e e e e e e e e e e e e e e e e e e e e e e e e e e e e e e e e e e e 0 0 ",
"e e e e e e e e e e e e e e e e e e e e e e e e e e e e e e e e e e e e e e e e e e e e e e e e e e e e e e e e e e e e e e e e e e e e e e e e e e e e e e e e e e e e e e e e e e e e e e e e e e e e e e e e e e e e e e e e e e e e e e e e e e e e e e e e e e e e e e e e e e e e e e e e e e e e e e e e e e e e e e e e e e e e e e e e e e e e e e e e e e e e e e e e e e e e e e e e e e e e e e e < $ $ 7 R R R R R R R R R X.9.9.!.!.!.!.!.!.!.!.!.!.u.9.9.!.!.!.7XeXeXeXeXeXeXeXeXo   X v v v v v v v v v XXeXeXQ.    X v v v v v v v v v     X v v v v v v v v v XXeXeXeXeXeXeXQ     x v v v v v v v v x     v v v v v v v v v v v v v v v v v v v v v v v $.eXQ     v v v v v v v v v v XXeXeXeX! .     v v v v v v v v v v v eXeXeXeXeXeXeXeXeXeXeXeX. . M $.XXQ.Q.Q.! .     x v v v v v v v v v $.eXeXeXeXeXeXeXeXeXeXeXeXeXeXeXeXeXQ     x v v v v v v v v a.eXeXeXeXeXeXeXeXeXeXeXeXeXeXeXo     v v v v v v v v v XX    X v v v v v v v v v v v v v v v v v v v v v x o o x v v v v v v v $.$.$.a.a.a.a.XXXXXXqXqXqXqXqXeXeXeXeXeXeXeXeXeXeXeXeXeXeXeXeXeXeXeXeXeXeXeXeXeXeXeXeXeXeXeXMXMXMXMXMX/.9.9.] [ [ [ [ [ [ [ [ [ [ [ [ [ [ [ [ [ [ [ [ [ [ [ [ [ - $ $ $ < < < < < < < < < < < < < < < < < < < < < < < < < < < < < < < < < < < < < < < < < < < < < < < < < < < < < < < < < < < < < < < < < < < < < < < < < : $ $ 9 9 9 9 9 9 0 e e e e e e e e e e e e e e e e e e e e e e e e e e e e e e e e e e e e e e e e e e e e e e e e e e e e e e e e e e e e e e e e e e e e e e e e e e e e e e e e e e e e e e e e e e e e e e e e e e e e e e e e e e e e e e e e e 0 0 0 0 0 0 0 0 9 9 9 9 9 ",
"e e e e e e e e e e e e e e e e e e e e e e e e e e e e e e e e e e e e e e e e e e e e e e e e e e e e e e e e e e e e e e e e e e e e e e e e e e e e e e e e e e e e e e e e e e e e e e e e e e e e e e e e e e e e e e e e e e e e e e e e e e e e e e e e e e e e e e e e e e e e e e e e e e e e e e e e e e e e e e e e e e e e e e e e e e e e e e e e e e e e e e e e e e e e e e e e e e e e e e e e $ $ $ R R R R R R R R R X.9.9.!.!.!.!.!.!.!.!.!.!.u.9.9.!.!.!.7XeXeXeXeXeXeXeXeXo   X v v v v v v v v v XXeX! .     x v v v v v v v v $.    z v v v v v v v v v eXeXeXeXeXeXeXQ     x v v v v v v v v x     v v v v v v v v v v v v v v v v v v v v v v v qXeXQ     v v v v v v v v v v $.XX! o     z v v v v v v v v v v v v eXeXeXeXeXeXeXeXeXeXeXQ.    X v b v x x x z z v v v v v v v v v v v $.eXeXeXeXeXeXeXeXeXeXeXeXeXeXeXeXeXQ     x v v v v v v v v a.eXeXeXeXeXeXeXeXeXeXeXeXeXeXeXo     v v v v v v v v v O.    z v v v v v v v v v v v v v v v v v v $.$.$.a.qXqXa.a.XXXXqXqXqXqXqXqXqXeXeXeXeXeXeXeXeXeXeXeXeXeXeXeXeXeXeXeXeXeXeXeXeXeXeXeXeXeXeXeXeXeXeXeXeXeXeXeXeXeXeXeXMXMXMXMXMX/.9.9.] [ [ [ [ [ [ [ [ [ [ [ [ [ [ [ [ [ [ [ [ [ [ [ [ [ - $ $ $ < < < < < < < < < < < < < < < < < < < < < < < < < < < < < < < < < < < < < < < < < < < < < < < < < < < < < < < < < < < < < < < < < < < < < < < < < : $ $ , 9 9 9 9 9 9 0 e e e e e e e e e e e e e e e e e e e e e e e e e e e e e e e e e e e e e e e e e e e e e e e e e e e e e e e e e e e e e e e e e e e e e e e e e e e e e e e e e e e e e e e e e e e e e e e e e e e e e 0 0 0 0 0 0 0 0 9 9 9 9 9 9 9 9 9 9 9 9 9 9 9 9 ",
"e e e e e e e e e e e e e e e e e e e e e e e e e e e e e e e e e e e e e e e e e e e e e e e e e e e e e e e e e e e e e e e e e e e e e e e e e e e e e e e e e e e e e e e e e e e e e e e e e e e e e e e e e e e e e e e e e e e e e e e e e e e e e e e e e e e e e e e e e e e e e e e e e e e e e e e e e e e e e e e e e e e e e e e e e e e e e e e e e e e e e e e e e e e e e e e e e e e e e e e e < $ $ 7 R R R R R R R R X.9.9.!.!.!.!.!.!.!.!.!.!.u.9.9.!.!.!.7XeXeXeXeXeXeXeXeXo   X v v v v v v v v v z X z z z v v v v v v v v v v $.    z v v v v v v v v v eXeXeXeXeXeXeXo     v v v v v v v v v x     v v v v v v v v v v v v v v v v v v v v v v XXeXeXqX    z v v v v v v v v v v b x x z v v v v v v v v v v v v v v eXeXeXeXeXeXeXeXeXeXeXQ     x v v v v v v v v v v v v v v v v v v v XXeXeXeXeXeXeXeXeXeXeXeXeXeXeXeXeXeXQ     x v v v v v v v v a.eXeXeXeXeXeXeXeXeXeXeXeXeXeXeXo     v v v v v v v v v M Q Q v v v v v v $.$.$.a.a.a.a.XXXXXXqXqXqXqXqXqXqXeXeXqXqXeXeXeXeXeXeXeXeXeXeXeXeXeXeXeXeXeXeXeXeXeXeXeXeXeXeXeXeXeXeXeXeXeXeXeXeXeXeXeXeXeXeXeXeXeXeXeXeXeXeXeXeXMXMXMXMXMX/.9.9.] [ [ [ [ [ [ [ [ [ [ [ [ [ [ [ [ [ [ [ [ [ [ [ [ [ - $ $ $ < < < < < < < < < < < < < < < < < < < < < < < < < < < < < < < < < < < < < < < < < < < < < < < < < < < < < < < < < < < < < < < < < < < < < < < < < < : $ $ , 9 9 9 9 9 9 0 0 e e e e e e e e e e e e e e e e e e e e e e e e e e e e e e e e e e e e e e e e e e e e e e e e e e e e e e e e e e e e e e e e e e e e e e e e e e e e e e e e e e e e e e e e 0 0 0 0 0 0 0 0 9 9 9 9 9 9 9 9 9 9 9 9 9 9 9 9 9 9 9 9 9 9 9 9 9 9 9 ",
"e e e e e e e e e e e e e e e e e e e e e e e e e e e e e e e e e e e e e e e e e e e e e e e e e e e e e e e e e e e e e e e e e e e e e e e e e e e e e e e e e e e e e e e e e e e e e e e e e e e e e e e e e e e e e e e e e e e e e e e e e e e e e e e e e e e e e e e e e e e e e e e e e e e e e e e e e e e e e e e e e e e e e e e e e e e e e e e e e e e e e e e e e e e e e e e e e e e e e e e e e $ $ $ R R R R R R R R X.9.9.!.!.!.!.!.!.!.!.!.!.u.9.9.!.!.!.7XeXeXeXeXeXeXeXeXo   X v v v v v v v v v v v v v v v v v v v v v v v v XX    z v v v v v v v v v eXeXeXeXeXeXQ.    X v v v v v v v v v x     v v v v v v v v v v v v v v v v v v v v v XXeXeXeXeXQ   z v v v v v v v v v v v v v v v v v v v v v v v v v v v v eXeXeXeXeXeXeXeXeXeXeXo     v v v v v v v v v v v v v v v v v v v a.eXeXeXeXeXeXeXeXeXeXeXeXeXeXeXeXeXeXQ     x v v v v v v v v a.eXeXeXeXeXeXeXeXeXeXeXeXeXeXeXK.Q Q v v v v $.$.$.a.a.XXqXqXXXXXXXqXqXqXqXqXqXqXqXqXqXeXeXeXeXeXeXeXeXeXeXeXeXeXeXeXeXeXeXeXeXeXeXeXeXeXeXeXeXeXeXeXeXeXeXeXeXeXeXeXeXeXeXeXeXeXeXeXeXeXeXeXeXeXeXeXeXeXeXeXeXeXeXeXeXeXeXMXMXMXMXMX/.9.9.] [ [ [ [ [ [ [ [ [ [ [ [ [ [ [ [ [ [ [ [ [ [ [ [ [ - $ $ $ < < < < < < < < < < < < < < < < < < < < < < < < < < < < < < < < < < < < < < < < < < < < < < < < < < < < < < < < < < < < < < < < < < < < < < < < < < < $ $ , 9 9 9 9 9 9 9 9 0 e e e e e e e e e e e e e e e e e e e e e e e e e e e e e e e e e e e e e e e e e e e e e e e e e e e e e e e e e e e e e e e e e e e e e e e e e e e e 0 0 0 0 0 0 0 0 9 9 9 9 9 9 9 9 9 9 9 9 9 9 9 9 9 9 9 9 9 9 9 9 9 9 9 9 9 9 9 9 9 9 9 9 9 9 ",
"e e e e e e e e e e e e e e e e e e e e e e e e e e e e e e e e e e e e e e e e e e e e e e e e e e e e e e e e e e e e e e e e e e e e e e e e e e e e e e e e e e e e e e e e e e e e e e e e e e e e e e e e e e e e e e e e e e e e e e e e e e e e e e e e e e e e e e e e e e e e e e e e e e e e e e e e e e e e e e e e e e e e e e e e e e e e e e e e e e e e e e e e e e e e e e e e e e e e e e e e e < $ $ 7 R R R R R R R X.9.9.!.!.!.!.!.!.!.!.!.!.u.9.9.!.!.!.7XeXeXeXeXeXeXeXeXo   X v v v v v v v v v v v v v v v v v v v v v v v $.eX    z v v v v v v v v v a.eXeXeXeXQ..     x v v v v v v v v v x     v v v v v v v v v v v v v v v v v v v a.qXeXeXeXeXeXqX    v v v v v v v v v v v v v v v v v v v v v v v v v v v v eXeXeXeXeXeXeXeXeXeXeX    X v v v v v v v v v v v v v v v v v v $.qXeXeXeXeXeXeXeXeXeXeXeXeXeXeXeXeXeXeXQ     x v v v v v v v v a.eXeXeXeXeXeXeXeXeXeXeXeXeXeXeXqXqXqXXXqXqXqXqXqXqXqXqXeXeXeXeXeXeXeXeXeXeXeXeXeXeXeXeXeXeXeXeXeXeXeXeXeXeXeXeXeXeXeXeXeXeXeXeXeXeXeXeXeXeXeXeXeXeXeXeXeXeXeXeXeXeXeXeXeXeXeXeXeXeXeXeXeXeXeXeXeXeXeXeXeXeXeXeXeXeXeXeXeXMXMXMXMXMXMX/.9.9.] [ [ [ [ [ [ [ [ [ [ [ [ [ [ [ [ [ [ [ [ [ [ [ [ [ - $ $ $ < < < < < < < < < < < < < < < < < < < < < < < < < < < < < < < < < < < < < < < < < < < < < < < < < < < < < < < < < < < < < < < < < < < < < < < < < < < : $ $ < 9 9 9 9 9 9 9 9 9 0 e e e e e e e e e e e e e e e e e e e e e e e e e e e e e e e e e e e e e e e e e e e e e e e e e e e e e e e e e e e e e e 0 0 0 0 0 0 0 0 9 9 9 9 9 9 9 9 9 9 9 9 9 9 9 9 9 9 9 9 9 9 9 9 9 9 9 9 9 9 9 9 9 9 9 9 9 9 9 9 9 9 9 9 9 9 9 9 9 9 ",
"e e e e e e e e e e e e e e e e e e e e e e e e e e e e e e e e e e e e e e e e e e e e e e e e e e e e e e e e e e e e e e e e e e e e e e e e e e e e e e e e e e e e e e e e e e e e e e e e e e e e e e e e e e e e e e e e e e e e e e e e e e e e e e e e e e e e e e e e e e e e e e e e e e e e e e e e e e e e e e e e e e e e e e e e e e e e e e e e e e e e e e e e e e e e e e e e e e e e e e e e e e < $ $ 7 R R R R R R X.9.9.!.!.!.!.!.!.!.!.!.!.u.9.9.!.!.!.7XeXeXeXeXeXeXeXeXo   X v v v v v v v v v v v v v v v v v v v v v v v XXeXQ   X v v v v v v v v v b a.eXeX! .     x v v v v v v v v v v x     v v v v v v v v v v v v $.$.$.a.a.a.qXqXeXeXeXeXeXeXeXQ   z v v v v v v v v v v v v v v v v v v v v v v v v v v v eXeXeXeXeXeXeXeXeXeXQ.    X v v v v v v v v v v v v v v v v v $.qXeXeXeXeXeXeXeXeXeXeXeXeXeXeXeXeXeXeXeXK.Q Q E v v v v $.$.a.a.XXeXeXeXeXeXeXeXeXeXeXeXeXeXeXeXeXeXeXeXeXeXeXeXeXeXeXeXeXeXeXeXeXeXeXeXeXeXeXeXeXeXeXeXeXeXeXeXeXeXeXeXeXeXeXeXeXeXeXeXeXeXeXeXeXeXeXeXeXeXeXeXeXeXeXeXeXeXeXeXeXeXeXeXeXeXeXeXeXeXeXeXeXeXeXeXeXeXeXeXeXeXeXeXeXeXeXeXeXMXMXMXMXMXMX/.9.9.] [ [ [ [ [ [ [ [ [ [ [ [ [ [ [ [ [ [ [ [ [ [ [ [ [ - $ $ $ > < < < < < < < < < < < < < < < < < < < < < < < < < < < < < < < < < < < < < < < < < < < < < < < < < < < < < < < < < < < < < < < < < < < < < < < < < < : $ $ , 9 9 9 9 9 9 9 9 9 9 9 0 0 e e e e e e e e e e e e e e e e e e e e e e e e e e e e e e e e e e e e e e e e e e e e e 0 0 0 0 0 0 0 0 0 0 0 9 9 9 9 9 9 9 9 9 9 9 9 9 9 9 9 9 9 9 9 9 9 9 9 9 9 9 9 9 9 9 9 9 9 9 9 9 9 9 9 9 9 9 9 9 9 9 9 9 9 9 9 9 9 9 9 9 9 9 9 9 ",
"e e e e e e e e e e e e e e e e e e e e e e e e e e e e e e e e e e e e e e e e e e e e e e e e e e e e e e e e e e e e e e e e e e e e e e e e e e e e e e e e e e e e e e e e e e e e e e e e e e e e e e e e e e e e e e e e e e e e e e e e e e e e e e e e e e e e e e e e e e e e e e e e e e e e e e e e e e e e e e e e e e e e e e e e e e e e e e e e e e e e e e e e e e e e e e e e e e e e e e e e e e e $ $ = R R R R R R X.9.9.!.!.!.!.!.!.!.!.!.!.u.9.9.!.!.!.7XeXeXeXeXeXeXeXeXo   X v v v v v v v v v v v v v v v v v v v v v v XXeXeXQ     v v v v v v v v v v b c X X z z v v v v v v v v v v v v x     v v v v v v v v v a.qXqXqXqXqXqXqXqXeXeXeXeXeXeXeXeXeXqXQ   z v v v v v v v v v v v v v v v v v v v v v v v v v v eXeXeXeXeXeXeXeXeXeX!     x v v v v v v v v v v v v v v v v a.qXeXeXeXeXeXeXeXeXeXeXeXeXeXeXeXeXeXeXeXeXqXqXqXXXqXqXqXqXqXqXqXqXeXeXeXeXeXeXeXeXeXeXeXeXeXeXeXeXeXeXeXeXeXeXeXeXeXeXeXeXeXeXeXeXeXeXeXeXeXeXeXeXeXeXeXeXeXeXeXeXeXeXeXeXeXeXeXeXeXeXeXeXeXeXeXeXeXeXeXeXeXeXeXeXeXeXeXeXeXeXeXeXeXeXeXeXeXeXeXeXeXeXeXeXeXeXeXeXeXeXeXeXeXeXeXeXeXeXeXeXMXMXMXMXMXMXMX/.9.9.] [ [ [ [ [ [ [ [ [ [ [ [ [ [ [ [ [ [ [ [ [ [ [ [ [ - $ $ $ > < < < < < < < < < < < < < < < < < < < < < < < < < < < < < < < < < < < < < < < < < < < < < < < < < < < < < < < < < < < < < < < < < < < < < < < < < < < & $ $ 9 9 9 9 9 9 9 9 9 9 9 9 9 9 0 0 0 e e e e e e e e e e e e e e e e e e e e e e e e 0 0 0 0 0 0 0 0 0 0 0 0 9 9 9 9 9 9 9 9 9 9 9 9 9 9 9 9 9 9 9 9 9 9 9 9 9 9 9 9 9 9 9 9 9 9 9 9 9 9 9 9 9 9 9 9 9 9 9 9 9 9 9 9 9 9 9 9 9 9 9 9 9 9 9 9 9 9 9 9 9 9 9 9 9 9 9 9 9 ",
"e e e e e e e e e e e e e e e e e e e e e e e e e e e e e e e e e e e e e e e e e e e e e e e e e e e e e e e e e e e e e e e e e e e e e e e e e e e e e e e e e e e e e e e e e e e e e e e e e e e e e e e e e e e e e e e e e e e e e e e e e e e e e e e e e e e e e e e e e e e e e e e e e e e e e e e e e e e e e e e e e e e e e e e e e e e e e e e e e e e e e e e e e e e e e e e e e e e e e e e e e e e < $ $ 7 R R R R R X.9.9.!.!.!.!.!.!.!.!.!.!.u.9.9.!.!.!.7XeXeXeXeXeXeXeXeXo   X v v v v v v v v v v v v v v v v v v v v v a.eXeXeXqX    z v v v v v v v v v v v v v v v v v v v v v v v v v v v x     v v v v v v v v v a.eXeXeXeXeXeXeXeXeXeXeXeXeXeXeXeXeXeXqXQ   z v v v v v v v v v v v v v v v v v v v v v v v v v eXeXeXeXeXeXeXeXeXeXqXK.o E v v v v v v v v v v v v v v a.qXqXeXeXeXeXeXeXeXeXeXeXeXeXeXeXeXeXeXeXeXeXeXeXeXeXeXeXeXeXeXeXeXeXeXeXeXeXeXeXeXeXeXeXeXeXeXeXeXeXeXeXeXeXeXeXeXeXeXeXeXeXeXeXeXeXeXeXeXeXeXeXeXeXeXeXeXeXeXeXeXeXeXeXeXeXeXeXeXeXeXeXeXeXeXeXeXeXeXeXeXeXeXeXeXeXeXeXeXeXeXeXeXeXeXeXeXeXeXeXeXeXeXeXeXeXeXeXeXeXeXeXeXeXeXeXeXeXeXeXeXeXeXMXMXMXMXMXMXMX/.9.9.] [ [ [ [ [ [ [ [ [ [ [ [ [ [ [ [ [ [ [ [ [ [ [ [ [ - $ $ $ > < < < < < < < < < < < < < < < < < < < < < < < < < < < < < < < < < < < < < < < < < < < < < < < < < < < < < < < < < < < < < < < < < < < < < < < < < < < : $ $ , 9 9 9 9 9 9 9 9 9 9 9 9 9 9 9 9 9 0 0 0 0 0 0 0 0 0 0 0 0 0 0 0 0 0 0 0 9 9 9 9 9 9 9 9 9 9 9 9 9 9 9 9 9 9 9 9 9 9 9 9 9 9 9 9 9 9 9 9 9 9 9 9 9 9 9 9 9 9 9 9 9 9 9 9 9 9 9 9 9 9 9 9 9 9 9 9 9 9 9 9 9 9 9 9 9 9 9 9 9 9 9 9 9 9 9 9 9 9 9 9 9 9 9 9 9 9 9 9 9 ",
"e e e e e e e e e e e e e e e e e e e e e e e e e e e e e e e e e e e e e e e e e e e e e e e e e e e e e e e e e e e e e e e e e e e e e e e e e e e e e e e e e e e e e e e e e e e e e e e e e e e e e e e e e e e e e e e e e e e e e e e e e e e e e e e e e e e e e e e e e e e e e e e e e e e e e e e e e e e e e e e e e e e e e e e e e e e e e e e e e e e e e e e e e e e e e e e e e e e e e e e e e e e e $ $ $ R R R R R X.9.9.!.!.!.!.!.!.!.!.!.!.u.9.9.!.!.!.7XeXeXeXeXeXeXeXeXo   X v v v v v v v v v v v v v v v v v v v v XXqXeXeXeXeXQ   z v v v v v v v v v v v v v v v v v v v v v v v v v v v x     v v v v v v v v v a.eXeXeXeXeXeXeXeXeXeXeXeXeXeXeXeXeXeXeXqXQ   x v v v v v v v v v v v v v v v v v v v v v v v v eXeXeXeXeXeXeXeXeXeXeXqXqXqXqXXX$.$.$.v v v v v $.a.a.qXqXeXeXeXeXeXeXeXeXeXeXeXeXeXeXeXeXeXeXeXeXeXeXeXeXeXeXeXeXeXeXeXeXeXeXeXeXeXeXeXeXeXeXeXeXeXeXeXeXeXeXeXeXeXeXeXeXeXeXeXeXeXeXeXeXeXeXeXeXeXeXeXeXeXeXeXeXeXeXeXeXeXeXeXeXeXeXeXeXeXeXeXeXeXeXeXeXeXeXeXeXeXeXeXeXeXeXeXeXeXeXeXeXeXeXeXeXeXeXeXeXeXeXeXeXeXeXeXeXeXeXeXeXeXeXeXeXeXeXeXeXeXeXMXMXMXMXMXMXMXMX/.9.9.] [ [ [ [ [ [ [ [ [ [ [ [ [ [ [ [ [ [ [ [ [ [ [ [ [ - $ $ $ > < < < < < < < < < < < < < < < < < < < < < < < < < < < < < < < < < < < < < < < < < < < < < < < < < < < < < < < < < < < < < < < < < < < < < < < < < < < < $ $ % 9 9 9 9 9 9 9 9 9 9 9 9 9 9 9 9 9 9 9 9 9 9 9 9 9 9 9 9 9 9 9 9 9 9 9 9 9 9 9 9 9 9 9 9 9 9 9 9 9 9 9 9 9 9 9 9 9 9 9 9 9 9 9 9 9 9 9 9 9 9 9 9 9 9 9 9 9 9 9 9 9 9 9 9 9 9 9 9 9 9 9 9 9 9 9 9 9 9 9 9 9 9 9 9 9 9 9 9 9 9 9 9 9 9 9 9 9 9 9 9 9 9 9 9 9 9 9 9 9 ",
"e e e e e e e e e e e e e e e e e e e e e e e e e e e e e e e e e e e e e e e e e e e e e e e e e e e e e e e e e e e e e e e e e e e e e e e e e e e e e e e e e e e e e e e e e e e e e e e e e e e e e e e e e e e e e e e e e e e e e e e e e e e e e e e e e e e e e e e e e e e e e e e e e e e e e e e e e e e e e e e e e e e e e e e e e e e e e e e e e e e e e e e e e e e e e e e e e e e e e e e e e e e e < $ $ 7 R R R R X.9.9.!.!.!.!.!.!.!.!.!.!.u.9.9.!.!.!.7XeXeXeXeXeXeXeXeXo   X v v v v v v v v v v v v v v v v v a.a.qXeXeXeXeXeXeXqX    z v v v v v v v v v v v v v v v v v v v v v v v v v v x     v v v v v v v v v a.eXeXeXeXeXeXeXeXeXeXeXeXeXeXeXeXeXeXeXeXqXK.o z v v v v v v v v v v v v v x v v v v v v v v v eXeXeXeXeXeXeXeXeXeXeXeXeXeXeXeXqXqXqXqXqXqXqXqXqXqXqXeXeXeXeXeXeXeXeXeXeXeXeXeXeXeXeXeXeXeXeXeXeXeXeXeXeXeXeXeXeXeXeXeXeXeXeXeXeXeXeXeXeXeXeXeXeXeXeXeXeXeXeXeXeXeXeXeXeXeXeXeXeXeXeXeXeXeXeXeXeXeXeXeXeXeXeXeXeXeXeXeXeXeXeXeXeXeXeXeXeXeXeXeXeXeXeXeXeXeXeXeXeXeXeXeXeXeXeXeXeXeXeXeXeXeXeXeXeXeXeXeXeXeXeXeXeXeXeXeXeXeXeXeXeXeXeXeXeXeXeXeXeXeXeXMXMXMXMXMXMXMXMXJ.9.9.[ [ [ [ [ [ [ [ [ [ [ [ [ [ [ [ [ [ [ [ [ [ [ [ [ [ - $ $ $ > < < < < < < < < < < < < < < < < < < < < < < < < < < < < < < < < < < < < < < < < < < < < < < < < < < < < < < < < < < < < < < < < < < < < < < < < < < < < : $ $ < 9 9 9 9 9 9 9 9 9 9 9 9 9 9 9 9 9 9 9 9 9 9 9 9 9 9 9 9 9 9 9 9 9 9 9 9 9 9 9 9 9 9 9 9 9 9 9 9 9 9 9 9 9 9 9 9 9 9 9 9 9 9 9 9 9 9 9 9 9 9 9 9 9 9 9 9 9 9 9 9 9 9 9 9 9 9 9 9 9 9 9 9 9 9 9 9 9 9 9 9 9 9 9 9 9 9 9 9 9 9 9 9 9 9 9 9 9 9 9 9 9 9 9 9 9 9 9 9 ",
"e e e e e e e e e e e e e e e e e e e e e e e e e e e e e e e e e e e e e e e e e e e e e e e e e e e e e e e e e e e e e e e e e e e e e e e e e e e e e e e e e e e e e e e e e e e e e e e e e e e e e e e e e e e e e e e e e e e e e e e e e e e e e e e e e e e e e e e e e e e e e e e e e e e e e e e e e e e e e e e e e e e e e e e e e e e e e e e e e e e e e e e e e e e e e e e e e e e e e e e e e e e e e $ $ $ R R R R X.9.9.!.!.!.!.!.!.!.!.!.!.u.9.9.!.!.!.7XeXeXeXeXeXeXeXeXo   X v v v v v v v v v a.a.XXXXXXqXqXqXqXqXeXeXeXeXeXeXeXeXQ     v v v v v v v v v v v v v v v v v v v v v v v v v v x     v v v v v v v v v a.eXeXeXeXeXeXeXeXeXeXeXeXeXeXeXeXeXeXeXeXeXqXqXK.n $.v v v v v v v v v v O.a.v v $.$.a.a.a.a.XXeXeXeXeXeXeXeXeXeXeXeXeXeXeXeXeXeXeXeXeXeXeXeXeXeXeXeXeXeXeXeXeXeXeXeXeXeXeXeXeXeXeXeXeXeXeXeXeXeXeXeXeXeXeXeXeXeXeXeXeXeXeXeXeXeXeXeXeXeXeXeXeXeXeXeXeXeXeXeXeXeXeXeXeXeXeXeXeXeXeXeXeXeXeXeXeXeXeXeXeXeXeXeXeXeXeXeXeXeXeXeXeXeXeXeXeXeXeXeXeXeXeXeXeXeXeXeXeXeXeXeXeXeXeXeXeXeXeXeXeXeXeXeXeXeXeXeXeXeXeXeXeXeXeXeXeXeXeXeXeXeXeXeXeXeXeXeXeXeXeXMXMXMXMXxXqXqXqX6Xe.9.9.[ [ [ [ [ [ [ [ [ [ [ [ [ [ [ [ [ [ [ [ [ [ [ [ [ [ - $ $ $ > < < < < < < < < < < < < < < < < < < < < < < < < < < < < < < < < < < < < < < < < < < < < < < < < < < < < < < < < < < < < < < < < < < < < < < < < < < < < < $ $ , 9 9 9 9 9 9 9 9 9 9 9 9 9 9 9 9 9 9 9 9 9 9 9 9 9 9 9 9 9 9 9 9 9 9 9 9 9 9 9 9 9 9 9 9 9 9 9 9 9 9 9 9 9 9 9 9 9 9 9 9 9 9 9 9 9 9 9 9 9 9 9 9 9 9 9 9 9 9 9 9 9 9 9 9 9 9 9 9 9 9 9 9 9 9 9 9 9 9 9 9 9 9 9 9 9 9 9 9 9 9 9 9 9 9 9 9 9 9 9 9 9 9 9 9 9 9 9 9 ",
"e e e e e e e e e e e e e e e e e e e e e e e e e e e e e e e e e e e e e e e e e e e e e e e e e e e e e e e e e e e e e e e e e e e e e e e e e e e e e e e e e e e e e e e e e e e e e e e e e e e e e e e e e e e e e e e e e e e e e e e e e e e e e e e e e e e e e e e e e e e e e e e e e e e e e e e e e e e e e e e e e e e e e e e e e e e e e e e e e e e e e e e e e e e e e e e e e e e e e e e e e e e e e < $ $ 7 R R R X.9.9.!.!.!.!.!.!.!.!.!.!.u.9.9.!.!.!.7XeXeXeXeXeXeXeXeXo   X v v v v v v v v v XXqXeXeXeXeXeXeXeXeXeXeXeXeXeXeXeXeXqXQ   z v v v v v v v v v v v v v v v v v v v v v v v v v x     v v v v v v v v v a.eXeXeXeXeXeXeXeXeXeXeXeXeXeXeXeXeXeXeXeXeXeXeXqXqXqXqXXXa.E E E E a.a.qXqXqXqXqXqXqXqXqXqXqXeXeXeXeXeXeXeXeXeXeXeXeXeXeXeXeXeXeXeXeXeXeXeXeXeXeXeXeXeXeXeXeXeXeXeXeXeXeXeXeXeXeXeXeXeXeXeXeXeXeXeXeXeXeXeXeXeXeXeXeXeXeXeXeXeXeXeXeXeXeXeXeXeXeXeXeXeXeXeXeXeXeXeXeXeXeXeXeXeXeXeXeXeXeXeXeXeXeXeXeXeXeXeXeXeXeXeXeXeXeXeXeXeXeXeXeXeXeXeXeXeXeXeXeXeXeXeXeXeXeXeXeXeXeXeXeXeXeXeXeXeXeXeXeXeXeXeXeXeXeXeXeXeXeXeXeXeXeXeXeXeXeXeXeXeXeXeXeXeX7X6X7XqX/./././././.!.9.9.X.[ [ [ [ [ [ [ [ [ [ [ [ [ [ [ [ [ [ [ [ [ [ [ [ [ [ - % $ $ : < < < < < < < < < < < < < < < < < < < < < < < < < < < < < < < < < < < < < < < < < < < < < < < < < < < < < < < < < < < < < < < < < < < < < < < < < < < < < : $ % < 9 9 9 9 9 9 9 9 9 9 9 9 9 9 9 9 9 9 9 9 9 9 9 9 9 9 9 9 9 9 9 9 9 9 9 9 9 9 9 9 9 9 9 9 9 9 9 9 9 9 9 9 9 9 9 9 9 9 9 9 9 9 9 9 9 9 9 9 9 9 9 9 9 9 9 9 9 9 9 9 9 9 9 9 9 9 9 9 9 9 9 9 9 9 9 9 9 9 9 9 9 9 9 9 9 9 9 9 9 9 9 9 9 9 9 9 9 9 9 9 9 9 9 9 9 9 9 ",
"e e e e e e e e e e e e e e e e e e e e e e e e e e e e e e e e e e e e e e e e e e e e e e e e e e e e e e e e e e e e e e e e e e e e e e e e e e e e e e e e e e e e e e e e e e e e e e e e e e e e e e e e e e e e e e e e e e e e e e e e e e e e e e e e e e e e e e e e e e e e e e e e e e e e e e e e e e e e e e e e e e e e e e e e e e e e e e e e e e e e e e e e e e e e e e e e e e e e e e e e e e e e e e $ $ $ R R R X.9.9.!.!.!.!.!.!.!.!.!.!.u.9.9.!.!.!.7XeXeXeXeXeXeXeXeXo   X v v v v v v v v v XXeXeXeXeXeXeXeXeXeXeXeXeXeXeXeXeXeXeXqXK.  z v v v v v v v v v v v v v v v v v v v v v v v v x     v v v v v v v v v a.eXeXeXeXeXeXeXeXeXeXeXeXeXeXeXeXeXeXeXeXeXeXeXeXeXeXeXeXqXqXqXqXqXqXqXeXeXeXeXeXeXeXeXeXeXeXeXeXeXeXeXeXeXeXeXeXeXeXeXeXeXeXeXeXeXeXeXeXeXeXeXeXeXeXeXeXeXeXeXeXeXeXeXeXeXeXeXeXeXeXeXeXeXeXeXeXeXeXeXeXeXeXeXeXeXeXeXeXeXeXeXeXeXeXeXeXeXeXeXeXeXeXeXeXeXeXeXeXeXeXeXeXeXeXeXeXeXeXeXeXeXeXeXeXeXeXeXeXeXeXeXeXeXeXeXeXeXeXeXeXeXeXeXeXeXeXeXeXeXeXeXeXeXeXeXeXeXeXeXeXeXeXeXeXeXeXeXeXeXeXeXeXeXeXeXeXeXeXeXeXeXeXeXeXeXeXeXeX7X6X6X6X/.!.!.!.!././././././././.u.9.9.{ [ [ [ [ [ [ [ [ [ [ [ [ [ [ [ [ [ [ [ [ [ [ [ [ [ [ - % $ $ : < < < < < < < < < < < < < < < < < < < < < < < < < < < < < < < < < < < < < < < < < < < < < < < < < < < < < < < < < < < < < < < < < < < < < < < < < < < < < < $ $ , 9 9 9 9 9 9 9 9 9 9 9 9 9 9 9 9 9 9 9 9 9 9 9 9 9 9 9 9 9 9 9 9 9 9 9 9 9 9 9 9 9 9 9 9 9 9 9 9 9 9 9 9 9 9 9 9 9 9 9 9 9 9 9 9 9 9 9 9 9 9 9 9 9 9 9 9 9 9 9 9 9 9 9 9 9 9 9 9 9 9 9 9 9 9 9 9 9 9 9 9 9 9 9 9 9 9 9 9 9 9 9 9 9 9 9 9 9 9 9 9 9 9 9 9 9 9 9 ",
"e e e e e e e e e e e e e e e e e e e e e e e e e e e e e e e e e e e e e e e e e e e e e e e e e e e e e e e e e e e e e e e e e e e e e e e e e e e e e e e e e e e e e e e e e e e e e e e e e e e e e e e e e e e e e e e e e e e e e e e e e e e e e e e e e e e e e e e e e e e e e e e e e e e e e e e e e e e e e e e e e e e e e e e e e e e e e e e e e e e e e e e e e e e e e e e e e e e e e e e e e e e e e e < $ $ 7 R R X.9.9.!.!.!.!.!.!.!.!.!.!.u.9.9.!.!.!.7XeXeXeXeXeXeXeXeXo   X v v v v v v v v v XXeXeXeXeXeXeXeXeXeXeXeXeXeXeXeXeXeXeXeXqXK.o X v v v v v v v v v v v v v v v v v v v v v v v x o o v v v v v v v v E XXeXeXeXeXeXeXeXeXeXeXeXeXeXeXeXeXeXeXeXeXeXeXeXeXeXeXeXeXeXeXeXeXeXeXeXeXeXeXeXeXeXeXeXeXeXeXeXeXeXeXeXeXeXeXeXeXeXeXeXeXeXeXeXeXeXeXeXeXeXeXeXeXeXeXeXeXeXeXeXeXeXeXeXeXeXeXeXeXeXeXeXeXeXeXeXeXeXeXeXeXeXeXeXeXeXeXeXeXeXeXeXeXeXeXeXeXeXeXeXeXeXeXeXeXeXeXeXeXeXeXeXeXeXeXeXeXeXeXeXeXeXeXeXeXeXeXeXeXeXeXeXeXeXeXeXeXeXeXeXeXeXeXeXeXeXeXeXeXeXeXeXeXeXeXeXeXeXeXeXeXeXeXeXeXeXeXeXeXeXeXeXeXeXeXeXeXeXeXeXeX7X7X6X6X/./.!.!.!.!.!.!.!.!.!.!./././././././././.9.9.9.[ [ [ [ [ [ [ [ [ [ [ [ [ [ [ [ [ [ [ [ [ [ [ [ [ [ [ - % % % : < < < < < < < < < < < < < < < < < < < < < < < < < < < < < < < < < < < < < < < < < < < < < < < < < < < < < < < < < < < < < < < < < < < < < < < < < < < < < < & $ % 9 9 9 9 9 9 9 9 9 9 9 9 9 9 9 9 9 9 9 9 9 9 9 9 9 9 9 9 9 9 9 9 9 9 9 9 9 9 9 9 9 9 9 9 9 9 9 9 9 9 9 9 9 9 9 9 9 9 9 9 9 9 9 9 9 9 9 9 9 9 9 9 9 9 9 9 9 9 9 9 9 9 9 9 9 9 9 9 9 9 9 9 9 9 9 9 9 9 9 9 9 9 9 9 9 9 9 9 9 9 9 9 9 9 9 9 9 9 9 9 9 9 9 9 9 9 9 ",
"e e e e e e e e e e e e e e e e e e e e e e e e e e e e e e e e e e e e e e e e e e e e e e e e e e e e e e e e e e e e e e e e e e e e e e e e e e e e e e e e e e e e e e e e e e e e e e e e e e e e e e e e e e e e e e e e e e e e e e e e e e e e e e e e e e e e e e e e e e e e e e e e e e e e e e e e e e e e e e e e e e e e e e e e e e e e e e e e e e e e e e e e e e e e e e e e e e e e e e e e e e e e e e e $ $ 7 R R X.9.9.!.!.!.!.!.!.!.!.!.!.u.9.9.!.!.!.7XeXeXeXeXeXeXeXeXo   X v v v v v v v v v XXeXeXeXeXeXeXeXeXeXeXeXeXeXeXeXeXeXeXeXeXqX7XK.o z v v v v v v v v v v v a.x v v v v v v E E a.7X7Xa.a.XXXXXXqXqXqXqXeXeXeXeXeXeXeXeXeXeXeXeXeXeXeXeXeXeXeXeXeXeXeXeXeXeXeXeXeXeXeXeXeXeXeXeXeXeXeXeXeXeXeXeXeXeXeXeXeXeXeXeXeXeXeXeXeXeXeXeXeXeXeXeXeXeXeXeXeXeXeXeXeXeXeXeXeXeXeXeXeXeXeXeXeXeXeXeXeXeXeXeXeXeXeXeXeXeXeXeXeXeXeXeXeXeXeXeXeXeXeXeXeXeXeXeXeXeXeXeXeXeXeXeXeXeXeXeXeXeXeXeXeXeXeXeXeXeXeXeXeXeXeXeXeXeXeXeXeXeXeXeXeXeXeXeXeXeXeXeXeXeXeXeXeXeXeXeXeXeXeXeXeXeXeXeXeXeXeXeXeXeXeXeXeXeXeXeXeXeXeXeXeXeX7X6X6X6X/.!.!.!.!.!.!.!.!.!.!.!.!.!.!.!.!.!./././././././././.u.9.9.X.[ [ [ [ [ [ [ [ [ [ [ [ [ [ [ [ [ [ [ [ [ [ [ [ [ [ [ - $ % % : < < < < < < < < < < < < < < < < < < < < < < < < < < < < < < < < < < < < < < < < < < < < < < < < < < < < < < < < < < < < < < < < < < < < < < < < < < < < < < : $ $ < 9 9 9 9 9 9 9 9 9 9 9 9 9 9 9 9 9 9 9 9 9 9 9 9 9 9 9 9 9 9 9 9 9 9 9 9 9 9 9 9 9 9 9 9 9 9 9 9 9 9 9 9 9 9 9 9 9 9 9 9 9 9 9 9 9 9 9 9 9 9 9 9 9 9 9 9 9 9 9 9 9 9 9 9 9 9 9 9 9 9 9 9 9 9 9 9 9 9 9 9 9 9 9 9 9 9 9 9 9 9 9 9 9 9 9 9 9 9 9 9 9 9 9 9 9 9 ",
"e e e e e e e e e e e e e e e e e e e e e e e e e e e e e e e e e e e e e e e e e e e e e e e e e e e e e e e e e e e e e e e e e e e e e e e e e e e e e e e e e e e e e e e e e e e e e e e e e e e e e e e e e e e e e e e e e e e e e e e e e e e e e e e e e e e e e e e e e e e e e e e e e e e e e e e e e e e e e e e e e e e e e e e e e e e e e e e e e e e e e e e e e e e e e e e e e e e e e e e e e e e e e e e < $ $ R R X.9.9.!.!.!.!.!.!.!.!.!.!.u.9.9.!.!.!.7XeXeXeXeXeXeXeXeXo   X v v v v v v v v v XXeXeXeXeXeXeXeXeXeXeXeXeXeXeXeXeXeXeXeXeXeXeXqX7XqXK.XXE v v v v v v &.qXqXXXXXXXXXqXqXqXqXqXqXeXeXqXqXeXeXeXeXeXeXeXeXeXeXeXeXeXeXeXeXeXeXeXeXeXeXeXeXeXeXeXeXeXeXeXeXeXeXeXeXeXeXeXeXeXeXeXeXeXeXeXeXeXeXeXeXeXeXeXeXeXeXeXeXeXeXeXeXeXeXeXeXeXeXeXeXeXeXeXeXeXeXeXeXeXeXeXeXeXeXeXeXeXeXeXeXeXeXeXeXeXeXeXeXeXeXeXeXeXeXeXeXeXeXeXeXeXeXeXeXeXeXeXeXeXeXeXeXeXeXeXeXeXeXeXeXeXeXeXeXeXeXeXeXeXeXeXeXeXeXeXeXeXeXeXeXeXeXeXeXeXeXeXeXeXeXeXeXeXeXeXeXeXeXeXeXeXeXeXeXeXeXeXeXeXeXeXeXeXeXeXeXeXeXeXeXeX7X7X6X6X/./.!.!.!.!.!.!.!.!.!.!.!.!.!.!.!.!.!.!.!.!.!.!././././././././././.u.9.9.9.[ [ [ [ [ [ [ [ [ [ [ [ [ [ [ [ [ [ [ [ [ [ [ [ [ [ [ [ - $ $ $ : < < < < < < < < < < < < < < < < < < < < < < < < < < < < < < < < < < < < < < < < < < < < < < < < < < < < < < < < < < < < < < < < < < < < < < < < < < < < < < < $ $ , 9 9 9 9 9 9 9 9 9 9 9 9 9 9 9 9 9 9 9 9 9 9 9 9 9 9 9 9 9 9 9 9 9 9 9 9 9 9 9 9 9 9 9 9 9 9 9 9 9 9 9 9 9 9 9 9 9 9 9 9 9 9 9 9 9 9 9 9 9 9 9 9 9 9 9 9 9 9 9 9 9 9 9 9 9 9 9 9 9 9 9 9 9 9 9 9 9 9 9 9 9 9 9 9 9 9 9 9 9 9 9 9 9 9 9 9 9 9 9 9 9 9 9 9 9 9 ",
"e e e e e e e e e e e e e e e e e e e e e e e e e e e e e e e e e e e e e e e e e e e e e e e e e e e e e e e e e e e e e e e e e e e e e e e e e e e e e e e e e e e e e e e e e e e e e e e e e e e e e e e e e e e e e e e e e e e e e e e e e e e e e e e e e e e e e e e e e e e e e e e e e e e e e e e e e e e e e e e e e e e e e e e e e e e e e e e e e e e e e e e e e e e e e e e e e e e e e e e e e e e e e e e 1 $ $ 7 R X.9.9.!.!.!.!.!.!.!.!.!.!.u.9.9.!.!.!.7XeXeXeXeXeXxXxXeXo   X v v v v v v v v v XXeXeXeXeXeXeXeXeXeXeXeXeXeXeXeXeXeXeXeXeXeXeXeXeXeXqXeXqXqXqXXXXXqXqXqXeXeXeXeXeXeXeXeXeXeXeXeXeXeXeXeXeXeXeXeXeXeXeXeXeXeXeXeXeXeXeXeXeXeXeXeXeXeXeXeXeXeXeXeXeXeXeXeXeXeXeXeXeXeXeXeXeXeXeXeXeXeXeXeXeXeXeXeXeXeXeXeXeXeXeXeXeXeXeXeXeXeXeXeXeXeXeXeXeXeXeXeXeXeXeXeXeXeXeXeXeXeXeXeXeXeXeXeXeXeXeXeXeXeXeXeXeXeXeXeXeXeXeXeXeXeXeXeXeXeXeXeXeXeXeXeXeXeXeXeXeXeXeXeXeXeXeXeXeXeXeXeXeXeXeXeXeXeXeXeXeXeXeXeXeXeXeXeXeXeXeXeXeXeXeXeXeXeXeXeXeXeXeXeXeXeXeXeXeXeXeXeXeXeXeXeXeXeXeXeXeXeX7X6X6X6X/.!.!.!.!.!.!.!.!.!.!.!.!.!.!.!.!.!.!.!.!.!.!.!.!.!.!.!.!.!././././././././././.u.9.9.9.{ [ [ [ [ [ [ [ [ [ [ [ [ [ [ [ [ [ [ [ [ [ [ [ [ [ [ [ [ - $ $ $ : < < < < < < < < < < < < < < < < < < < < < < < < < < < < < < < < < < < < < < < < < < < < < < < < < < < < < < < < < < < < < < < < < < < < < < < < < < < < < < < & $ % 9 9 9 9 9 9 9 9 9 9 9 9 9 9 9 9 9 9 9 9 9 9 9 9 9 9 9 9 9 9 9 9 9 9 9 9 9 9 9 9 9 9 9 9 9 9 9 9 9 9 9 9 9 9 9 9 9 9 9 9 9 9 9 9 9 9 9 9 9 9 9 9 9 9 9 9 9 9 9 9 9 9 9 9 9 9 9 9 9 9 9 9 9 9 9 9 9 9 9 9 9 9 9 9 9 9 9 9 9 9 9 9 9 9 9 9 9 9 9 9 9 9 9 9 9 9 ",
"e e e e e e e e e e e e e e e e e e e e e e e e e e e e e e e e e e e e e e e e e e e e e e e e e e e e e e e e e e e e e e e e e e e e e e e e e e e e e e e e e e e e e e e e e e e e e e e e e e e e e e e e e e e e e e e e e e e e e e e e e e e e e e e e e e e e e e e e e e e e e e e e e e e e e e e e e e e e e e e e e e e e e e e e e e e e e e e e e e e e e e e e e e e e e e e e e e e e e e e e e e e e e e e e < $ $ / X.9.9.!.!.!.!.!.!.!.!.!.!.u.9.9.!.!.!.7XeXeXeXeXxXMXMXeXo   X v v v v v v v v v XXeXeXeXeXeXeXeXeXeXeXeXeXeXeXeXeXeXeXeXeXeXeXeXeXeXeXeXeXeXeXeXeXeXeXeXeXeXeXeXeXeXeXeXeXeXeXeXeXeXeXeXeXeXeXeXeXeXeXeXeXeXeXeXeXeXeXeXeXeXeXeXeXeXeXeXeXeXeXeXeXeXeXeXeXeXeXeXeXeXeXeXeXeXeXeXeXeXeXeXeXeXeXeXeXeXeXeXeXeXeXeXeXeXeXeXeXeXeXeXeXeXeXeXeXeXeXeXeXeXeXeXeXeXeXeXeXeXeXeXeXeXeXeXeXeXeXeXeXeXeXeXeXeXeXeXeXeXeXeXeXeXeXeXeXeXeXeXeXeXeXeXeXeXeXeXeXeXeXeXeXeXeXeXeXeXeXeXeXeXeXeXeXeXeXeXeXeXeXeXeXeXeXeXeXeXeXeXeXeXeXeXeXeXeXeXeXeXeXeXeXeXeXeXeXeXeXeXeXeX7X7X6X6X/./.!.!.!.!.!.!.!.!.!.!.!.!.!.!.!.!.!.!.!.!.!.!.!.!.!.!.!.!.!.!.!.!.!.!././././././././././.u.0.9.9.9.! [ [ [ [ [ [ [ [ [ [ [ [ [ [ [ [ [ [ [ [ [ [ [ [ [ [ [ [ [ - $ $ $ : < < < < < < < < < < < < < < < < < < < < < < < < < < < < < < < < < < < < < < < < < < < < < < < < < < < < < < < < < < < < < < < < < < < < < < < < < < < < < < < : $ $ < 9 9 9 9 9 9 9 9 9 9 9 9 9 9 9 9 9 9 9 9 9 9 9 9 9 9 9 9 9 9 9 9 9 9 9 9 9 9 9 9 9 9 9 9 9 9 9 9 9 9 9 9 9 9 9 9 9 9 9 9 9 9 9 9 9 9 9 9 9 9 9 9 9 9 9 9 9 9 9 9 9 9 9 9 9 9 9 9 9 9 9 9 9 9 9 9 9 9 9 9 9 9 9 9 9 9 9 9 9 9 9 9 9 9 9 9 9 9 9 9 9 9 9 9 9 ",
"e e e e e e e e e e e e e e e e e e e e e e e e e e e e e e e e e e e e e e e e e e e e e e e e e e e e e e e e e e e e e e e e e e e e e e e e e e e e e e e e e e e e e e e e e e e e e e e e e e e e e e e e e e e e e e e e e e e e e e e e e e e e e e e e e e e e e e e e e e e e e e e e e e e e e e e e e e e e e e e e e e e e e e e e e e e e e e e e e e e e e e e e e e e e e e e e e e e e e e e e e e e e e e e e < # $ 7 X.9.9.!.!.!.!.!.!.!.!.!.!.u.9.9.!.!.!.7XeXeXeXeXMXMXMXeXK.K.XXv E E a.a.a.a.XXXXqXeXeXeXeXeXeXeXeXeXeXeXeXeXeXeXeXeXeXeXeXeXeXeXeXeXeXeXeXeXeXeXeXeXeXeXeXeXeXeXeXeXeXeXeXeXeXeXeXeXeXeXeXeXeXeXeXeXeXeXeXeXeXeXeXeXeXeXeXeXeXeXeXeXeXeXeXeXeXeXeXeXeXeXeXeXeXeXeXeXeXeXeXeXeXeXeXeXeXeXeXeXeXeXeXeXeXeXeXeXeXeXeXeXeXeXeXeXeXeXeXeXeXeXeXeXeXeXeXeXeXeXeXeXeXeXeXeXeXeXeXeXeXeXeXeXeXeXeXeXeXeXeXeXeXeXeXeXeXeXeXeXeXeXeXeXeXeXeXeXeXeXeXeXeXeXeXeXeXeXeXeXeXeXeXeXeXeXeXeXeXeXeXeXeXeXeXeXeXeXeXeXeXeXeXeXeXeXeXeXeXeXeXeXeXeXeXeXeXeXeXeXeX7X6X6X6XoX!.!.!.!.!.!.!.!.!.!.!.!.!.!.!.!.!.!.!.!.!.!.!.!.!.!.!.!.!.!.!.!.!.!.!.!.!.!.!.!./././././././././././.u.9.9.9.9.! [ [ [ [ [ [ [ [ [ [ [ [ [ [ [ [ [ [ [ [ [ [ [ [ [ [ [ [ [ ` - $ $ $ & < < < < < < < < < < < < < < < < < < < < < < < < < < < < < < < < < < < < < < < < < < < < < < < < < < < < < < < < < < < < < < < < < < < < < < < < < < < < < < < < $ $ , 9 9 9 9 9 9 9 9 9 9 9 9 9 9 9 9 9 9 9 9 9 9 9 9 9 9 9 9 9 9 9 9 9 9 9 9 9 9 9 9 9 9 9 9 9 9 9 9 9 9 9 9 9 9 9 9 9 9 9 9 9 9 9 9 9 9 9 9 9 9 9 9 9 9 9 9 9 9 9 9 9 9 9 9 9 9 9 9 9 9 9 9 9 9 9 9 9 9 9 9 9 9 9 9 9 9 9 9 9 9 9 9 9 9 9 9 9 9 9 9 9 9 9 9 9 ",
"e e e e e e e e e e e e e e e e e e e e e e e e e e e e e e e e e e e e e e e e e e e e e e e e e e e e e e e e e e e e e e e e e e e e e e e e e e e e e e e e e e e e e e e e e e e e e e e e e e e e e e e e e e e e e e e e e e e e e e e e e e e e e e e e e e e e e e e e e e e e e e e e e e e e e e e e e e e e e e e e e e e e e e e e e e e e e e e e e e e e e e e e e e e e e e e e e e e e e e e e e e e e e e e e e $ $ = X.9.9.!.!.!.!.!.!.!.!.!.!.u.9.9.!.!.!.7XeXeXeXeXMXMXMXxXqXqXqXqXqXqXqXqXqXqXqXqXeXeXeXeXeXeXeXeXeXeXeXeXeXeXeXeXeXeXeXeXeXeXeXeXeXeXeXeXeXeXeXeXeXeXeXeXeXeXeXeXeXeXeXeXeXeXeXeXeXeXeXeXeXeXeXeXeXeXeXeXeXeXeXeXeXeXeXeXeXeXeXeXeXeXeXeXeXeXeXeXeXeXeXeXeXeXeXeXeXeXeXeXeXeXeXeXeXeXeXeXeXeXeXeXeXeXeXeXeXeXeXeXeXeXeXeXeXeXeXeXeXeXeXeXeXeXeXeXeXeXeXeXeXeXeXeXeXeXeXeXeXeXeXeXeXeXeXeXeXeXeXeXeXeXeXeXeXeXeXeXeXeXeXeXeXeXeXeXeXeXeXeXeXeXeXeXeXeXeXeXeXeXeXeXeXeXeXeXeXeXeXeXeXeXeXeXeXeXeXeXeXeXeXeXeXeXeXeXeXeXeXeXeXeXeX7X7X6X6XoXoX!.!.!.!.!.!.!.!.!.!.!.!.!.!.!.!.!.!.!.!.!.!.!.!.!.!.!.!.!.!.!.!.!.!.!.!.!.!.!.!.!.!.!.!.!./././././.!././././.u.u.0.0.9.9.9.O.[ [ [ [ [ [ [ [ [ [ [ [ [ [ [ [ [ [ [ [ [ [ [ [ [ [ [ [ [ [ ` - $ $ $ & < < < < < < < < < < < < < < < < < < < < < < < < < < < < < < < < < < < < < < < < < < < < < < < < < < < < < < < < < < < < < < < < < < < < < < < < < < < < < < < < $ $ & 9 9 9 9 9 9 9 9 9 9 9 9 9 9 9 9 9 9 9 9 9 9 9 9 9 9 9 9 9 9 9 9 9 9 9 9 9 9 9 9 9 9 9 9 9 9 9 9 9 9 9 9 9 9 9 9 9 9 9 9 9 9 9 9 9 9 9 9 9 9 9 9 9 9 9 9 9 9 9 9 9 9 9 9 9 9 9 9 9 9 9 9 9 9 9 9 9 9 9 9 9 9 9 9 9 9 9 9 9 9 9 9 9 9 9 9 9 9 9 9 9 9 9 9 9 ",
"e e e e e e e e e e e e e e e e e e e e e e e e e e e e e e e e e e e e e e e e e e e e e e e e e e e e e e e e e e e e e e e e e e e e e e e e e e e e e e e e e e e e e e e e e e e e e e e e e e e e e e e e e e e e e e e e e e e e e e e e e e e e e e e e e e e e e e e e e e e e e e e e e e e e e e e e e e e e e e e e e e e e e e e e e e e e e e e e e e e e e e e e e e e e e e e e e e e e e e e e e e e e e e e e e < $ $ W 9.9.!.!.!.!.!.!.!.!.!.!.u.9.9.!.!.!.7XeXeXeXxXMXMXMXxXeXeXeXeXeXeXeXeXeXeXeXeXeXeXeXeXeXeXeXeXeXeXeXeXeXeXeXeXeXeXeXeXeXeXeXeXeXeXeXeXeXeXeXeXeXeXeXeXeXeXeXeXeXeXeXeXeXeXeXeXeXeXeXeXeXeXeXeXeXeXeXeXeXeXeXeXeXeXeXeXeXeXeXeXeXeXeXeXeXeXeXeXeXeXeXeXeXeXeXeXeXeXeXeXeXeXeXeXeXeXeXeXeXeXeXeXeXeXeXeXeXeXeXeXeXeXeXeXeXeXeXeXeXeXeXeXeXeXeXeXeXeXeXeXeXeXeXeXeXeXeXeXeXeXeXeXeXeXeXeXeXeXeXeXeXeXeXeXeXeXeXeXeXeXeXeXeXeXeXeXeXeXeXeXeXeXeXeXeXeXeXeXeXeXeXeXeXeXeXeXeXeXeXeXeXeXeXeXeXeXeXeXeXeXeXeXeXeXeX7X7X6X6X6XoX!.!.!.!.!.!.!.!.!.!.!.!.!.!.!.!.!.!.!.!.!.!.!.!.!.!.!.!.!.!.!.!.!.!.!.!.!.!.!.!.!.!.!.!.!.!.!.!.!.!.!././././././././.!.u.u.0.9.9.9.9.9.O.[ [ [ [ [ [ [ [ [ [ [ [ [ [ [ [ [ [ [ [ [ [ [ [ [ [ [ [ [ [ [ [ ` - $ $ $ & < < < < < < < < < < < < < < < < < < < < < < < < < < < < < < < < < < < < < < < < < < < < < < < < < < < < < < < < < < < < < < < < < < < < < < < < < < < < < < < < : $ $ 9 9 9 9 9 9 9 9 9 9 9 9 9 9 9 9 9 9 9 9 9 9 9 9 9 9 9 9 9 9 9 9 9 9 9 9 9 9 9 9 9 9 9 9 9 9 9 9 9 9 9 9 9 9 9 9 9 9 9 9 9 9 9 9 9 9 9 9 9 9 9 9 9 9 9 9 9 9 9 9 9 9 9 9 9 9 9 9 9 9 9 9 9 9 9 9 9 9 9 9 9 9 9 9 9 9 9 9 9 9 9 9 9 9 9 9 9 9 9 9 9 9 9 9 9 ",
"e e e e e e e e e e e e e e e e e e e e e e e e e e e e e e e e e e e e e e e e e e e e e e e e e e e e e e e e e e e e e e e e e e e e e e e e e e e e e e e e e e e e e e e e e e e e e e e e e e e e e e e e e e e e e e e e e e e e e e e e e e e e e e e e e e e e e e e e e e e e e e e e e e e e e e e e e e e e e e e e e e e e e e e e e e e e e e e e e e e e e e e e e e e e e e e e e e e e e e e e e e e e e e e e e 1 $ $ t 9.9.!.!.!.!.!.!.!.!.!.!.u.9.9.!.!.!.7XeXeXeXxXMXMXMXMXeXeXeXeXeXeXeXeXeXeXeXeXeXeXeXeXeXeXeXeXeXeXeXeXeXeXeXeXeXeXeXeXeXeXeXeXeXeXeXeXeXeXeXeXeXeXeXeXeXeXeXeXeXeXeXeXeXeXeXeXeXeXeXeXeXeXeXeXeXeXeXeXeXeXeXeXeXeXeXeXeXeXeXeXeXeXeXeXeXeXeXeXeXeXeXeXeXeXeXeXeXeXeXeXeXeXeXeXeXeXeXeXeXeXeXeXeXeXeXeXeXeXeXeXeXeXeXeXeXeXeXeXeXeXeXeXeXeXeXeXeXeXeXeXeXeXeXeXeXeXeXeXeXeXeXeXeXeXeXeXeXeXeXeXeXeXeXeXeXeXeXeXeXeXeXeXeXeXeXeXeXeXeXeXeXeXeXeXeXeXeXeXeXeXeXeXeXeXeXeXeXeXeXeXeXeXeXeXeXeX7X7X6X6X6X/.oX!.!.!.!.!.!.!.!.!.!.!.!.!.!.!.!.!.!.!.!.!.!.!.!.!.!.!.!.!.!.!.!.!.!.!.!.!.!.!.!.!.!.!.!.!.!.!.!.!.!.!.!.!.!.!.!.W.!.!.u.u.u.u.u.0.0.0.0.9.9.9.9.9.X.! [ [ [ [ [ [ [ [ [ [ [ [ [ [ [ [ [ [ [ [ [ [ [ [ [ [ [ [ [ [ [ [ [ [ ` - $ $ $ & < < < < < < < < < < < < < < < < < < < < < < < < < < < < < < < < < < < < < < < < < < < < < < < < < < < < < < < < < < < < < < < < < < < < < < < < < < < < < < < < : $ $ < 9 9 9 9 9 9 9 9 9 9 9 9 9 9 9 9 9 9 9 9 9 9 9 9 9 9 9 9 9 9 9 9 9 9 9 9 9 9 9 9 9 9 9 9 9 9 9 9 9 9 9 9 9 9 9 9 9 9 9 9 9 9 9 9 9 9 9 9 9 9 9 9 9 9 9 9 9 9 9 9 9 9 9 9 9 9 9 9 9 9 9 9 9 9 9 9 9 9 9 9 9 9 9 9 9 9 9 9 9 9 9 9 9 9 9 9 9 9 9 9 9 9 9 9 ",
"e e e e e e e e e e e e e e e e e e e e e e e e e e e e e e e e e e e e e e e e e e e e e e e e e e e e e e e e e e e e e e e e e e e e e e e e e e e e e e e e e e e e e e e e e e e e e e e e e e e e e e e e e e e e e e e e e e e e e e e e e e e e e e e e e e e e e e e e e e e e e e e e e e e e e e e e e e e e e e e e e e e e e e e e e e e e e e e e e e e e e e e e e e e e e e e e e e e e e e e e e e e e e e e e e e $ $ % 9.9.!.!.!.!.!.!.!.!.!.!.u.9.9.!.!.!.7XeXeXeXxXMXMXMXMXeXeXeXeXeXeXeXeXeXeXeXeXeXeXeXeXeXeXeXeXeXeXeXeXeXeXeXeXeXeXeXeXeXeXeXeXeXeXeXeXeXeXeXeXeXeXeXeXeXeXeXeXeXeXeXeXeXeXeXeXeXeXeXeXeXeXeXeXeXeXeXeXeXeXeXeXeXeXeXeXeXeXeXeXeXeXeXeXeXeXeXeXeXeXeXeXeXeXeXeXeXeXeXeXeXeXeXeXeXeXeXeXeXeXeXeXeXeXeXeXeXeXeXeXeXeXeXeXeXeXeXeXeXeXeXeXeXeXeXeXeXeXeXeXeXeXeXeXeXeXeXeXeXeXeXeXeXeXeXeXeXeXeXeXeXeXeXeXeXeXeXeXeXeXeXeXeXeXeXeXeXeXeXeXeXeXeXeXeXeXeXeXeXeXeXeXeXeXeXeX7X7X6X6X6XoXoX!.!.!.!.!.!.!.!.!.!.!.!.!.!.!.!.!.!.!.!.!.!.!.!.!.!.!.!.!.!.!.!.!.!.!.!.!.!.!.!.!.!.!.!.!.!.!.!.!.!.!.!.!.!.W.W.W.u.u.u.u.e.e.0.0.0.0.0.0.9.9.9.0.9.9.9.9.9.9.9.! ! [ [ [ [ [ [ [ [ [ [ [ [ [ [ [ [ [ [ [ [ [ [ [ [ [ [ [ [ [ [ [ [ [ [ [ [ [ ` - $ $ $ & < < < < < < < < < < < < < < < < < < < < < < < < < < < < < < < < < < < < < < < < < < < < < < < < < < < < < < < < < < < < < < < < < < < < < < < < < < < < < < < < < $ $ , 9 9 9 9 9 9 9 9 9 9 9 9 9 9 9 9 9 9 9 9 9 9 9 9 9 9 9 9 9 9 9 9 9 9 9 9 9 9 9 9 9 9 9 9 9 9 9 9 9 9 9 9 9 9 9 9 9 9 9 9 9 9 9 9 9 9 9 9 9 9 9 9 9 9 9 9 9 9 9 9 9 9 9 9 9 9 9 9 9 9 9 9 9 9 9 9 9 9 9 9 9 9 9 9 9 9 9 9 9 9 9 9 9 9 9 9 9 9 9 9 9 9 9 9 ",
"e e e e e e e e e e e e e e e e e e e e e e e e e e e e e e e e e e e e e e e e e e e e e e e e e e e e e e e e e e e e e e e e e e e e e e e e e e e e e e e e e e e e e e e e e e e e e e e e e e e e e e e e e e e e e e e e e e e e e e e e e e e e e e e e e e e e e e e e e e e e e e e e e e e e e e e e e e e e e e e e e e e e e e e e e e e e e e e e e e e e e e e e e e e e e e e e e e e e e e e e e e e e e e e e e e < $ % W 9.!.!.!.!.!.!.!.!.!.!.u.9.9.!.!.!.7XeXeXeXeXMXMXMXMXxXeXeXeXeXeXeXeXeXeXeXeXeXeXeXeXeXeXeXeXeXeXeXeXeXeXeXeXeXeXeXeXeXeXeXeXeXeXeXeXeXeXeXeXeXeXeXeXeXeXeXeXeXeXeXeXeXeXeXeXeXeXeXeXeXeXeXeXeXeXeXeXeXeXeXeXeXeXeXeXeXeXeXeXeXeXeXeXeXeXeXeXeXeXeXeXeXeXeXeXeXeXeXeXeXeXeXeXeXeXeXeXeXeXeXeXeXeXeXeXeXeXeXeXeXeXeXeXeXeXeXeXeXeXeXeXeXeXeXeXeXeXeXeXeXeXeXeXeXeXeXeXeXeXeXeXeXeXeXeXeXeXeXeXeXeXeXeXeXeXeXeXeXeXeXeXeXeXeXeXeXeXeXeXeXeXeXeXeXeX7X7X6X6X6XoXoX!.!.!.!.!.!.!.!.!.!.!.!.!.!.!.!.!.!.!.!.!.!.!.!.!.!.!.!.!.!.!.!.!.!.!.!.!.!.!.!.!.!.!.!.!.!.!.!.!.!.!.!.W.W.W.u.u.u.e.e.e.0.9.9.0.0.0.9.9.9.9.9.9.9.9.9.9.9.9.9.9.9.9.X.X.! ! ! [ [ [ [ [ [ [ [ [ [ [ [ [ [ [ [ [ [ [ [ [ [ [ [ [ [ [ [ [ [ [ [ [ [ [ [ [ [ [ [ [ Y - $ $ % $ % & & : > > > < < < < < < < < < < < < < < < < < < < < < < < < < < < < < < < < < < < < < < < < < < < < < < < < < < < < < < < < < < < < < < < < < < < < < < < < < < $ $ & 9 9 9 9 9 9 9 9 9 9 9 9 9 9 9 9 9 9 9 9 9 9 9 9 9 9 9 9 9 9 9 9 9 9 9 9 9 9 9 9 9 9 9 9 9 9 9 9 9 9 9 9 9 9 9 9 9 9 9 9 9 9 9 9 9 9 9 9 9 9 9 9 9 9 9 9 9 9 9 9 9 9 9 9 9 9 9 9 9 9 9 9 9 9 9 9 9 9 9 9 9 9 9 9 9 9 9 9 9 9 9 9 9 9 9 9 < < < < < : : % ",
"e e e e e e e e e e e e e e e e e e e e e e e e e e e e e e e e e e e e e e e e e e e e e e e e e e e e e e e e e e e e e e e e e e e e e e e e e e e e e e e e e e e e e e e e e e e e e e e e e e e e e e e e e e e e e e e e e e e e e e e e e e e e e e e e e e e e e e e e e e e e e e e e e e e e e e e e e e e e e e e e e e e e e e e e e e e e e e e e e e e e e e e e e e e e e e e e e e e e e e e e e e e e e e e e e e e $ $ t 9.!.!.!.!.!.!.!.!.!.!.u.9.9.!.!.!.7XeXeXeXeXMXMXMXMXMXeXeXeXeXeXeXeXeXeXeXeXeXeXeXeXeXeXeXeXeXeXeXeXeXeXeXeXeXeXeXeXeXeXeXeXeXeXeXeXeXeXeXeXeXeXeXeXeXeXeXeXeXeXeXeXeXeXeXeXeXeXeXeXeXeXeXeXeXeXeXeXeXeXeXeXeXeXeXeXeXeXeXeXeXeXeXeXeXeXeXeXeXeXeXeXeXeXeXeXeXeXeXeXeXeXeXeXeXeXeXeXeXeXeXeXeXeXeXeXeXeXeXeXeXeXeXeXeXeXeXeXeXeXeXeXeXeXeXeXeXeXeXeXeXeXeXeXeXeXeXeXeXeXeXeXeXeXeXeXeXeXeXeXeXeXeXeXeXeXeXeXeXeXeXeXeXeXeXeX7X7X6X6X6XoXoX!.!.!.!.!.!.!.!.!.!.!.!.!.!.!.!.!.!.!.!.!.!.!.!.!.!.!.!.!.!.!.!.!.!.!.!.!.!.!.!.!.!.!.!.!.!.!.!.!.!.W.W.W.u.u.u.e.e.e.0.0.0.0.0.0.9.9.9.9.9.9.9.9.9.9.9.9.9.9.9.9.X.X.X.! ! ! ) ) ) / / / / [ [ [ [ [ [ [ [ [ [ [ [ [ [ [ [ [ [ [ [ [ [ [ [ [ [ [ [ [ [ [ [ [ [ [ [ [ [ [ [ [ [ [ [ [ Y - $ $ $ $ $ $ $ % % % % % & & : > > > < < < < < < < < < < < < < < < < < < < < < < < < < < < < < < < < < < < < < < < < < < < < < < < < < < < < < < < < < < < < < < < < < < < : $ $ 9 9 9 9 9 9 9 9 9 9 9 9 9 9 9 9 9 9 9 9 9 9 9 9 9 9 9 9 9 9 9 9 9 9 9 9 9 9 9 9 9 9 9 9 9 9 9 9 9 9 9 9 9 9 9 9 9 9 9 9 9 9 9 9 9 9 9 9 9 9 9 9 9 9 9 9 9 9 9 9 9 9 9 9 9 9 9 9 9 9 9 9 9 9 9 9 9 9 9 9 9 9 9 9 9 9 < < < , < : : % % % % % % % % $ $ $ ",
"e e e e e e e e e e e e e e e e e e e e e e e e e e e e e e e e e e e e e e e e e e e e e e e e e e e e e e e e e e e e e e e e e e e e e e e e e e e e e e e e e e e e e e e e e e e e e e e e e e e e e e e e e e e e e e e e e e e e e e e e e e e e e e e e e e e e e e e e e e e e e e e e e e e e e e e e e e e e e e e e e e e e e e e e e e e e e e e e e e e e e e e e e e e e e e e e e e e e e e e e e e e e e e e e e e e : $ % 9.!.!.!.!.!.!.!.!.!.!.u.9.9.!.!.!.7XeXeXeXeXxXMXMXMXMXMXeXeXeXeXeXeXeXeXeXeXeXeXeXeXeXeXeXeXeXeXeXeXeXeXeXeXeXeXeXeXeXeXeXeXeXeXeXeXeXeXeXeXeXeXeXeXeXeXeXeXeXeXeXeXeXeXeXeXeXeXeXeXeXeXeXeXeXeXeXeXeXeXeXeXeXeXeXeXeXeXeXeXeXeXeXeXeXeXeXeXeXeXeXeXeXeXeXeXeXeXeXeXeXeXeXeXeXeXeXeXeXeXeXeXeXeXeXeXeXeXeXeXeXeXeXeXeXeXeXeXeXeXeXeXeXeXeXeXeXeXeXeXeXeXeXeXeXeXeXeXeXeXeXeXeXeXeXeXeXeXeXeXeXeXeXeXeXeX7X7X6X6X6XoXoX!.!.!.!.!.!.!.!.!.!.!.!.!.!.!.!.!.!.!.!.!.!.!.!.!.!.!.!.!.!.!.!.!.!.!.!.!.!.!.!.!.!.!.!.!.!.!.!.W.W.W.u.u.u.e.e.e.0.0.0.0.0.0.9.9.9.9.9.9.9.9.9.9.9.9.9.9.9.9.X.X.X.! ! ! ) ) ) / / / / / / / / / / / / R R R _ [ [ [ [ [ [ [ [ [ [ [ [ [ [ [ [ [ [ [ [ [ [ [ [ [ [ [ [ [ [ [ [ [ [ [ [ [ [ [ [ [ [ [ [ ` Y - $ $ $ $ $ $ $ $ $ $ $ $ $ $ % % % % % & & : > > > < < < < < < < < < < < < < < < < < < < < < < < < < < < < < < < < < < < < < < < < < < < < < < < < < < < < < < < < < < < < : $ $ < 9 9 9 9 9 9 9 9 9 9 9 9 9 9 9 9 9 9 9 9 9 9 9 9 9 9 9 9 9 9 9 9 9 9 9 9 9 9 9 9 9 9 9 9 9 9 9 9 9 9 9 9 9 9 9 9 9 9 9 9 9 9 9 9 9 9 9 9 9 9 9 9 9 9 9 9 9 9 9 9 9 9 9 9 9 9 9 9 9 9 9 9 9 9 9 < < < < < < : % % % % % $ $ % $ $ $ $ $ $ $ $ $ $ $ % % ",
"e e e e e e e e e e e e e e e e e e e e e e e e e e e e e e e e e e e e e e e e e e e e e e e e e e e e e e e e e e e e e e e e e e e e e e e e e e e e e e e e e e e e e e e e e e e e e e e e e e e e e e e e e e e e e e e e e e e e e e e e e e e e e e e e e e e e e e e e e e e e e e e e e e e e e e e e e e e e e e e e e e e e e e e e e e e e e e e e e e e e e e e e e e e e e e e e e e e e e e e e e e e e e e e e e e e < $ $ W !.!.!.!.!.!.!.!.!.!.u.9.9.!.!.!.7XeXeXeXeXeXMXMXMXMXMXMXxXeXeXeXeXeXeXeXeXeXeXeXeXeXeXeXeXeXeXeXeXeXeXeXeXeXeXeXeXeXeXeXeXeXeXeXeXeXeXeXeXeXeXeXeXeXeXeXeXeXeXeXeXeXeXeXeXeXeXeXeXeXeXeXeXeXeXeXeXeXeXeXeXeXeXeXeXeXeXeXeXeXeXeXeXeXeXeXeXeXeXeXeXeXeXeXeXeXeXeXeXeXeXeXeXeXeXeXeXeXeXeXeXeXeXeXeXeXeXeXeXeXeXeXeXeXeXeXeXeXeXeXeXeXeXeXeXeXeXeXeXeXeXeXeXeXeXeXeXeXeXeXeXeXeXeXeX7X7X6X6X6X6XoXoX!.!.!.!.!.!.!.!.!.!.!.!.!.!.!.!.!.!.!.!.!.!.!.!.!.!.!.!.!.!.!.!.!.!.!.!.!.!.!.!.!.!.!.!.!.W.W.W.u.u.u.e.e.e.0.0.0.0.0.0.9.9.9.9.9.9.9.9.9.9.9.9.9.9.9.9.X.X.! ! ! ! ) ) ) / / / / / / / / / / / / R R R / / R R R R R R R R R R _ [ [ [ [ [ [ [ [ [ [ [ [ [ [ [ [ [ [ [ [ [ [ [ [ [ [ [ [ [ [ [ [ [ [ [ [ [ [ [ [ [ [ [ [ ` Y - $ $ $ $ $ $ $ $ $ $ $ $ $ $ $ $ $ $ $ $ $ % % % % % & & : > > > < < < < < < < < < < < < < < < < < < < < < < < < < < < < < < < < < < < < < < < < < < < < < < < < < < < < < > $ $ , 9 9 9 9 9 9 9 9 9 9 9 9 9 9 9 9 9 9 9 9 9 9 9 9 9 9 9 9 9 9 9 9 9 9 9 9 9 9 9 9 9 9 9 9 9 9 9 9 9 9 9 9 9 9 9 9 9 9 9 9 9 9 9 9 9 9 9 9 9 9 9 9 9 9 9 9 9 9 9 9 9 9 9 9 9 9 < < < < < : : % % % % % % % % $ $ $ $ $ $ $ $ $ $ $ % % & & & : : : : : : ",
"e e e e e e e e e e e e e e e e e e e e e e e e e e e e e e e e e e e e e e e e e e e e e e e e e e e e e e e e e e e e e e e e e e e e e e e e e e e e e e e e e e e e e e e e e e e e e e e e e e e e e e e e e e e e e e e e e e e e e e e e e e e e e e e e e e e e e e e e e e e e e e e e e e e e e e e e e e e e e e e e e e e e e e e e e e e e e e e e e e e e e e e e e e e e e e e e e e e e e e e e e e e e e e e e e e e e $ $ t !.!.!.!.!.!.!.!.!.!.u.9.9.!.!.!./.eXeXeXeXeXxXMXMXMXMXMXMXMXeXeXeXeXeXeXeXeXeXeXeXeXeXeXeXeXeXeXeXeXeXeXeXeXeXeXeXeXeXeXeXeXeXeXeXeXeXeXeXeXeXeXeXeXeXeXeXeXeXeXeXeXeXeXeXeXeXeXeXeXeXeXeXeXeXeXeXeXeXeXeXeXeXeXeXeXeXeXeXeXeXeXeXeXeXeXeXeXeXeXeXeXeXeXeXeXeXeXeXeXeXeXeXeXeXeXeXeXeXeXeXeXeXeXeXeXeXeXeXeXeXeXeXeXeXeXeXeXeXeXeXeXeXeXeXeXeXeXeXeXeXeXeXeXeX7X7X7X6X6X6XoXoX!.!.!.!.!.!.!.!.!.!.!.!.!.!.!.!.!.!.!.!.!.!.!.!.!.!.!.!.!.!.!.!.!.!.!.!.!.!.!.!.!.!.!.W.W.W.u.u.u.e.e.e.0.0.0.0.0.0.9.9.9.9.9.9.9.9.9.9.9.9.9.9.9.9.X.X.! ! ! ! ) ) ) / / / / / / / / / / / / R R R R R R R R R R R R R R R R R R R R R R R R R R R ` [ [ [ [ [ [ [ [ [ [ [ [ [ [ [ [ [ [ [ [ [ [ [ [ [ [ [ [ [ [ [ [ [ [ [ [ [ [ [ [ [ [ [ [ ` Y - % $ $ % % % % % $ $ $ $ $ $ $ $ $ $ $ $ $ $ $ $ $ $ $ $ % % % % % & & : > > > < < < < < < < < < < < < < < < < < < < < < < < < < < < < < < < < < < < < < < < < < < < < < < < $ $ , 9 9 9 9 9 9 9 9 9 9 9 9 9 9 9 9 9 9 9 9 9 9 9 9 9 9 9 9 9 9 9 9 9 9 9 9 9 9 9 9 9 9 9 9 9 9 9 9 9 9 9 9 9 9 9 9 9 9 9 9 9 9 9 9 9 9 9 9 9 9 9 9 9 9 9 9 < < < < < : : % % % % % % $ % % % $ $ $ $ $ $ $ $ $ % % & & & & & : : : : : > > > > > > > > : ",
"e e e e e e e e e e e e e e e e e e e e e e e e e e e e e e e e e e e e e e e e e e e e e e e e e e e e e e e e e e e e e e e e e e e e e e e e e e e e e e e e e e e e e e e e e e e e e e e e e e e e e e e e e e e e e e e e e e e e e e e e e e e e e e e e e e e e e e e e e e e e e e e e e e e e e e e e e e e e e e e e e e e e e e e e e e e e e e e e e e e e e e e e e e e e e e e e e e e e e e e e e e e e e e e e e e e e : $ % !.!.!.!.!.!.!.!.!.!.u.9.9.!.!.!.!.eXeXeXeXeXeXxXMXMXMXMXMXMXMXMXMXeXeXeXeXeXeXeXeXeXeXeXeXeXeXeXeXeXeXeXeXeXeXeXeXeXeXeXeXeXeXeXeXeXeXeXeXeXeXeXeXeXeXeXeXeXeXeXeXeXeXeXeXeXeXeXeXeXeXeXeXeXeXeXeXeXeXeXeXeXeXeXeXeXeXeXeXeXeXeXeXeXeXeXeXeXeXeXeXeXeXeXeXeXeXeXeXeXeXeXeXeXeXeXeXeXeXeXeXeXeXeXeXeXeXeXeXeXeXeXeXeXeXeXeXeXeXeXeXeX7X7X7X6X6X6X6XoXoXoX!.!.!.!.!.!.!.!.!.!.!.!.!.!.!.!.!.!.!.!.!.!.!.!.!.!.!.!.!.!.!.!.!.!.!.!.!.!.!.!.!.!.W.W.W.u.u.u.e.e.e.0.0.0.0.0.0.9.9.9.9.9.9.9.9.9.9.9.9.9.9.9.9.X.X.! ! ! ! ) ) ) / / / / / / / / / / / / R R R R R R R R R R R R R R R R R R R R R R R R R R R R R R R R _ _ _ _ _ _ _ [ [ [ [ [ [ [ [ [ [ [ [ [ [ [ [ [ [ [ [ [ [ [ [ [ [ [ [ [ [ [ [ [ [ [ [ [ [ [ [ [ [ [ [ [ ` Y ; % % $ % & & & & & & & & % % % % $ $ $ $ $ $ $ $ $ $ $ $ $ $ $ $ $ $ $ % % % % % & & : > > > < < < < < < < < < < < < < < < < < < < < < < < < < < < < < < < < < < < < < < < < $ $ : 9 9 9 9 9 9 9 9 9 9 9 9 9 9 9 9 9 9 9 9 9 9 9 9 9 9 9 9 9 9 9 9 9 9 9 9 9 9 9 9 9 9 9 9 9 9 9 9 9 9 9 9 9 9 9 9 9 9 9 9 9 9 9 9 9 9 9 < , < < < : : % % % % % % % % % $ $ $ $ $ $ $ $ $ $ % & & & & : : : : : : > > > : : > > > > > : > > > > > > > > ",
"e e e e e e e e e e e e e e e e e e e e e e e e e e e e e e e e e e e e e e e e e e e e e e e e e e e e e e e e e e e e e e e e e e e e e e e e e e e e e e e e e e e e e e e e e e e e e e e e e e e e e e e e e e e e e e e e e e e e e e e e e e e e e e e e e e e e e e e e e e e e e e e e e e e e e e e e e e e e e e e e e e e e e e e e e e e e e e e e e e e e e e e e e e e e e e e e e e e e e e e e e e e e e e e e e e e e < $ $ e.!.!.!.!.!.!.!.!.!.u.9.9.!.!.!.!.7XeXeXeXeXeXeXxXMXMXMXMXMXMXMXMXMXMXMXMXeXeXeXeXeXeXeXeXeXeXeXeXeXeXeXeXeXeXeXeXeXeXeXeXeXeXeXeXeXeXeXeXeXeXeXeXeXeXeXeXeXeXeXeXeXeXeXeXeXeXeXeXeXeXeXeXeXeXeXeXeXeXeXeXeXeXeXeXeXeXeXeXeXeXeXeXeXeXeXeXeXeXeXeXeXeXeXeXeXeXeXeXeXeXeXeXeXeXeXeXeXeXeXeXeXeXeXeXeXeXeXeX7X7X7X6X6X6X6XoXoXoX!.!.!.!.!.!.!.!.!.!.!.!.!.!.!.!.!.!.!.!.!.!.!.!.!.!.!.!.!.!.!.!.!.!.!.!.!.!.!.!.!.!.!.W.W.W.u.u.u.e.e.e.0.0.0.9.0.0.9.9.9.9.9.9.9.9.9.9.9.9.9.9.9.9.X.X.! ! ! ! ) ) ) / / / / / / / / / R / / R R R R R R R R R R R R R R R R R R R R R R R R R R R R R R R _ _ _ _ _ _ ` ` ` ' ' ' ' ' ' ' [ [ [ [ [ [ [ [ [ [ [ [ [ [ [ [ [ [ [ [ [ [ [ [ [ [ [ [ [ [ [ [ [ [ [ [ [ [ [ [ [ [ [ [ [ [ [ [ [ ` Y Y 7 ; % % & & & & & & & & & & & & & & & & & % % % % $ $ $ $ $ $ $ $ $ $ $ $ $ $ $ $ $ % % % % % & & : > > > < < < < < < < < < < < < < < < < < < < < < < < < < < < < < < < < < & $ & 9 9 9 9 9 9 9 9 9 9 9 9 9 9 9 9 9 9 9 9 9 9 9 9 9 9 9 9 9 9 9 9 9 9 9 9 9 9 9 9 9 9 9 9 9 9 9 9 9 9 9 9 9 9 9 9 9 < < < < < : : % % % % $ % % % $ % $ $ $ $ $ $ $ $ $ % % & & & : : : : : : > > > > > > > : > > > > > > > > > > > : : > : > > > > > > ",
"e e e e e e e e e e e e e e e e e e e e e e e e e e e e e e e e e e e e e e e e e e e e e e e e e e e e e e e e e e e e e e e e e e e e e e e e e e e e e e e e e e e e e e e e e e e e e e e e e e e e e e e e e e e e e e e e e e e e e e e e e e e e e e e e e e e e e e e e e e e e e e e e e e e e e e e e e e e e e e e e e e e e e e e e e e e e e e e e e e e e e e e e e e e e e e e e e e e e e e e e e e e e e e e e e e e e < $ $ :.!.!.!.!.!.!.!.!.!.u.9.9.!.!.!.!.6XeXeXeXeXeXeXeXeXxXMXMXMXMXMXMXMXMXMXMXMXMXMXMXMXxXeXeXeXeXeXeXeXeXeXeXeXeXeXeXeXeXeXeXeXeXeXeXeXeXeXeXeXeXeXeXeXeXeXeXeXeXeXeXeXeXeXeXeXeXeXeXeXeXeXeXeXeXeXeXeXeXeXeXeXeXeXeXeXeXeXeXeXeXeXeXeXeXeXeXeXeXeXeXeXeXeXeXeXeXeXeXeXeXeXeXeXeXeX7X7X7X6X6X6X6XoXoXoX!.!.!.!.!.!.!.!.!.!.!.!.!.!.!.!.!.!.!.!.!.!.!.!.!.!.!.!.!.!.!.!.!.!.!.!.!.!.!.!.!.!.!.!.W.W.W.u.u.u.e.e.e.0.0.0.9.0.0.9.9.9.9.9.9.9.9.9.9.9.9.9.9.9.9.X.X.! ! ! ! ) ) / / / / / / / / / / / / / R R R R R R R R R R R R R R R R R R R R R R R R R R R R R _ _ _ _ _ _ _ ` ` ` ' ' ' ' ' ' [ [ [ [ [ [ [ [ [ [ [ [ [ [ [ [ [ [ [ [ [ [ [ [ [ [ [ [ [ [ [ [ [ [ [ [ [ [ [ [ [ [ [ [ [ [ [ [ [ [ [ [ [ [ [ [ [ [ [ [ [ [ [ ` Y Y A 7 % % & & & & & & & & & & & & & & & & & & & & & & & & & % % % % $ $ $ $ $ $ $ $ $ $ $ $ $ $ $ $ % % % % % & & : > > > < < < < < < < < < < < < < < < < < < < < < < < < < < & $ % 9 9 9 9 9 9 9 9 9 9 9 9 9 9 9 9 9 9 9 9 9 9 9 9 9 9 9 9 9 9 9 9 9 9 9 9 9 9 9 9 9 9 9 9 9 9 9 < < < < < : : % % % % % % % % % % $ $ $ $ $ $ $ $ $ % % & & & : : : : : : : > > > > > > > > > > > > > > > > > > > > > > > > > > > > : : : : > > > > > > ",
"e e e e e e e e e e e e e e e e e e e e e e e e e e e e e e e e e e e e e e e e e e e e e e e e e e e e e e e e e e e e e e e e e e e e e e e e e e e e e e e e e e e e e e e e e e e e e e e e e e e e e e e e e e e e e e e e e e e e e e e e e e e e e e e e e e e e e e e e e e e e e e e e e e e e e e e e e e e e e e e e e e e e e e e e e e e e e e e e e e e e e e e e e e e e e e e e e e e e e e e e e e e e e e e e e e e e e $ $ :.!.!.!.!.!.!.!.!.!.u.9.9.!.!.!.!.!.eXeXeXeXeXeXeXeXeXeXxXMXMXMXMXMXMXMXMXMXMXMXMXMXMXMXMXMXMXMXMXMXMXxXxXeXeXeXeXeXeXeXeXeXeXeXeXeXeXeXeXeXeXeXeXeXeXeXeXeXeXeXeXeXeXeXeXeXeXeXeXeXeXeXeXeXeXeXeXeXeXeXeXeXeXeXeXeXeXeXeXeXeXeXeXeXeXeXeXeXeXeXeXeXeX7X7X7X6X6X6X6XoXoX!.!.!.!.!.!.!.!.!.!.!.!.!.!.!.!.!.!.!.!.!.!.!.!.!.!.!.!.!.!.!.!.!.!.!.!.!.!.!.!.!.!.!.!.!.!.W.W.W.u.u.u.e.e.e.0.0.0.0.0.0.9.9.9.9.9.9.9.9.9.9.9.9.9.9.9.9.X.X.! ! ! ! ) ) / / / / / / / / / / / / R R R R R R R R R R R R R R R R R R R R R R R R R R R R R _ _ _ _ _ _ ` ` ` ` ' ' ' ' ' ' [ [ [ [ [ [ [ [ [ [ [ [ [ [ [ [ [ [ [ [ [ [ [ [ [ [ [ [ [ [ [ [ [ [ [ [ [ [ [ [ [ [ [ [ [ [ [ [ [ [ [ [ [ [ [ [ [ [ [ [ [ [ [ [ [ [ [ [ [ [ [ [ [ [ [ [ ` ~ ~ S S $ % % & & & & & & & & & & & & & & & & & & & & & & & & & & & & & & & & % % % % $ $ $ $ $ $ $ $ $ $ $ $ $ $ $ % % % % % & & : > > > < < < < < < < < < < < < < < < < < < < : $ $ 9 9 9 9 9 9 9 9 9 9 9 9 9 9 9 9 9 9 9 9 9 9 9 9 9 9 9 9 9 9 9 9 9 9 9 9 9 9 < < < < < : : % % % % % % % % % $ $ $ $ $ $ $ $ $ $ % % & & & : : : : : : > : > > > > : : > > > > : : > > > > > : > > > > > > > > : : : : > : : : > > > > : : : > > > : : ",
"e e e e e e e e e e e e e e e e e e e e e e e e e e e e e e e e e e e e e e e e e e e e e e e e e e e e e e e e e e e e e e e e e e e e e e e e e e e e e e e e e e e e e e e e e e e e e e e e e e e e e e e e e e e e e e e e e e e e e e e e e e e e e e e e e e e e e e e e e e e e e e e e e e e e e e e e e e e e e e e e e e e e e e e e e e e e e e e e e e e e e e e e e e e e e e e e e e e e e e e e e e e e e e e e e e e e e : $ q !.!.!.!.!.!.!.!.!.u.9.9.!.!.!.!.!.6XeXeXeXeXeXeXeXeXeXeXeXeXxXxXMXMXMXMXMXMXMXMXMXMXMXMXMXMXMXMXxXxXxXxXeXeXeXeXeXeXeXeXeXeXeXeXeXeXeXeXeXeXeXeXeXeXeXeXeXeXeXeXeXeXeXeXeXeXeXeXeXeXeXeXeXeXeXeXeXeXeXeXeXeXeXeXeXeXeXeXeX7X7X6X6X6X6X6XoXoX!.!.!.!.!.!.!.!.!.!.!.!.!.!.!.!.!.!.!.!.!.!.!.!.!.!.!.!.!.!.!.!.!.!.!.!.!.!.!.!.!.!.!.!.!.!.!.W.W.u.u.u.u.e.e.e.0.0.0.0.0.0.9.9.9.9.9.9.9.9.9.9.9.9.9.9.9.X.X.X.! ! ! ! ) ) / / / / / / / / / / / / R R R R R R R R R R R R R R R R R R R R R R R R R R R R _ _ _ _ _ _ _ ` ` ` ' ' ' ' ' ' [ [ [ [ [ [ [ [ [ [ [ [ [ [ [ [ [ [ [ [ [ [ [ [ [ [ [ [ [ [ [ [ [ [ [ [ [ [ [ [ [ [ [ [ [ [ [ [ [ [ [ [ [ [ [ [ [ [ [ [ [ [ [ [ [ [ [ [ [ [ [ [ [ [ [ [ [ [ [ [ [ [ [ [ [ [ [ ' [ ` Y Y S Y % % % & & & & & & & & & & & & & & & & & & & & & & & & & & & & & & & & & & & & & & & & & % % % % $ $ $ $ $ $ $ $ $ $ $ $ $ % % % % % & & : > > > < < < < < < < < < < < < : $ $ 9 9 9 9 9 9 9 9 9 9 9 9 9 9 9 9 9 9 9 9 9 9 9 9 9 9 9 9 < < < < < : : % % % % % % % % % % $ $ $ $ $ $ $ $ $ % % & & & & & : : : : : : : : > > > > > > : : > > > > : : > > > > : : > > > > > : > > > > > > > > : > : : > : : : > > > > : : : > > > : : ",
"e e e e e e e e e e e e e e e e e e e e e e e e e e e e e e e e e e e e e e e e e e e e e e e e e e e e e e e e e e e e e e e e e e e e e e e e e e e e e e e e e e e e e e e e e e e e e e e e e e e e e e e e e e e e e e e e e e e e e e e e e e e e e e e e e e e e e e e e e e e e e e e e e e e e e e e e e e e e e e e e e e e e e e e e e e e e e e e e e e e e e e e e e e e e e e e e e e e e e e e e e e e e e e e e e e e e e < $ % !.!.!.!.!.!.!.!.!.u.9.9.!.!.!.!.!.!.eXeXeXeXeXeXeXeXeXeXeXeXeXeXeXeXeXeXeXxXxXxXxXeXeXeXeXeXeXeXeXeXeXeXeXeXeXeXeXeXeXeXeXeXeXeXeXeXeXeXeXeXeXeXeXeXeXeXeXeXeXeXeXeXeXeXeXeXeXeXeXeXeXeXeX7X7X7X7X6X6X6X6X6XoXoXoX!.!.!.!.!.!.!.!.!.!.!.!.!.!.!.!.!.!.!.!.!.!.!.!.!.!.!.!.!.!.!.!.!.!.!.!.!.!.!.!.!.!.!.!.!.!.!.!.W.W.u.u.u.u.e.e.e.0.0.0.0.0.9.9.9.9.9.9.9.9.9.9.9.9.9.9.9.9.X.X.X.! ! ! ! ) ) / / / / / / / / / / / / R R R R R R R R R R R R R R R R R R R R R R R R R R R _ _ _ _ _ _ _ ` ` ` ' ' ' ' ' ' [ [ [ [ [ [ [ [ [ [ [ [ [ [ [ [ [ [ [ [ [ [ [ [ [ [ [ [ [ [ [ [ [ [ [ [ [ [ _ _ _ _ P P P P P Z Z Z n n n n P [ [ [ [ [ [ [ [ [ [ [ [ [ [ [ [ [ [ [ [ [ [ [ [ [ [ [ [ [ [ [ [ [ [ [ [ [ [ [ [ [ [ [ [ [ [ [ ` Y Y S Y = $ % & & & & & & & & & & & & & & & & & & & & & & & & & & & & & & & & & & & & & & & & & & & & & & & & & % % % % $ $ $ $ $ $ $ $ $ $ $ $ % % % % % & & : > > > < < < < < : $ $ < 9 9 9 9 9 9 9 9 9 9 9 9 9 9 9 9 9 < < < < < : : % % % % % % % % % % $ $ $ $ $ $ $ $ $ $ % & & & & : : : : : : : : : : : > > > > > > : > > > > > > > : > > > > > : : > > > > : : > > > > : : > > > > : : : : > > > > > > > : : : > > > > > > > > : : ",
"e e e e e e e e e e e e e e e e e e e e e e e e e e e e e e e e e e e e e e e e e e e e e e e e e e e e e e e e e e e e e e e e e e e e e e e e e e e e e e e e e e e e e e e e e e e e e e e e e e e e e e e e e e e e e e e e e e e e e e e e e e e e e e e e e e e e e e e e e e e e e e e e e e e e e e e e e e e e e e e e e e e e e e e e e e e e e e e e e e e e e e e e e e e e e e e e e e e e e e e e e e e e e e e e e e e e e 1 $ $ U.!.!.!.!.!.!.!.!.u.9.9.!.!.!.!.!.!.6XeXeXeXeXeXeXeXeXeXeXeXeXeXeXeXeXeXeXeXeXeXeXeXeXeXeXeXeXeXeXeXeXeXeXeXeXeXeXeXeXeXeXeXeXeXeXeXeXeXeXeXeXeXeXeXeX7X7X7X7X6X6X6X6X6XoXoXoXoX!.!.!.!.!.!.!.!.!.!.!.!.!.!.!.!.!.!.!.!.!.!.!.!.!.!.!.!.!.!.!.!.!.!.!.!.!.!.!.!.!.!.!.!.!.!.!.!.!.!.!.!.!.W.W.u.u.u.u.e.e.e.0.0.0.0.0.9.9.9.9.9.9.9.9.9.9.9.9.9.9.9.9.X.X.X.! ! ! ! ) ) / / / / / / / / / / / / R R R R R R R R R R R R R R R R R R R R R R R R R R _ _ _ _ _ _ _ ` ` ` ' ' ' ' ' ' [ [ [ [ [ [ [ [ [ [ [ [ [ [ [ [ [ [ [ [ [ [ [ [ [ [ [ [ [ [ [ [ [ [ [ _ _ _ _ P P P P P Z Z Z n n n n n n n n n n n n n n n n n n n n Z [ [ [ [ [ [ [ [ [ [ [ [ [ [ [ [ [ [ [ [ [ [ [ [ [ [ [ [ [ [ [ [ [ [ [ [ [ [ [ [ [ [ [ [ [ [ [ ` Y Y Y Y ; $ $ & & & & & & & & & & & & & & & & & & & & & & & & & & & & & & & & & & & & & & & & & & & & & & & & & & & & & & & & & & % % % % $ $ $ $ $ $ $ $ $ $ % % % % % & & : > & $ $ < 9 9 9 9 9 9 9 9 < < < < < : : % % % % % % % % % $ $ $ $ $ $ $ $ $ $ % % & & & : : : : : : : : : : > > > > > > > > > : > > > > > > > : > > > > > > > : : > > > > : : : > > > : > > > > > : : : > > > : : : : > > > > > > > > : : : > > > > > > > : : ",
"e e e e e e e e e e e e e e e e e e e e e e e e e e e e e e e e e e e e e e e e e e e e e e e e e e e e e e e e e e e e e e e e e e e e e e e e e e e e e e e e e e e e e e e e e e e e e e e e e e e e e e e e e e e e e e e e e e e e e e e e e e e e e e e e e e e e e e e e e e e e e e e e e e e e e e e e e e e e e e e e e e e e e e e e e e e e e e e e e e e e e e e e e e e e e e e e e e e e e e e e e e e e e e e e e e e 0 0 0 $ $ <.!.!.!.!.!.!.!.!.u.9.9.W.!.!.!.!.!.!.6XeXeXeXeXeXeXeXeXeXeXeXeXeXeXeXeXeXeXeXeXeXeXeXeXeXeXeXeXeXeXeXeXeXeXeXeX7X7X7X7X6X6X6X6X6X6XoXoXoXoX!.!.!.!.!.!.!.!.!.!.!.!.!.!.!.!.!.!.!.!.!.!.!.!.!.!.!.!.!.!.!.!.!.!.!.!.!.!.!.!.!.!.!.!.!.!.!.!.!.!.!.!.!.!.!.!.!.!.!.W.W.u.u.u.u.e.e.e.0.0.0.0.0.9.9.9.9.9.9.9.9.9.9.9.9.9.9.9.9.X.X.X.! ! ! ! ) ) / / / / / / / / / / / / R R R R R R R R R R R R R R R R R R R R R R R R R _ _ _ ` _ _ _ ` ` ' ' ' ' ' ' ' [ [ [ [ [ [ [ [ [ [ [ [ [ [ [ [ [ [ [ [ [ [ [ [ [ [ [ [ [ [ [ [ _ _ _ _ P P P P P Z Z Z n n n n n n n n n n n n n n n n n n n n n n n n n n n n M M M M N N n n Z [ [ [ [ [ [ [ [ [ [ [ [ [ [ [ [ [ [ [ [ [ [ [ [ [ [ [ [ [ [ [ [ [ [ [ [ [ [ [ [ [ [ [ [ [ [ [ ` Y Y Y Y 7 $ $ & & & & & & & & & & & & & & & & & & & & & & & & & & & & & & & & & & & & & & & & & & & & & & & & & & & & & & & & & & & & & & & & & & % % % % $ $ $ $ $ $ $ $ $ % % $ $ $ % : < < : : % % % % % $ $ % % % $ $ $ $ $ $ $ $ $ % % & & & : : : : : : : : : : > > > > : > : : : : : : : > > > : : : > > > > : > > > : : : : : : > > > > : : > > > > : : > > > > : : : > > > : : : : : : > > > : : : > > > > : : > > > > : : > > > > ",
"e e e e e e e e e e e e e e e e e e e e e e e e e e e e e e e e e e e e e e e e e e e e e e e e e e e e e e e e e e e e e e e e e e e e e e e e e e e e e e e e e e e e e e e e e e e e e e e e e e e e e e e e e e e e e e e e e e e e e e e e e e e e e e e e e e e e e e e e e e e e e e e e e e e e e e e e e e e e e e e e e e e e e e e e e e e e e e e e e e e e e e e e e e e e e e e e e e e e e e e e e 0 0 0 0 0 0 0 9 9 9 9 9 9 $ $ r.!.!.!.!.!.!.!.!.u.9.9.u.!.!.!.!.!.!.!.6XeXeXeXeXeXeXeXeXeXeXeXeXeXeXeXeX7X7X7X7X7X6X6X6X6X6XoXoXoX/.!.!.!.!.!.!.!.!.!.!.!.!.!.!.!.!.!.!.!.!.!.!.!.!.!.!.!.!.!.!.!.!.!.!.!.!.!.!.!.!.!.!.!.!.!.!.!.!.!.!.!.!.!.!.!.!.!.!.!.!.!.!.!.!.!.!.W.W.u.u.u.u.e.e.e.0.0.0.0.0.0.0.0.0.9.9.9.9.9.9.9.9.9.9.9.9.X.X.X.! ! ! ) ) ) / / / / / / / / / / / / R R R R R R R R R R R R R R R R R R R R R R R R _ _ _ _ _ _ _ ` ` ' ' ' ' ' ' ' [ [ [ [ [ [ [ [ [ [ [ [ [ [ [ [ [ [ [ [ [ [ [ [ [ [ [ [ [ _ _ _ _ I I I I I Z Z Z n n n n n n n n n n n n n n n n n n n n n n n n n n M M M N N N N N K K K K K L L L L L L L L L L L M n Z [ [ [ [ [ [ [ [ [ [ [ [ [ [ [ [ [ [ [ [ [ [ [ [ [ [ [ [ [ [ [ [ [ [ [ [ [ [ [ [ [ [ [ [ [ [ [ ` Y Y Y Y Y $ $ % & & & & & & & & & & & & & & & & & & & & & & & & & & & & & & & & & & & & & & & & & & & & & & & & & & & & & & & & & & & & & & & & & & & & & & & & & % % % % $ $ $ $ $ $ $ $ % % % % $ $ $ $ $ $ $ $ $ $ % % & & & & & : : : : : : : > > > > > > > > > > > > > : : : : : > : : > > > > > : : : > > > > : > > > > : : : : : > > > : : : > > > > : : > > > > : : : > > > > > : : > > > > : : : : > > > > : : > > > > : : > > > > ",
"e e e e e e e e e e e e e e e e e e e e e e e e e e e e e e e e e e e e e e e e e e e e e e e e e e e e e e e e e e e e e e e e e e e e e e e e e e e e e e e e e e e e e e e e e e e e e e e e e e e e e e e e e e e e e e e e e e e e e e e e e e e e e e e e e e e e e e e e e e e e e e e e e e e e e e e e e e e e e e e e e e e e e e e e e e e e e e e e e e e e e e e e e e e e e e e e 0 0 0 0 0 0 0 9 9 9 9 9 9 9 9 9 9 9 9 9 9 9 $ $ & !.!.!.!.!.!.!.!.!.9.9.u.!.!.!.!.!.!.!.!.7X7X6X6X6X6X6XoXoXoXoXoX!.!.!.!.!.!.!.!.!.!.!.!.!.!.!.!.!.!.!.!.!.!.!.!.!.!.!.!.!.!.!.!.!.!.!.!.!.!.!.!.!.!.!.!.!.!.!.!.!.!.!.!.!.!.!.!.!.!.!.!.!.!.!.!.!.!.!.!.!.!.!.!.W.W.u.u.u.u.e.e.e.0.0.0.0.0.0.0.0.0.9.9.9.9.9.9.9.9.9.9.9.9.X.X.X.! ! ! ) ) ) / / / / / / / / / / / / R R R R R R R R R R R R / R R R R R R R R R R _ _ _ _ _ _ ` ` ` ' ' ' ' ' ' ' [ [ [ [ [ [ [ [ [ [ [ [ [ [ [ [ [ [ [ [ [ [ [ [ [ [ _ _ _ _ I I I I I Z Z Z n n n n n n n n n n n n n n n n n n n n n n n n n n A A A  . . . . .o.o.o.V.V.n n N L L L L L L L L L L L L L L L L L L L L L L L L M n Z [ [ [ [ [ [ [ [ [ [ [ [ [ [ [ [ [ [ [ [ [ [ [ [ [ [ [ [ [ [ [ [ [ [ [ [ [ [ [ [ [ [ [ [ [ [ [ ` Y Y Y Y Y $ $ % & & & & & & & & & & & & & & & & & & & & & & & & & & & & & & & & & & & & & & & & & & & & & & & & & & & & & & & & & & & & & & & & & & & & & & & & & & & & & & & & % $ $ $ $ $ $ $ $ % % & & & : : : : : : : : : : : : > > > > : : > > > > > > > > : : : > > > > > : : > > > > > > > > > > > > > > : : : : > > > > > > : : > > > > : : > : : : : : > > > > > : > > & : > > > > > > > > > > > > > > : : > > > > > > : : > > : : ",
"e e e e e e e e e e e e e e e e e e e e e e e e e e e e e e e e e e e e e e e e e e e e e e e e e e e e e e e e e e e e e e e e e e e e e e e e e e e e e e e e e e e e e e e e e e e e e e e e e e e e e e e e e e e e e e e e e e e e e e e e e e e e e e e e e e e e e e e e e e e e e e e e e e e e e e e e e e e e e e e e e e e e e e e e e e e e e e e e e e e e e e 0 0 0 0 0 0 0 9 9 9 9 9 9 9 9 9 9 9 9 9 9 9 9 9 9 9 9 9 9 9 9 9 > $ $ /.!.!.!.!.!.!.!.!.u.9.9.!.!.!.!.!.!.!.!.!.!.!.!.!.!.!.!.!.!.!.!.!.!.!.!.!.!.!.!.!.!.!.!.!.!.!.!.!.!.!.!.!.!.!.!.!.!.!.!.!.!.!.!.!.!.!.!.!.!.!.!.!.!.!.!.!.!.!.!.!.!.!.!.!.!.!.!.!.!.!.!.W.W.u.u.u.u.e.e.e.0.0.0.0.0.0.0.9.0.9.9.9.9.9.9.9.9.9.9.9.9.X.X.X.! ! ! ) ) ) / / / / / / / / / / / / R R R R R R R R R R R R R R R R R R R R R _ _ _ _ _ _ _ ` ` ` ' ' ' ' ' ' [ [ [ [ [ [ [ [ [ [ [ [ [ [ [ [ [ [ [ [ [ [ [ [ _ _ _ _ I I I I Z Z Z Z n n n n n n n n n n n n n n n n n n n n n n n n n n A A A  . . . . .o.o.o.o.V.V.V.V.B.B.B.C.C.C.V.B.C.C.C.F.F.n n Z L L L L L L L L L L L L L L L L L L L L L L L L M n Z [ [ [ [ [ [ [ [ [ [ [ [ [ [ [ [ [ [ [ [ [ [ [ [ [ [ [ [ [ [ [ [ [ [ [ [ [ [ [ [ [ [ [ [ [ [ [ ` Y Y Y Y Y t $ % & & & & & & & & & & & & & & & & & & & & & & & & & & & & & & & & & & & & & & & & & & & & & & & & & & & & & & & & & & & & & & & & & & & & & & & & & & & & & & & & % $ $ $ & : : : : : : : : : > > > > > > > > > > > > > > > > > : > > > > > > > > : : > > > > > > > > > > > > > > > > > > > > : : : : : : > > > > > > > : > > > > > > > : : : : > > > > > > > > & % % > > > > > > > > > > > > > > : : > > > > > > > > > : : : ",
"e e e e e e e e e e e e e e e e e e e e e e e e e e e e e e e e e e e e e e e e e e e e e e e e e e e e e e e e e e e e e e e e e e e e e e e e e e e e e e e e e e e e e e e e e e e e e e e e e e e e e e e e e e e e e e e e e e e e e e e e e e e e e e e e e e e e e e e e e e e e e e e e e e e e e e e e e e e e e e e e e e e e e e e e e e e e 0 0 0 0 0 0 0 9 9 9 9 9 9 9 9 9 9 9 9 9 9 9 9 9 9 9 9 9 9 9 9 9 9 9 9 9 9 9 9 9 9 9 , $ $ t !.!.!.!.!.!.!.!.u.9.9.u.!.!.!.!.!.!.!.!.!.!.!.!.!.!.!.!.!.!.!.!.!.!.!.!.!.!.!.!.!.!.!.!.!.!.!.!.!.!.!.!.!.!.!.!.!.!.!.!.!.!.!.!.!.!.!.!.!.!.!.!.!.!.!.!.!.!.!.W.W.u.u.u.u.e.e.e.0.0.0.0.0.0.0.0.0.9.9.9.9.9.9.9.9.9.9.9.9.X.X.! ! ! ! ) ) ) / / / / / / / / / / / / R R R R / R R R R R R R R R R R R R R R _ _ _ ` _ _ _ ` ` ` ' ' ' ' ' ' [ [ [ [ [ [ [ [ [ [ [ [ [ [ [ [ ' [ [ [ [ _ _ _ _ I I I I Z Z Z Z n n n n n n n n n n n n n n n n n n n n n n n n n n A A A A  . . . .o.o.o.o.B.V.V.V.V.V.V.C.C.C.C.C.N.N.N.l l l l l k k k d d d d l F.F.F.F.F.n n Z L L L L L L L L L L L L L L L L L L L L L L L L M n n [ [ [ [ [ [ [ [ [ [ [ [ [ [ [ [ [ [ [ [ [ [ [ [ [ [ [ [ [ [ [ [ [ [ [ [ [ [ [ [ [ [ [ [ [ [ [ ` Y Y Y Y Y 7 $ $ & & & & & & & & & & & & & & & & & & & & & & & & & & & & & & & & & & & & & & & & & & & & & & & & & & & & & & & & & & & & & & & & & & & & & & & & & & & & & & & & % $ $ $ : > > > > > > > > > : : > > > > > > > > > > > > > > : > > > > > > > > > : : > > > > > > > > > > > > : : > > > > : > > > > : : > > > > > > > > > > > > > > > > > : : : : > > : > > > : $ $ $ & > > > > > > > > > > > > > : : > > > > > > > > > > > : ",
"e e e e e e e e e e e e e e e e e e e e e e e e e e e e e e e e e e e e e e e e e e e e e e e e e e e e e e e e e e e e e e e e e e e e e e e e e e e e e e e e e e e e e e e e e e e e e e e e e e e e e e e e e e e e e e e e e e e e e e e e e e e e e e e e e e e e e e e e e e e e e e e e e e e e e e e e e e e e e e e e e e 0 0 0 0 0 0 0 9 9 9 9 9 9 9 9 9 9 9 9 9 9 9 9 9 9 9 9 9 9 9 9 9 9 9 9 9 9 9 9 9 9 9 9 9 9 9 9 9 9 9 9 9 < $ $ t e.W.!.!.!.!.!.!.!.u.9.0.u.!.!.!.!.!.!.!.!.!.!.!.!.!.!.!.!.!.!.!.!.!.!.!.!.!.!.!.!.!.!.!.!.!.!.!.!.!.!.!.!.!.!.!.!.!.!.!.!.!.!.!.!.!.!.W.W.u.u.u.u.e.e.e.0.0.0.0.0.0.0.0.0.9.9.9.9.9.9.9.9.9.9.9.9.X.X.! ! ! ! ) ) ) / / / / / / / / / / / / R R R R R R R R R R R R R R R R R R R _ _ _ _ _ _ _ ` ` ` ' ' ' ' ' ' [ [ [ [ [ [ [ [ [ [ [ [ [ [ [ [ [ [ _ _ _ _ I I I I Z Z Z Z n n n n n n n n n n n n n n n n n n n n n n n n n n A A A A  . . . . .o.o.o.V.V.B.V.V.B.V.V.C.C.C.C.C.C.N.N.N.l l l l k k k k d d d d d d d d d d d a a a a a a a l F.F.F.F.o.n n Z L L L L L L L L L L L L L L L L L L L L L L L L M n n [ [ [ [ [ [ [ [ [ [ [ [ [ [ [ [ [ [ [ [ [ [ [ [ [ [ [ [ [ [ [ [ [ [ [ [ [ [ [ [ [ [ [ [ [ [ [ ` Y Y Y Y Y ! $ $ & & & & & & & & & & & & & & & & & & & & & & & & & & & & & & & & & & & & & & & & & & & & & & & & & & & & & & & & & & & & & & & & & & & & & & & & & & & & & & & & % $ $ % > > > > > > > > > > : : > > > > > > > > > > > > > > : : > > > > : : > > > > > > > > > > > > > : > > : : > > > > : : > > > > > > > > > > > > > > > > > > > > > > : > : : > > : > > > % $ $ $ $ : > > > > > > > > : : > > : > > > > > > > > > > > : : ",
"e e e e e e e e e e e e e e e e e e e e e e e e e e e e e e e e e e e e e e e e e e e e e e e e e e e e e e e e e e e e e e e e e e e e e e e e e e e e e e e e e e e e e e e e e e e e e e e e e e e e e e e e e e e e e e e e e e e e e e e e e e e e e e e e e e e e e e e e e e e e e e e e e e e e e 0 0 0 0 0 0 0 0 0 0 0 9 9 9 9 9 9 9 9 9 9 9 9 9 9 9 9 9 9 9 9 9 9 9 9 9 9 9 9 9 9 9 9 9 9 9 9 9 9 9 9 9 9 9 9 9 9 9 9 9 9 9 9 9 9 9 $ $ < 9.0.e.W.!.!.!.!.!.!.9.9.0.u.!.!.!.!.!.!.!.!.!.!.!.!.!.!.!.!.!.!.!.!.!.!.!.!.!.!.!.!.!.!.!.!.!.!.!.!.!.!.!.!.!.W.W.u.u.u.u.e.e.e.0.0.0.0.0.0.0.0.0.9.9.9.9.9.9.9.9.9.9.9.9.X.X.! ! ! ! ) ) ) / / / / / / / / / / / / R R R R R R R / R R R R R R R R R R _ _ _ _ _ _ _ ` ` ` ' ' ' ' ' ' [ [ [ [ [ [ [ [ [ [ [ [ [ [ [ _ _ _ _ I I I I Z Z Z Z n n n n n n n n n n n n n n n n n n n n n n n n n n n A A A  . . . . .o.o.o.V.B.B.B.B.V.V.V.C.C.C.C.C.C.C.C.N.N.N.l l l l k k k d d d d d d d d d d d a a a a a a a a a a a a a a d d d k a a a a l F.F.F.F.o.n n Z L L L L L L L L L L L L L L L L L L L L L L L L M n n [ [ [ [ [ [ [ [ [ [ [ [ [ [ [ [ [ [ [ [ [ [ [ [ [ [ [ [ [ [ [ [ [ [ [ [ [ [ [ [ [ [ [ [ [ [ [ ` Y Y Y Y Y O.$ % & & & & & & & & & & & & & & & & & & & & & & & & & & & & & & & & & & & & & & & & & & & & & & & & & & & & & & & & & & & & & & & & & & & & & & & & & & & & & & & & % $ $ % > > > > : > > > > > : : > > : : > > > > : : : : > > : : > > > : : : > > > > > > > > : : > : : % % > : : > > > : : : > > > > > > > > > > : : : > > > > > : : > > > > : > > > > > > & $ $ $ $ $ & : : > > > > > : : : > > > > > > > > : : > : > > > > ",
"e e e e e e e e e e e e e e e e e e e e e e e e e e e e e e e e e e e e e e e e e e e e e e e e e e e e e e e e e e e e e e e e e e e e e e e e e e e e e e e e e e e e e e e e e e e e e e e e e e e e e e e e e e e e e e e e e e e e e e e e e e e e e e e e e e e e e 0 0 0 0 0 0 0 0 0 0 0 9 9 9 9 9 9 9 9 9 9 9 9 9 9 9 9 9 9 9 9 9 9 9 9 9 9 9 9 9 9 9 9 9 9 9 9 9 9 9 9 9 9 9 9 9 9 9 9 9 9 9 9 9 9 9 9 9 9 9 9 9 9 9 9 9 9 9 9 9 9 9 & $ % 9.9.9.0.0.e.u.W.W.!.u.9.9.0.e.W.!.!.!.!.!.!.!.!.!.!.!.!.!.!.!.!.!.!.!.!.!.!.!.!.!.!.!.W.W.u.u.u.u.e.e.0.0.0.0.0.0.0.0.0.0.9.9.9.9.9.9.9.9.9.9.9.9.X.X.! ! ! ! ) ) ) / / / / / / / / / / / / R R R R R / / R R R R R R R R R R _ _ _ _ _ _ _ ` ` ` ' ' ' ' ' ' [ [ [ [ [ [ [ [ [ [ [ [ _ _ _ / P I I I Z Z Z Z n n n n n n n n n n n n n n n n n n n n n n n n n n n A A A  . . . . .o.o.o.o.V.V.V.V.V.V.V.C.C.C.C.C.C.C.C.F.N.N.N.l l l l l k k k d d d d d d d d d d d a a a a a a a a a a a a a a d d d k k k k l l l N.N.N.V.V.V.V.N.a a a a l F.F.F.F.o.n n Z L L L L L L L L L L L L L L L L L L L L L L L L M n n [ [ [ [ [ [ [ [ [ [ [ [ [ [ [ [ [ [ [ [ [ [ [ [ [ [ [ [ [ [ [ [ [ [ [ [ [ [ [ [ [ [ [ [ [ [ [ ` Y Y Y Y ~ O.q % % & & & & & & & & & & & & & & & & & & & & & & & & & & & & & & & & & & & & & & & & & & & & & & & & & & & & & & & & & & & & & & & & & & & & & & & & & & & & & & & % $ $ % : > > > : : > > > > : : > > : > > > > > > : : : : > : : > > : : : : > > > > : > > > : : : : % $ $ & : : > > > > : : > > > > > > > > > : : : : > > > > > > : > > > > > > > > > > : % $ $ =X$ $ $ : > > > : : > > : : > > > > > > > : : : : : > > > > ",
"e e e e e e e e e e e e e e e e e e e e e e e e e e e e e e e e e e e e e e e e e e e e e e e e e e e e e e e e e e e e e e e e e e e e e e e e e e e e e e e e e e e e e e e e e e e e e e e e e e e e e e e e e e e e e e e e e e e e e 0 0 0 0 0 0 0 0 0 0 0 0 9 9 9 9 9 9 9 9 9 9 9 9 9 9 9 9 9 9 9 9 9 9 9 9 9 9 9 9 9 9 9 9 9 9 9 9 9 9 9 9 9 9 9 9 9 9 9 9 9 9 9 9 9 9 9 9 9 9 9 9 9 9 9 9 9 9 9 9 9 9 9 9 9 9 9 9 9 9 9 9 9 9 9 9 9 9 > $ $ W X.9.9.9.9.9.0.0.0.0.9.9.9.9.0.e.e.W.W.W.W.!.!.!.!.!.!.!.!.!.W.W.u.u.u.u.e.e.0.0.0.0.0.0.0.0.0.0.9.9.9.9.9.9.9.9.9.9.9.9.X.X.! ! ! ! ) ) / / / / / / / / / / / / / R R R R R R R R R R R R R R R R _ _ _ _ _ _ _ ` ` ' ' ' ' ' ' ' [ [ ' ' [ [ [ [ [ _ _ _ _ I I I I Z Z Z Z n n n n n n n n n n n n n n n n n n n n n n n n n n n A A A A  . . . .o.o.o.o.B.B.B.B.V.V.V.C.C.C.C.C.C.C.C.C.F.F.N.N.N.l l l l l k k k d d d d d d a d d d d a a a a a a a a a a a a a d d d d k k k k l l l N.N.N.N.N.N.N.N.V.V.V.V.V.F.H.H.H.H.H.H.H.V.a a a a l F.F.F.F.o.n n K L L L L L L L L L L L L L L L L L L L L L L L L M n n [ [ [ [ [ [ [ [ [ [ [ [ [ [ [ [ [ [ [ [ [ [ [ [ [ [ [ [ [ [ [ [ [ [ [ [ [ [ [ [ [ [ [ [ [ [ [ ` Y Y Y Y Y O.6.$ % & & & & & & & & & & & & & & & & & & & & & & & & & & & & & & & & & & & & & & & & & & & & & & & & & & & & & & & & & & & & & & & & & & & & & & & & & & & & & & & % $ $ % > > > > : : > > > > : : > > : : > > > > > > > > > : : : > > > > > > : : : > : : > > > > > : $ $ $ % : > > > > > > > : : > > : : > > > > > > : : : > > > : : > > : : > > > > > : % $ $ U.,X<.$ $ & > > > : : > > > > : : > > > : : : > : : : : > > > ",
"e e e e e e e e e e e e e e e e e e e e e e e e e e e e e e e e e e e e e e e e e e e e e e e e e e e e e e e e e e e e e e e e e e e e e e e e e e e e e e e e e e e e e e e e e e e e e e e e e e e e e 0 0 0 0 0 0 0 0 0 0 0 0 9 9 9 9 9 9 9 9 9 9 9 9 9 9 9 9 9 9 9 9 9 9 9 9 9 9 9 9 9 9 9 9 9 9 9 9 9 9 9 9 9 9 9 9 9 9 9 9 9 9 9 9 9 9 9 9 9 9 9 9 9 9 9 9 9 9 9 9 9 9 9 9 9 9 9 9 9 9 9 9 9 9 9 9 9 9 9 9 9 9 9 9 9 9 9 9 9 9 9 9 9 9 < $ $ 7 / ) X.X.9.9.9.9.9.9.9.9.9.9.9.9.9.0.0.0.0.0.0.0.0.0.0.0.0.0.0.0.0.0.0.0.9.9.9.9.9.9.9.9.9.9.9.9.X.X.! ! ! ! ) ) / / / / / / / / / / / / R R R R R R R R R R R R R R R R _ _ _ _ _ _ _ ` ` ' ' ' ' ' ' ' [ [ [ [ [ [ _ _ _ _ I I I I Z Z Z Z n n n n n n n n n n n n n n n n n n n n n n n n n n n A A A A  . . . .o.o.o.o.B.B.B.B.V.V.V.V.C.C.C.C.C.C.C.C.F.F.F.F.N.N.N.l l l l k k j d d d d d d d a d d d d a a a a a a a a a a a a a d d d k k k k k l l l N.N.N.N.N.N.N.N.N.N.N.N.N.V.V.F.F.F.H.H.H.H.H.H.H.H.H.H.H.H.H.H.H.H.H.V.a a a a l F.F.F.F.o.n n K L L L L L L L L L L L L L L L L L L L L L L L L M n n [ [ [ [ [ [ [ [ [ [ [ [ [ [ [ [ [ [ [ [ [ [ [ [ [ [ [ [ [ [ [ [ [ [ [ [ [ [ [ [ [ [ [ [ [ [ [ ` Y Y Y Y Y O.6.$ $ % & & & & & & & & & & & & & & & & & & & & & & & & & & & & & & & % % & & & & & & & & & & & & & & & & & & & & & & & & & & & & & & & & & & & & & & & & & & & & & & $ $ & > > > > : : > > > > : > > > : : > > > > : : > > > : : : > > > > > > : : : > : : > > > > : % $ $ $ $ % > > > > > > > : : > > : : > > > > : : : : > > > > : : > : : : > > > > > % $ $ <.,X,X>X$ $ % : > > : > > > > > : : > > : : : : > > : : : : > > ",
"9 9 9 9 9 0 0 0 0 0 0 0 0 0 0 0 0 0 0 0 0 e e e e e e e e e e e e e e e e e e e e e e e e e e e e e e e e e e e e e e e e e e e e e e e e e e e 0 0 0 0 0 0 0 0 0 0 0 0 0 0 0 0 0 0 0 0 0 0 0 0 9 9 9 9 9 9 9 9 9 9 9 9 9 9 9 9 9 9 9 9 9 9 9 9 9 9 9 9 9 9 9 9 9 9 9 9 9 9 9 9 9 9 9 9 9 9 9 9 9 9 9 9 9 9 9 9 9 9 9 9 9 9 9 9 9 9 9 9 9 9 9 9 9 9 9 9 9 9 9 9 9 9 9 9 9 9 9 9 9 9 9 9 9 9 9 9 9 9 9 9 9 9 9 9 9 9 9 9 9 9 9 9 < < < < < < < : $ $ 7 R / / / / ) ) ! ! ! ! ! ! / ) X.9.9.9.9.9.9.9.9.9.9.9.9.9.9.9.9.9.9.9.9.X.X.! ! ! ! ) ) / / / / / / / / / / / / R R R R R R R R R R R R R R R _ _ _ _ _ _ ` ` ` ' ' ' ' ' ' [ [ [ [ R _ _ _ I I I I Z Z Z Z n n n n n n n n n n n n n n n n n n n n n n n n n n n n A A A  . . . . .o.o.o.V.B.B.B.B.B.B.V.C.C.C.C.C.C.C.C.F.F.F.F.F.N.N.N.N.l l l l k k k d d d d d d d d d d d a a a a a a a a a a a a a a d d d k k k k l l l N.N.N.N.N.N.N.N.N.N.N.N.N.N.N.V.V.V.V.V.V.F.F.F.H.H.H.H.H.H.H.H.H.H.H.H.H.H.H.H.H.H.H.H.H.H.H.H.H.H.V.a a a a N.F.F.F.F.o.n n K L L L L L L L L L L L L L L L L L L L L L L L L M n n [ [ [ [ [ [ [ [ [ [ [ [ [ [ [ [ [ [ [ [ [ [ [ [ [ [ [ [ [ [ [ [ [ [ [ [ [ [ [ [ [ [ [ [ [ [ [ ` Y Y Y ~ Y O.6.$ $ $ & & & & & & & & & & & & & & & & & & & & & & & & & & & & & & % $ $ % & & & & & & & & & & & & & & & & & & & & & & & & & & & & & & & & & & & & & & & & & & & & % $ $ % > > > > > : > > > > : : > > : > > > > > : : > > > > : > > > : : > > : > > > : > > > > : : $ $ q <.$ $ & > > > > > > : : > > : > > > > > : : : : > > > > > > > > : : > > > > % $ $ <.>X,X,X,X<.$ $ $ : > > > > > > > : : > > > > > > > > > > > > > & ",
"9 9 9 9 9 9 9 9 9 9 9 9 9 9 9 9 9 9 9 9 9 9 9 9 9 9 9 0 0 0 0 0 0 0 0 0 0 0 0 0 0 0 0 0 0 0 0 0 0 0 0 0 0 0 0 0 0 0 0 9 9 9 9 9 9 9 9 9 9 9 9 9 9 9 9 9 9 9 9 9 9 9 9 9 9 9 9 9 9 9 9 9 9 9 9 9 9 9 9 9 9 9 9 9 9 9 9 9 9 9 9 9 9 9 9 9 9 9 9 9 9 9 9 9 9 9 9 9 9 9 9 9 9 9 9 9 9 9 9 9 9 9 9 9 9 9 9 9 9 9 9 9 9 9 9 9 9 9 9 9 9 9 9 9 9 9 9 9 9 9 9 9 9 9 9 9 9 9 9 9 9 9 9 9 9 9 9 9 9 9 9 9 9 9 < < < < < < < : : : % % % % % % % % % % % % $ $ - R R R R R / / / / / / / / R / / ) ) ! X.X.X.X.X.X.X.! ! ! ! ) ) / / / / / / / / / / / / R R R R R R R R R R R R R _ _ _ _ _ _ _ ` ` ` ' ' [ [ ' ' [ / / / _ I I I I Z Z Z Z m m m m n n m n n n n n n n n n n n n n n n n n n n n n A A A  . . . . .o.o.o.B.B.B.B.B.V.V.V.C.C.C.C.C.C.C.C.F.F.F.F.F.F.F.N.N.N.l l l l l k k k d d d d d d d d d d a a a a a a a a a a a a a a a d d d k k k k l l l N.N.N.N.N.N.N.N.N.N.N.N.N.N.V.V.V.V.V.V.V.V.V.V.V.F.F.F.F.H.H.H.H.H.H.H.H.H.H.H.H.H.H.H.H.H.H.H.H.H.H.H.H.H.H.H.H.H.H.H.H.H.H.H.V.a a a a N.F.F.F.F.o.n n K L L L L L L L L L L L L L L L L L L L L L L L L M n n [ [ [ [ [ [ [ [ [ [ [ [ [ [ [ [ [ [ [ [ [ [ [ [ [ [ [ [ [ [ [ [ [ [ [ [ [ [ [ [ [ [ [ [ [ [ [ ` Y Y ~ ~ Y O.<.# $ $ % & & & & & & & & & & & & & & & & & & & & & & & & & & & & % $ $ $ $ & & & & & & & & & & & & & & & & & & & & & & & & & & & & & & & & & & & & & & & & & & & & $ $ $ $ & > > > > : : > > > : : > > : > > > > > : : > > > > > > > > : : > > > > > > : > > > > : % $ $ U.>Xq $ % & > : : > > > : > > : : > > > : : : > > > > > > > > > > : : > > : % $ $ <.>X,X,X,X,X-X<.$ $ % : > > : > > > : : > > > > > > > > > > > & : % ",
"9 9 9 9 9 9 9 9 9 9 9 9 9 9 9 9 9 9 9 9 9 9 9 9 9 9 9 9 9 9 9 9 9 9 9 9 9 9 9 9 9 9 9 9 9 9 9 9 9 9 9 9 9 9 9 9 9 9 9 9 9 9 9 9 9 9 9 9 9 9 9 9 9 9 9 9 9 9 9 9 9 9 9 9 9 9 9 9 9 9 9 9 9 9 9 9 9 9 9 9 9 9 9 9 9 9 9 9 9 9 9 9 9 9 9 9 9 9 9 9 9 9 9 9 9 9 9 9 9 9 9 9 9 9 9 9 9 9 9 9 9 9 9 9 9 9 9 9 9 9 9 9 9 9 9 9 9 9 9 9 9 9 9 9 9 9 9 9 9 9 9 9 9 9 9 9 9 9 9 9 < < < < < < < : : : % % % % % % % % % % % % % % $ $ $ $ $ $ $ $ $ $ $ $ $ $ A R R R R R R R R R R R R R R / R / / / / / / / / / / / / / / / / R R R R R R R R / R R R _ _ _ _ _ _ _ ` ` ` ` ` ` ' R R / / P P I I Z Z Z Z m m m m n n n n n n n n n n n n n n n n n n n n n n n n A A A  . . . . .o.o.o.o.B.B.B.B.V.V.V.C.C.C.C.C.C.C.C.F.F.F.F.F.F.F.F.F.N.N.N.l l l l k k k d d d d d d d d d d d d a a a a a a a a a a a a a d d d k k k k k l l l N.N.N.N.N.N.N.N.N.N.N.N.N.N.V.V.V.V.V.V.V.V.V.N.V.V.V.V.V.V.F.F.F.H.H.H.H.H.H.H.H.H.H.H.H.H.H.H.H.H.H.H.H.H.H.H.H.H.H.H.H.H.H.H.H.H.H.H.H.H.H.H.H.H.H.H.H.H.V.a a a a N.F.F.F.F.o.n n K L L L L L L L L L L L L L L L L L L L L L L L L M n n [ [ [ [ [ [ [ [ [ [ [ [ [ [ [ [ [ [ [ [ [ [ [ [ [ [ [ [ [ [ [ [ [ [ [ [ [ [ [ [ [ [ [ [ [ [ [ ` Y Y ~ ~ ~ ` <.O $ $ $ & & & & & & & & & & & & & & & & & & & & & & & & & & & % $ $ $ $ $ % & & & & & & & & & & & & & & & & & & & & & & & & & & & & & & & & & & & & & & & & & & % $ $ $ $ % > : : : : : : : : > > > > > > > > > > > > : : : > > > : : : > > > > > > > > > > > > : $ $ q >X,X=X$ $ % & : : : > > > > > > > > > > > > > > > > > > > > > > > > > > & % $ $ <.>X,X,X,X,X,X,X2X6.$ $ % & > : : : : > > > > > > > > > > > & & % % $ ",
"9 9 9 9 9 9 9 9 9 9 9 9 9 9 9 9 9 9 9 9 9 9 9 9 9 9 9 9 9 9 9 9 9 9 9 9 9 9 9 9 9 9 9 9 9 9 9 9 9 9 9 9 9 9 9 9 9 9 9 9 9 9 9 9 9 9 9 9 9 9 9 9 9 9 9 9 9 9 9 9 9 9 9 9 9 9 9 9 9 9 9 9 9 9 9 9 9 9 9 9 9 9 9 9 9 9 9 9 9 9 9 9 9 9 9 9 9 9 9 9 9 9 9 9 9 9 9 9 9 9 9 9 9 9 9 9 9 9 9 9 9 9 9 9 9 9 9 9 9 9 9 9 9 9 9 9 9 9 9 9 9 9 9 9 9 9 < < < < < < < : : : % % % % % % % % % % % % % % $ $ $ $ $ $ $ $ $ $ $ $ % % % % % % % & & & & & & % $ $ S R R R / / R R R R R R R R / / R R R R R R R R R R R R R R R R _ _ _ _ _ _ _ ` ` ` ' R R R R P P P P Z Z Z Z m m m m n n n n n n n n n n n n n n n n n n n n n n n n A A A A  . . . .o.o.o.o.B.B.V.B.V.V.V.C.C.C.C.C.C.C.C.C.F.F.F.F.F.F.F.F.F.N.N.N.N.l l l l j j j d d d d d d d a a a d a a a a a a a a a a a a a a a a d d d k k k l l l N.N.N.N.N.N.N.N.N.N.N.N.N.V.V.V.V.V.V.V.V.V.V.V.V.V.V.V.V.V.V.V.V.V.V.F.F.F.H.H.H.H.H.H.H.H.H.H.H.H.H.H.H.H.H.H.H.H.H.H.H.H.H.H.H.H.H.H.H.H.H.H.H.H.H.H.H.H.H.H.H.H.H.H.H.H.H.H.H.H.H.H.V.a a a a N.F.F.F.F.o.n n K L L L L L L L L L L L L L L L L L L L L L L L L M n n [ [ [ [ [ [ [ [ [ [ [ [ [ [ [ [ [ [ [ [ [ [ [ [ [ [ [ [ [ [ [ [ [ [ [ [ [ [ [ [ [ [ [ [ [ [ [ ` Y Y ~ ~ Y Y <.O # $ $ % & & & & & & & & & & & & & & & & & & & & & & & & & % $ $ q *X<.$ $ % & & & & & & & & & & & & & & & & & & & & & & & & & & & & & & & & & & & & & & & & & $ $ q <.$ $ & : : : > : : > > : : > > > > > > > > > > : : : : > : : : : : > > > > > > > > > > > % $ $ U.,X,X,XU.$ $ % % : > > > : > > > > > > > > > > > > > > > > > > > > > > & % $ $ <.-X,X,X,X,X,X,X9X0X4X6.$ $ % % % : : > > > > > > > : : & & % % $ $ $ <.",
"9 9 9 9 9 9 9 9 9 9 9 9 9 9 9 9 9 9 9 9 9 9 9 9 9 9 9 9 9 9 9 9 9 9 9 9 9 9 9 9 9 9 9 9 9 9 9 9 9 9 9 9 9 9 9 9 9 9 9 9 9 9 9 9 9 9 9 9 9 9 9 9 9 9 9 9 9 9 9 9 9 9 9 9 9 9 9 9 9 9 9 9 9 9 9 9 9 9 9 9 9 9 9 9 9 9 9 9 9 9 9 9 9 9 9 9 9 9 9 9 9 9 9 9 9 9 9 9 9 9 9 9 9 9 9 9 9 9 9 9 9 9 9 9 9 9 9 9 9 9 9 9 < < < < < < < : : : % % % % % % % % % % % % % % $ $ $ $ $ $ $ $ $ $ $ $ % % % % % % % & & & & & & & & & & : : : : : : : : : : $ % = R R / / R / R R R R R R R R / R R R R _ _ _ _ _ _ _ ` U U R R P P P P Z Z Z Z m m m m n m m n n n n n n n n n n n n n n n n n n n n n A A A A  . . . . .o.o.o.B.B.B.B.V.V.V.V.C.C.C.C.C.C.C.C.F.F.F.F.F.F.F.F.F.F.F.N.N.N.l l l l l k k k d d d d d d d d a d d a a a a a a a a a a a a a a a 5.5.5.G.N.N.k k Z.Z.l G.N.N.N.N.N.N.N.N.N.N.N.N.V.V.V.V.V.V.V.V.V.V.V.V.V.V.V.V.V.V.V.V.V.V.N.V.V.V.F.F.F.H.H.H.H.H.H.H.H.H.H.H.H.H.H.H.H.H.H.H.H.H.H.H.H.H.H.H.H.H.H.H.H.H.H.H.H.H.H.H.H.H.H.H.H.H.H.H.H.H.H.H.H.H.H.H.H.H.H.H.H.H.H.H.V.a a a a N.F.F.F.F.o.n n K L L L L L L L L L L L L L L L L L L L L L L L L M n n [ [ [ [ [ [ [ [ [ [ [ [ [ [ [ [ [ [ [ [ [ [ [ [ [ [ [ [ [ [ [ [ [ [ [ [ [ [ [ [ [ [ [ [ [ [ [ ` Y Y Y Y Y Y <.O O & $ $ % & & & & & & & & & & & & & & & & & & & & & & & % $ $ q =X,X-X$ $ $ % & & & & & & & & & & & & & & & & & & & & & & & & & & & & & & & & & & & & & & & $ $ $ U.-Xq $ % & > > > > > > > : : > > > > : > : : > > > > > > > > : : > > > > : > : : > > > > & $ $ q ,X,X,X,X,XU.$ $ $ % : > : : : > > > : > : : > > : > : : > > > > : : : % % $ $ <.-X,X,X,X,X,X,X4X0X0X0X4XE.r $ $ $ % % % % % % % % % $ $ % % $ $ $ <.*X-X",
"9 9 9 9 9 9 9 9 9 9 9 9 9 9 9 9 9 9 9 9 9 9 9 9 9 9 9 9 9 9 9 9 9 9 9 9 9 9 9 9 9 9 9 9 9 9 9 9 9 9 9 9 9 9 9 9 9 9 9 9 9 9 9 9 9 9 9 9 9 9 9 9 9 9 9 9 9 9 9 9 9 9 9 9 9 9 9 9 9 9 9 9 9 9 9 9 9 9 9 9 9 9 9 9 9 9 9 9 9 9 9 9 9 9 9 9 9 9 9 9 9 9 9 9 9 9 9 9 9 9 9 9 9 9 9 9 9 9 < < < < < < < : : : % % % % % % % % % % % % % % $ $ $ $ $ $ $ $ $ $ $ $ % % % % % % % % & & & & & & & & & : : : : : : : : : : : : : : : : : : : : : : : & $ % ; R R / / R R _ _ _ _ _ _ _ ` ` ` P P P Z Z Z Z m m m m n n n n n n n n n n n n n n n n n n n n n n n n n A A A  . . . . .o.o.o.B.B.B.B.V.B.V.V.C.C.C.C.C.C.C.C.F.F.F.F.F.F.F.F.F.F.F.F.F.N.N.N.l l l l k k k d d d d d d d d d d d d a a a a a a a a a a a a a a a 5.5.5.G.G.G.N.N.T.V.V.~.G.G.G.N.N.V.V.V.N.N.V.V.N.V.V.V.V.V.V.V.V.V.V.V.V.V.V.V.V.V.V.V.V.V.V.V.V.V.V.V.V.F.F.F.F.H.H.H.H.H.H.H.H.H.H.H.H.H.H.H.H.H.H.H.H.H.H.H.H.H.H.H.H.H.H.H.H.H.H.H.H.H.H.H.H.H.H.H.H.H.H.H.H.H.H.H.H.H.H.H.H.H.H.H.H.H.H.H.H.H.H.H.H.H.H.H.H.H.V.a a a a N.F.F.F.F.o.n n K L L L L L L L L L L L L L L L L L L L L L L L L M n n [ [ [ [ [ [ [ [ [ [ [ [ [ [ [ [ [ [ [ [ [ [ [ [ [ [ [ [ [ [ [ [ [ [ [ [ [ [ [ [ [ [ [ [ [ [ [ ` Y Y Y Y Y Y 6.O O 9 $ $ $ % & & & & & & & & & & & & & & & & & & & & & % $ $ <.=X,X,X,X<.$ $ $ & & & & & & & & & & & & & & & & & & & & & & & & & & & & & & & & & & & & & & % $ $ <.,X<XU.$ $ % & > > > > > > : : : > > > : : : : : > > > > > > > > > > > > > : : : : : > > : % $ $ U.,X,X,X,X,X,X*Xq $ $ % & : : : > > > : : : : > > : : : : : > > > : & $ $ $ $ <.-X,X,X,X,X,X,X4X0X0X0X0X0X9X2XY.r $ $ $ $ $ $ $ $ $ $ $ $ $ $ q <.*X-X,X,X",
"9 9 9 9 9 9 9 9 9 9 9 9 9 9 9 9 9 9 9 9 9 9 9 9 9 9 9 9 9 9 9 9 9 9 9 9 9 9 9 9 9 9 9 9 9 9 9 9 9 9 9 9 9 9 9 9 9 9 9 9 9 9 9 9 9 9 9 9 9 9 9 9 9 9 9 9 9 9 9 9 9 9 9 9 9 9 9 9 9 9 9 9 9 9 9 9 9 9 9 9 9 9 9 9 9 9 9 9 9 9 9 9 9 9 9 9 9 9 9 9 9 9 9 9 < < < < < < < : : : % % % % % % % % % % % % % % $ $ $ $ $ $ $ $ $ $ $ $ % % % % % % % % & & & & & & & & & : : : : : : : : : : : : : : : : : & : : : : & : : : : & & : : : : : : : : & $ $ S ` ` ' ' ' ' ' ' ' [ [ [ [ [ [ _ n n n n n n n n n n n n n n n n n n n n A A A  . . . . .o.o.o.B.B.B.B.B.V.B.V.C.C.C.C.C.C.C.C.F.F.F.F.F.F.F.F.F.F.F.F.F.F.N.N.N.N.l l l l k k k d d d d d d d d d d d a a a a a a a a a a a a a a a a 5.5.5.G.G.G.G.T.T.T.[.T.T.~._.G.G.V.V.V.V.V.V.V.V.V.V.V.V.V.V.V.V.V.V.V.V.N.N.N.V.V.V.V.V.V.V.V.V.V.V.V.V.V.V.F.F.F.H.H.H.H.H.H.H.H.H.H.H.H.H.H.H.H.H.H.H.H.H.H.H.H.H.H.H.H.H.H.H.H.H.H.H.H.H.H.H.H.H.H.H.H.H.H.H.H.H.H.H.H.H.H.H.H.H.H.H.H.H.H.H.V.V.V.N.N.N.k k k d d d V.|.H.H.H.H.H.H.H.H.H.V.a a a a N.F.F.F.F.o.n n K L L L L L L L L L L L L L L L L L L L L L L L Y M n n [ [ [ [ [ [ [ [ [ [ [ [ [ [ [ [ [ [ [ [ [ [ [ [ [ [ [ [ [ [ [ [ [ [ [ [ [ [ [ [ [ [ [ [ [ [ [ ` Y Y Y Y Y Y <.O O 9 < $ $ $ % & & & & & & & & & & & & & & & & & & & % $ $ <.-X,X,X,X,X-X<.$ $ % & & & & & & & & & & & & & & & & & & & & & & & & & & & & & & & & & & & & % $ $ q -X,X,X,X<.$ $ % & > > > > : : > > > : : : : : > > > > : : : > : > : : : > > > > > : > > > % $ $ <.,X,X,X,X,X,X,X,X=X<.$ $ % % & : > > > > > > > > > > > : : : > > & % % $ $ <.*X-X,X,X,X,X,X,X4X0X0X0X0X0X0X0X0X9X2X;XY.r r r $ $ $ $ q q <.<.*X=X-X,X,X,X,X",
"9 9 9 9 9 9 9 9 9 9 9 9 9 9 9 9 9 9 9 9 9 9 9 9 9 9 9 9 9 9 9 9 9 9 9 9 9 9 9 9 9 9 9 9 9 9 9 9 9 9 9 9 9 9 9 9 9 9 9 9 9 9 9 9 9 9 9 9 9 9 9 9 9 9 9 9 9 9 9 9 9 9 9 9 9 9 9 9 9 9 9 9 9 9 9 9 9 9 9 9 9 9 9 9 9 9 9 9 9 9 < < < < < < < : : : % % % % % % % % % % % % % % $ $ $ $ $ $ $ $ $ $ $ $ % % % % % % % % & & & & & & & & & : : : : : : : : : : : : : : : : : : : : & : : : : : : : : : & & : : : : & : : : : & : : : : : : : : : % $ = ' [ [ [ [ [ [ [ [ [ [ [ [ [ [ [ P n n n n A A A A  . . . .o.o.o.o.B.B.B.B.V.V.V.C.C.C.C.C.C.C.C.F.F.F.F.F.F.F.F.F.F.F.F.F.F.F.F.N.N.N.l l l l l k k k d d d d d d d a d d d a a a a a a a a a a a a a a d d d d d N.k k k Z.Z.Z.G.G.G.G.G.N.N.V.V.V.V.V.V.V.V.V.V.V.V.V.V.V.V.V.V.V.V.V.V.V.N.V.V.V.V.V.V.V.V.V.V.N.N.V.V.F.F.F.F.F.F.F.H.H.H.H.H.H.H.H.H.H.H.H.H.H.H.H.H.H.H.H.H.H.H.H.H.H.H.H.H.H.H.H.H.H.H.H.H.H.H.H.H.H.H.H.H.H.H.H.H.H.H.H.H.H.H.H.H.H.H.H.H.H.V.V.N.N.N.N.k k d d d d d d d d d a a a a a a l |.).H.H.H.H.H.H.H.H.V.a a a a N.F.F.F.F.o.n n K L L L L L L L L L L L L L L L L L U Y Y Y Y Y Y N n n [ [ [ [ [ [ [ [ [ [ [ [ [ [ [ [ [ [ [ [ [ [ [ [ [ [ [ [ [ [ [ [ [ [ [ [ [ [ [ [ [ [ [ [ [ [ [ [ Y Y Y Y Y Y <.O O 9 9 < & $ $ % & & & & & & & & & & & & & & & & % % $ q U.-X,X,X,X,X,X,X-X<.$ $ % & & & & & & & & & & & & & & & & & & & & & & & & & & & & & & & & & & % $ $ q =X,X,X,X,X-X<.$ $ % & > > > > > > > > : : : : > > > > : : > : > > > > : : > > > > : : > > % $ $ <.-X,X,X,X,X,X,X,X,X,X-XU.q $ $ % % % : : > > > > > > > > : : & & % % $ $ $ <.-X,X,X,X,X,X,X,X2X0X0X0X0X0X0X0X0X0X0X0X0X9X2X2X2X;X;X;X;X=X=X-X-X,X,X,X,X,X,X,X",
"9 9 9 9 9 9 9 9 9 9 9 9 9 9 9 9 9 9 9 9 9 9 9 9 9 9 9 9 9 9 9 9 9 9 9 9 9 9 9 9 9 9 9 9 9 9 9 9 9 9 9 9 9 9 9 9 9 9 9 9 9 9 9 9 9 9 9 9 9 9 9 9 9 9 9 9 9 9 9 9 9 9 9 9 9 9 9 9 9 9 9 9 9 9 9 9 < < < < < < < : : : % % % % % % % % % % % % $ % $ $ $ $ $ $ $ $ $ $ $ $ $ % % % % % % % & & & & & & & & & : : : : : & & : : : : : : : : & : : : : : : : : : : : : : : : : : : & & & : : & & : : : : : : : : : & & & : : : : : : : : : : : & % % - [ [ [ [ [ [ [ [ [ [ [ [ [ [ [ [ P n n B.B.V.V.V.V.C.C.C.C.C.C.C.C.F.F.F.F.F.F.F.F.F.F.F.F.F.F.F.F.F.N.N.N.l l l l k k k d d d d d d d d d d d d a a a a a a a a a a a a a a d d d k k k k l l l N.N.N.N.N.N.N.N.N.V.N.N.N.V.V.V.V.V.V.V.V.V.V.V.V.V.V.V.V.V.V.V.V.V.V.V.V.V.V.V.V.V.V.V.N.V.V.V.V.F.F.F.F.F.F.H.H.H.H.H.H.H.H.H.H.H.H.H.H.H.H.H.H.H.H.H.H.H.H.H.H.H.H.H.H.H.H.H.H.H.H.H.H.H.H.H.H.H.H.H.H.H.H.H.H.H.H.H.H.H.H.H.H.H.H.H.H.H.V.V.N.N.N.N.k k k d d d d d d d d d a a a a a a a a a a a a a a 5.a a l |.).H.H.H.H.H.H.H.H.N.a a a a N.F.F.F.F.o.n n K L L L L L L L U U U Y Y Y Y Y Y Y Y Y Y Y Y Y Y N n n [ [ [ [ [ [ [ [ [ [ [ [ [ [ [ [ [ [ [ [ [ [ [ [ [ [ [ [ [ [ [ [ [ [ [ [ [ [ [ [ [ [ [ [ [ [ [ [ Y Y Y Y Y Y <.O O 9 9 9 9 > $ $ % % & & % % % % % % % % % % % % $ $ <.=X,X,X,X,X,X,X,X,X,X-X<.$ $ % & & & & & & & & & & & & & & & & & & & & & & & & & & & & & & & & % $ $ $ U.,X,X,X,X,X,X-XU.$ $ % % : > > > > > > > > > > > > > > > > > > > > > > : > > > > > : : > & $ $ q -X,X,X,X,X,X,X,X,X,X,X,X,X=XU.q $ $ $ % $ % % & & & : : & & $ % % $ $ $ <.*X-X,X,X,X,X,X,X,X2X0X0X0X0X0X0X0X0X0X0X0X0X0X0X0X0X0X0X0X9X<X,X,X,X,X,X,X,X,X,X,X,X",
"9 9 9 9 9 9 9 9 9 9 9 9 9 9 9 9 9 9 9 9 9 9 9 9 9 9 9 9 9 9 9 9 9 9 9 9 9 9 9 9 9 9 9 9 9 9 9 9 9 9 9 9 9 9 9 9 9 9 9 9 9 9 9 9 9 9 9 9 9 9 9 9 9 9 9 9 9 9 9 9 9 9 < < < < < < < : : : % % % % % % % % % % % % % % $ $ $ $ $ $ $ $ $ $ $ $ $ % % % % % % % & & & & & & & & & & : : : : : : : : : : : : : : : : : : : & : : : : : : : : & & & : : : : : : : : : & & & : : : : : & : : : & & : : : : : : : : : : : & : : : : : : : : : : : % $ $ S [ [ [ [ [ [ [ [ [ [ [ [ [ [ [ [ P n n F.F.F.F.F.F.F.F.F.F.F.F.F.F.F.F.N.N.N.N.l l l l j j j d d d d d d d d d d d a a a a a a a a a a a a a a a d d d k k k k l l l N.N.N.N.N.N.N.N.N.N.N.N.N.N.V.V.V.V.V.N.N.V.V.V.V.V.V.V.V.V.V.V.V.V.V.V.V.B.V.V.V.V.V.V.V.V.V.V.V.V.F.F.F.F.F.F.H.H.H.H.H.H.H.H.H.H.H.H.H.H.H.H.H.H.H.H.H.H.H.H.H.H.H.H.H.H.H.H.H.H.H.H.H.H.H.H.H.H.H.H.H.H.H.H.H.H.H.H.H.H.H.H.H.H.H.H.H.H.H.H.V.V.V.N.N.N.N.k k d d d d d d d d d a a a a a a a a a a a a a a 5.5.G.G.G.G.[.[.9XhX9X9XhX5.a l |.`.H.H.H.H.H.H.H.H.N.a a a a N.F.F.F.F.o.n n K L L L L L Y Y Y Y Y Y Y Y Y Y Y Y Y Y Y Y Y Y Y N n n [ [ [ [ [ [ [ [ [ [ [ [ [ [ [ [ [ [ [ [ [ [ [ [ [ [ [ [ [ [ [ [ [ [ [ [ [ [ [ [ [ [ [ [ [ [ [ [ Y Y Y Y Y Y <.O O 9 9 9 9 9 : O # $ % % $ $ $ $ $ $ $ $ $ $ q <.U.*X-X,X,X,X,X,X,X,X,X,X,X,X-X<.$ $ % % & & & & & & & & & & & & & & & & & & & & & & & & & & & & & % $ $ $ U.,X,X,X,X,X,X,X,X,XU.q $ $ % % : > : : : > > > > > > > > > > > > > > > > : > > > > > : : & % $ $ =X,X,X,X,X,X,X,X,X,X,X,X,X,X,X,X=XU.q $ $ $ $ $ % % % % % % $ $ $ $ q <.*X-X,X,X,X,X,X,X,X,X,X0X0X0X0X0X0X0X0X0X0X0X0X0X0X0X0X0X0X0X0X<X,X,X,X,X,X,X,X,X,X,X,X,X",
"9 9 9 9 9 9 9 9 9 9 9 9 9 9 9 9 9 9 9 9 9 9 9 9 9 9 9 9 9 9 9 9 9 9 9 9 9 9 9 9 9 9 9 9 9 9 9 9 9 9 9 9 9 9 9 9 9 9 9 9 9 9 9 9 9 9 9 9 < < < < < < < : : : % % % % % % % % % % % % % % $ $ $ $ $ $ $ $ $ $ $ $ $ % % % % % % % & & & & & & & & & & : : : : : : & : : : : : & & : : : : : : & : : : : & : : : : : : : & : : : : : : : : & & : : & & : : : : : : : : : : : : : : & & : : : : : : : : : : : : : : : : : : : : : : : : : : : $ $ = ' [ [ [ [ [ [ [ [ [ [ [ [ [ [ [ [ P n n F.F.F.F.N.l l l l l k k k d d d d d d d d d d d a a a a a a a a a a a a a a a d d d k k k k l l l N.N.N.N.N.N.N.N.N.N.N.N.N.N.V.V.V.V.N.V.V.V.V.V.V.V.V.V.V.V.V.V.V.V.V.V.V.V.V.V.V.V.V.V.F.F.F.F.F.F.F.F.F.F.F.H.H.H.H.H.H.H.H.H.H.H.H.H.H.H.H.H.H.H.H.H.H.H.H.H.H.H.H.H.H.H.H.H.H.H.H.H.H.H.H.H.H.H.H.H.H.H.H.H.H.H.H.H.H.H.H.H.H.H.H.H.H.H.H.H.H.H.H.V.V.N.N.N.N.k k d d d d d d d d d d a a a a a a a a a a a a a 5.5.5.G.G.G.[.[.[.9X9X9XhXhXjXjXjXjXcXcXbXbXbXbXbXw.a l |.|.H.H.H.H.H.H.H.H.N.a a a a N.F.F.F.F.o.n n K L L L L L Y Y Y Y Y Y Y Y Y Y Y Y Y Y Y Y Y Y Y N n n [ [ [ [ [ [ [ [ [ [ [ [ [ [ [ [ [ [ [ [ [ [ [ [ [ [ [ [ [ [ [ [ [ [ [ [ [ [ [ [ [ [ [ [ [ [ [ [ Y Y Y Y Y Y <.O O 9 9 9 9 9 : O O %X%X%X%X%XU.U.U.U.U.U.U.%X=X-X,X,X,X,X,X,X,X,X,X,X,X,X,X,X,X-X<.$ $ $ % & & & & & & & & & & & & & & & & & & & & & & & & & & % % $ $ q %X,X,X,X,X,X,X,X,X,X,X,X=X<.$ $ $ % % : : > > > > > > > > > > > > > > > : : > > > > > > > & % $ $ U.,X,X,X,X,X,X,X,X,X,X,X,X,X,X,X,X,X,X=X%XU.q q $ $ $ $ $ $ $ $ q <.U.=X-X,X,X,X,X,X,X,X,X,X,X9X0X0X0X0X0X0X0X0X0X0X0X0X0X0X0X0X0X0X0X2X,X,X,X,X,X,X,X,X,X,X,X,X,X",
"9 9 9 9 9 9 9 9 9 9 9 9 9 9 9 9 9 9 9 9 9 9 9 9 9 9 9 9 9 9 9 9 9 9 9 9 9 9 9 9 9 9 9 9 9 9 9 9 9 9 9 9 9 9 < < < < < < < : : : % % % % % % % % % % % % % % $ $ $ $ $ $ $ $ $ $ $ $ $ % % % % % % % & & & & & & & & & & : : : : : : : : : : : : : : : : : : : : & & : : : : : & : : : : : : & : : : & & : : : : : : : : & : : : : : : : : & : : & & : : : : & & : : : : : : : : : : : : & & : : : : : : : : : : : : : : : & : : : : : : & $ $ S [ [ [ [ [ [ [ [ [ [ [ [ [ [ [ [ [ P n n F.F.F.N.d d d d d d a a a a a a a a a a a a a a a d d d k k k k l l l N.N.N.N.N.N.N.N.N.N.N.N.N.N.V.V.V.V.V.V.V.V.V.V.V.V.V.V.V.V.V.V.V.V.V.V.V.F.F.F.F.F.F.F.F.F.F.H.H.H.H.H.H.H.H.H.H.H.H.H.H.H.H.H.H.H.H.H.H.H.H.H.H.H.H.H.H.H.H.H.H.H.H.H.H.H.H.H.H.H.H.H.H.H.H.H.H.H.H.H.H.H.H.H.H.H.H.H.H.H.H.H.H.H.H.H.H.H.H.H.H.H.H.H.H.V.V.V.N.N.N.k k k d d d d d d d d d a a a a a a a a a a a a a a 5.5.G.G.G.G.[.[.1X1X1X3X3X3X9X0XjXcXcXcXbXbXbXbXbXbXbXbXbXbXbXbXbXbXbXbXd a l |.|.H.H.H.H.H.H.H.H.N.a a a a N.F.F.F.F.o.n n K L L L L L Y Y Y Y Y Y Y Y Y Y Y Y Y Y Y Y Y Y Y N n n [ [ [ [ [ [ [ [ [ [ [ [ [ [ [ [ [ [ [ [ [ [ [ [ [ [ [ [ [ [ [ [ [ [ [ [ [ [ [ [ [ [ [ [ [ [ [ [ Y Y Y Y Y Y t O O 9 9 9 9 9 : O O ,X,X,X,X,X,X,X,X,X,X,X,X,X,X,X,X,X,X,X,X,X,X,X,X,X,X,X,X,X,X,X-XU.q $ $ % % & & & & & & & & & & & & & & & & & & & & & & % % $ $ $ <.=X,X,X,X,X,X,X,X,X,X,X,X,X,X-XU.q $ $ $ $ % : > : > > > > > : > > : : > > > > > > > > > & % % $ $ U.,X,X,X,X,X,X,X,X,X,X,X,X,X,X,X,X,X,X,X,X,X;X=X=X%X%XU.U.U.U.%X%X=X-X,X,X,X,X,X,X,X,X,X,X,X,X9X0X0X0X0X0X0X0X0X0X0X0X0X0X0X0X0X0X0X0X2X,X,X,X,X,X,X,X,X,X,X,X,X,X,X",
"9 9 9 9 9 9 9 9 9 9 9 9 9 9 9 9 9 9 9 9 9 9 9 9 9 9 9 9 9 9 9 9 9 9 9 9 9 9 9 9 < < < < < < < : : : % % % % % % % % % % % % % % $ $ $ $ $ $ $ $ $ $ $ $ $ % % % % % % % & & & & & & & & & & : : : : : : : : : : : : : : : : : : : : : : : : : : : : : : : : : : : & : : : : : : : : : : : : : : : : : & : : : : : : : : & : : : : : : : : : : : : : : : : : : : : : & & : : : : : : : : : : : : : : : & : : & & : : : : & & : : & : & : % $ $ ' [ [ [ [ [ [ [ [ [ [ [ [ [ [ [ [ [ P n n F.F.F.N.a a a a a a d d d d k k k k l l l N.N.N.N.N.N.N.N.N.N.N.N.N.N.V.V.V.V.V.V.V.V.V.V.V.V.V.V.V.F.F.F.F.F.F.F.F.F.F.F.H.H.H.H.H.H.H.H.H.H.H.H.H.H.H.H.H.H.H.H.H.H.H.H.H.H.H.H.H.H.H.H.H.H.H.H.H.H.H.H.H.H.H.H.H.H.H.H.H.H.H.H.H.H.H.H.H.H.H.H.H.H.H.H.H.H.H.H.H.H.H.H.H.H.H.H.H.H.H.H.H.H.H.H.H.H.H.V.V.V.N.N.N.N.l l d d d d d d d d d d d a a a a a a a a a a a a 5.5.G.G.G.G.[.[.1X1X1X1X3X3X9X9X9X9X0X0X0X0X0X0X0X0X0XcXbXbXbXbXbXbXbXbXbXbXbXbXbXbXbXbXbXbXbXbXa a l |.|.).H.H.H.H.H.H.H.N.a a a a N.F.F.F.F.o.n n K L L L L L U Y Y Y Y Y Y Y Y Y Y Y Y Y Y Y Y Y Y N n n [ [ [ [ [ [ [ [ [ [ [ [ [ [ [ [ [ [ [ [ [ [ [ [ [ [ [ [ [ [ [ [ [ [ [ [ [ [ [ [ [ [ [ [ [ [ [ [ Y Y Y Y Y Y t O O 9 9 9 9 9 : O O ,X,X,X,X,X,X,X,X,X,X,X,X,X,X,X,X,X,X,X,X,X,X,X,X,X,X,X,X,X,X,X,X>X=X<.$ $ $ % % & & & & & & & & & & & & & & & & & & % % $ $ $ $ <.-X,X,X,X,X,X,X,X,X,X,X,X,X,X,X,X>X=XU.q $ $ $ % % % & : > > > > > : : : > > > > > > : & % $ $ $ q %X>X,X,X,X,X,X,X,X,X,X,X,X,X,X,X,X,X,X,X,X,X,X,X,X,X,X,X>X>X>X>X,X,X,X,X,X,X,X,X,X,X,X,X,X,X,X4X0X0X0X0X0X0X0X0X0X0X0X0X0X0X0X0X0X0X0X4X,X,X,X,X,X,X,X,X,X,X,X,X,X,X,X",
"9 9 9 9 9 9 9 9 9 9 9 9 9 9 9 9 9 9 9 9 9 9 9 9 9 9 < < < < < < < : : : % % % % % % % % % % % % % % $ $ $ $ $ $ $ $ $ $ $ $ $ % % % % % % % & & & & & & & & & & : : : : : : : : : : : : : : : : : : : : : : : : : : : : : : & & : : : : : : : : & : : : : : : : : : : : : : : : : : : : : : & & : : : : : : : : : : : : : & : : : : : : : : : : : : : : : : : : : : : & & : : : : : : : : : : : : : & & : : : & & : : : : : : : : & : % $ $ 7 [ [ [ [ [ [ [ [ [ [ [ [ [ [ [ [ [ [ P n n F.F.F.N.a a d N.N.N.N.N.N.N.N.N.N.N.N.N.N.V.V.V.V.V.V.V.V.F.F.F.F.F.F.F.F.F.F.F.H.H.H.H.H.H.H.H.H.H.H.H.H.H.H.H.H.H.H.H.H.H.H.H.H.H.H.H.H.H.H.H.H.H.H.H.H.H.H.H.H.H.H.H.H.H.H.H.H.H.H.H.H.H.H.H.H.H.H.H.H.H.H.H.H.H.H.H.H.H.H.H.H.H.H.H.H.H.H.H.H.H.H.H.H.H.H.H.H.H.H.H.H.H.H.H.H.V.V.N.N.N.N.l l d d d d d d d d d d d d a a a a a a a a a a a l l 5.G.G.G.[.[.[.1X1X1X3X3X9X9X9X9X0X0X0X0X0X0X0X0X0X0X0X0X0X0X0X0X0X0X0X0XcXbXbXbXbXbXbXbXbXbXbXbXbXbXbXbXbXbXbXbXbXbXa a l |.|.).H.H.H.H.H.H.H.N.a a a a V.F.F.F.F...n n K L L L L L L Y Y Y Y Y Y Y Y Y Y Y Y Y Y Y Y Y Y N n n [ [ [ [ [ [ [ [ [ [ [ [ [ [ [ [ [ [ [ [ [ [ [ [ [ [ [ [ [ [ [ [ [ [ [ [ [ [ [ [ [ [ [ [ [ [ [ [ Y Y Y Y Y Y t O O 9 9 9 9 9 : O O ,X,X,X,X,X,X,X,X,X,X,X,X,X,X,X,X,X,X,X,X,X,X,X,X,X,X,X,X,X,X,X,X,X,X-XU.q $ $ $ % % % & & & & & & & & & & % % % % % $ $ $ $ <.%X-X,X,X,X,X,X,X,X,X,X,X,X,X,X,X,X,X,X,X>X=XU.q $ $ $ $ $ % % % % % & & & & & & & % % % % % $ $ $ <.=X,X,X,X,X,X,X,X,X,X,X,X,X,X,X,X,X,X,X,X,X,X,X,X,X,X,X,X,X,X,X,X,X,X,X,X,X,X,X,X,X,X,X,X,X,X,X4X0X0X0X0X0X0X0X0X0X0X0X0X0X0X0X0X0X0X0X4X<X,X,X,X,X,X,X,X,X,X,X,X,X,X,X,X",
"9 9 9 9 9 9 9 9 9 9 9 9 < < < < < < < : : : % % % % % % % % % % % % % % $ $ $ $ $ $ $ $ $ $ $ $ $ % % % % % % % & & & & & & & & & & & & & & : : : : : : : & : : : : : : : : : : : : : : & : & : : : : : : : : : : : : & : : : & : : : : : : : : : : : : & & : : : : : : : & : : : : & & : : : : : : : : : : : : : & & : : : : : : : : : & & : : : : & : : : : : & & : : : : & : : : : : : : : : : : & & : : : : : : : : : : : : : : : % $ $ ` [ [ [ [ [ [ [ [ [ [ [ [ [ [ [ [ [ [ P n n F.F.F.N.a a k V.V.V.F.F.F.F.F.F.F.F.F.H.H.H.H.H.H.H.H.H.H.H.H.H.H.H.H.H.H.H.H.H.H.H.H.H.H.H.H.H.H.H.H.H.H.H.H.H.H.H.H.H.H.H.H.H.H.H.H.H.H.H.H.H.H.H.H.H.H.H.H.H.H.H.H.H.H.H.H.H.H.H.H.H.H.H.H.H.H.H.H.H.H.H.H.H.H.H.H.H.H.H.H.H.H.H.H.H.H.H.H.H.H.H.H.H.H.V.V.V.N.N.N.l l l d d d d d d d d d a d a a a a a a a a a a a a 5.5.G.G.G.G.[.[.1X1X1X3X3X3X9X9X9X0X0X0X0X0X0X0X0X0X0X0X0X0X0X0X0X0X0X0X0X0X0X0X0X0X0X0X0X0X0X0XcXbXbXbXbXbXbXbXbXbXbXbXbXbXbXbXbXbXbXbXbXbXbXa a l |.|.).H.H.H.H.H.H.H.N.a a a a F.F.F.F.F. .n n K L L L L L L Y Y Y Y Y Y Y Y Y Y Y Y Y Y Y Y Y Y N n n [ [ [ [ [ [ [ [ [ [ [ [ [ [ [ [ [ [ [ [ [ [ [ [ [ [ [ [ [ [ [ [ [ [ [ [ [ [ [ [ [ [ [ [ [ [ [ [ Y Y ~ ~ ~ ~ t O O 9 9 9 9 9 : O O ,X,X,X,X,X,X,X,X,X,X,X,X,X,X,X,X,X,X,X,X,X,X,X,X,X,X,X,X,X,X,X,X,X,X,X>X=XL.q $ $ $ $ % % % % % % % % % % $ $ $ $ $ $ $ <.%X-X,X,X,X,X,X,X,X,X,X,X,X,X,X,X,X,X,X,X,X,X,X,X>X=X%XL.q $ $ $ $ $ $ $ % % % % % % % $ $ $ $ $ $ <.%X-X,X,X,X,X,X,X,X,X,X,X,X,X,X,X,X,X,X,X,X,X,X,X,X,X,X,X,X,X,X,X,X,X,X,X,X,X,X,X,X,X,X,X,X,X,X,X4X0X0X0X0X0X0X0X0X0X0X0X0X0X0X0X0X0X0X0X4X,X,X,X,X,X,X,X,X,X,X,X,X,X,X,X,X,X",
"< < < < < : : : % % % % % % % % % % % % % % $ $ $ $ $ $ $ $ $ $ $ $ $ % % % % % % % & & & & & & & & & & & & & & & & : : : : : : : : : : : : : : : : : : : & : : : & : : : : : : & : : : : & : : : : : : : : : : : : & & : : : : : : : : : : : : : : : : & & : : : : : : & & : : : : : & : : : : : : : : : : : : : & : : : : : : : : : : & : : : : : & & : : : : & : : : : : & & : : : : : : : : : : & & : : : : : : : : & & : : : : % $ $ 7 [ [ [ [ [ [ [ [ [ [ [ [ [ [ [ [ [ [ [ P n n F.F.F.N.a a l V.V.V.F.H.H.H.H.H.H.H.H.H.H.H.H.H.H.H.H.H.H.H.H.H.H.H.H.H.H.H.H.H.H.H.H.H.H.H.H.H.H.H.H.H.H.H.H.H.H.H.H.H.H.H.H.H.H.H.H.H.H.H.H.H.H.H.H.H.H.H.H.H.H.H.H.H.H.H.H.H.H.H.H.H.H.H.H.H.H.H.H.H.H.H.H.H.H.H.H.H.H.H.H.H.H.H.V.V.N.N.N.N.l l d d d d d d d d d d d d a a a a a a a a a a a 5.5.5.G.G.G.[.[.[.1X1X1X3X3X9X9X9X9X0X0X0X0X0X0X0X0X0X0X0X0X0X0X0X0X0X0X0X0X0X0X0X0X0X0X0X0X0X0X0X0X0X0X0X0X0X0X0X0X0XjXbXbXbXbXbXbXbXbXbXbXbXbXbXbXbXbXbXbXbXbXbXbXbXa a w.|.|.).H.H.H.H.H.H.H.N.a a a a F.F.F.F.F. .n n K L L L L L L Y Y Y Y Y Y Y Y Y Y Y Y Y Y Y Y Y Y N n n [ [ [ [ [ [ [ [ [ [ [ [ [ [ [ [ [ [ [ [ [ [ [ [ [ [ [ [ [ [ [ [ [ [ [ [ [ [ [ [ [ [ [ [ [ [ [ [ Y Y ~ ~ ~ Y t O O 9 9 9 9 9 : O O ,X,X,X,X,X,X,X,X,X,X,X,X,X,X,X,X,X,X,X,X,X,X,X,X,X,X,X,X,X,X,X,X,X,X,X,X,X>X=XL.q q $ $ $ $ $ $ $ $ $ $ $ $ $ $ $ <.<.%X-X,X,X,X,X,X,X,X,X,X,X,X,X,X,X,X,X,X,X,X,X,X,X,X,X,X,X,X>X=X%XL.L.q q $ $ $ $ $ $ $ $ $ $ q <.<.L.%X-X,X,X,X,X,X,X,X,X,X,X,X,X,X,X,X,X,X,X,X,X,X,X,X,X,X,X,X,X,X,X,X,X,X,X,X,X,X,X,X,X,X,X,X,X,X,X,X2X0X0X0X0X0X0X0X0X0X0X0X0X0X0X0X0X0X0X0X9X,X,X,X,X,X,X,X,X,X,X,X,X,X,X,X,X,X,X",
"% % % % % % % % $ $ $ $ $ $ $ $ $ $ $ $ $ % % % % % % % & & & & & & & & & & & & & & : : : : : : : : : : : : : : : : : : : : : : : : : : : : : : : : : : : : : : & & : : : : : & & & : : : : : : : & : : : : & : : : : : : : : : : : : : : : : : : : : : : : : : : : : : : : : : : : : : : : & & : : & & : : : & : : : : & % & : & & : : : : : : : : : : : : : : : : : : : : : : : : : : & & : : : : : : : : : : : : : & & : : : : & $ $ = ` [ [ [ [ [ [ [ [ [ [ [ [ [ [ [ [ [ [ [ P n n F.F.F.N.a a N.V.V.V.F.H.H.H.H.H.H.H.H.H.H.H.H.H.H.H.H.H.H.H.H.H.H.H.H.H.H.H.H.H.H.H.H.H.H.H.H.H.H.H.H.H.H.H.H.H.H.H.H.H.H.H.H.H.H.H.H.H.H.H.H.H.H.H.H.H.H.H.H.H.H.H.H.H.H.H.H.H.H.H.H.H.H.H.H.H.H.H.H.H.H.H.V.V.N.N.N.N.l l d d d d d d d d d d d d a a a a a a a a a a a a 5.5.G.G.G.G.[.[.1X1X1X3X3X3X9X9X9X0X0X0X0X0X0X0X0X0X0X0X0X0X0X0X0X0X0X0X0X0X0X0X0X0X0X0X0X0X0X0X0X0X0X0X0X0X0X0X0X0X0X0X0X0X0X0X0X0X0X0X0X0XcXbXbXbXbXbXbXbXbXbXbXbXbXbXbXbXbXbXbXbXbXbXbXbXa a w.|.|.`.H.H.H.H.H.H.H.N.a a a a F.F.F.F.F. .n n L L L L L L L Y Y Y Y Y Y Y Y Y Y Y Y Y Y Y Y Y Y N n n [ [ [ [ [ [ [ [ [ [ [ [ [ [ [ [ [ [ [ [ [ [ [ [ [ [ [ [ [ [ [ [ [ [ [ [ [ [ [ [ [ [ [ [ [ [ [ [ ` Y Y Y Y Y t O O 9 9 9 9 9 : O O ,X,X,X,X,X,X,X,X,X,X,X,X,X,X,X,X,X,X,X,X,X,X,X,X,X,X,X,X,X,X,X,X,X,X,X,X,X,X,X>X=X=XL.<.<.<.<.L.L.L.L.L.L.P.%X%X%X-X-X,X,X,X,X,X,X,X,X,X,X,X,X,X,X,X,X,X,X,X,X,X,X,X,X,X,X,X,X,X,X,X,X>X>X=X=X%X%X%XP.L.L.%X%X%X%X=X-X-X>X,X,X,X,X,X,X,X,X,X,X,X,X,X,X,X,X,X,X,X,X,X,X,X,X,X,X,X,X,X,X,X,X,X,X,X,X,X,X,X,X,X,X,X,X,X,X,X,X2X0X0X0X0X0X0X0X0X0X0X0X0X0X0X0X0X0X0X0X9X,X,X,X,X,X,X,X,X,X,X,X,X,X,X,X,X,X,X,X",
"$ $ $ $ $ $ $ % % % % % % % & & & & & & & & & & & & & & : : : : : : : : : : : : : : : : : : : : : : : : : : : : : : : : : : : : : : : : & : : : : : : : : : : : & : : : : : & & : & : : : : : : : & : : : & & : : : : : : : : : : : : & & & : : : : : : : : : : : : : & : : : : : : : : : : & : : : : & : : : & : : : : % $ % % : & : : : : : : : : : : & : : : : : : : : : : : & : : : : & : : : : : : : : : : : : : & & : : : : % $ $ S [ [ [ [ [ [ [ [ [ [ [ [ [ [ [ [ [ [ [ [ P n n F.F.F.N.a a N.V.N.V.F.H.H.H.H.H.H.H.H.H.H.H.H.H.H.H.H.H.H.H.H.H.H.H.H.H.H.H.H.H.H.H.H.H.H.H.H.H.H.H.H.H.H.H.H.H.H.H.H.H.H.H.H.H.H.H.H.H.H.H.H.H.H.H.H.H.H.H.H.H.H.H.H.H.H.H.H.H.H.H.V.V.V.N.N.N.l l l d d d d d d d d d d d a a a a a a a a a a a a 5.5.G.G.G.G._._.1X1X1X1X3X3X9X9X9X9X0X0X0X0X0X0X0X0X0X0X0X0X0X0X0X0X0X0X0X0X0X0X0X0X0X0X0X0X0X0X0X0X0X0X0X0X0X0X0X0X0X0X0X0X0X0X0X0X0X0X0X0X0X0X0X0X0X0X0X0X0X0X0XjXbXbXbXbXbXbXbXbXbXbXbXbXbXbXbXbXbXbXbXbXbXbXbXbXa a w.1X|.`.H.H.H.H.H.H.H.N.a a a a F.F.F.F.F. .n n L L L L L L L Y Y Y Y Y Y Y Y Y Y Y Y Y Y Y Y Y Y N n n [ [ [ [ [ [ [ [ [ [ [ [ [ [ [ [ [ [ [ [ [ [ [ [ [ [ [ [ [ [ [ [ [ [ [ [ [ [ [ [ [ [ [ [ [ [ [ [ ` Y Y Y Y Y t O O 9 9 9 9 9 : O O ,X,X,X,X,X,X,X,X,X,X,X,X,X,X,X,X,X,X,X,X,X,X,X,X,X,X,X,X,X,X,X,X,X,X,X,X,X,X,X,X,X,X>X=X=X=X=X>X>X>X>X>X>X,X<X,X,X,X,X,X,X,X,X,X,X,X,X,X,X,X,X,X,X,X,X,X,X,X,X,X,X,X,X,X,X,X,X,X,X,X,X,X,X,X,X,X,X<X,X>X>X,X,X,X,X,X,X,X,X,X,X,X,X,X,X,X,X,X,X,X,X,X,X,X,X,X,X,X,X,X,X,X,X,X,X,X,X,X,X,X,X,X,X,X,X,X,X,X,X,X,X,X,X,X,X,X,X0X0X0X0X0X0X0X0X0X0X0X0X0X0X0X0X0X0X0X0X2X,X,X,X,X,X,X,X,X,X,X,X,X,X,X,X,X,X,X2X",
"& & & & & & & & & & & & & & : : : : : : : : : : : : : : : : : : & & : : : : : : : & & : & & : : : : & & : : : : : : : : : : : : : : : : : & & : & & : : : : & & : : : : : : : : : : : : : : : : : : & & & & : : : : : : : : & : : & : : & & & : : & : : : : & & : : : & & : : : : : : : : : : : : : : : : : & & : : : % $ $ $ $ % & : : : : : : : : : & & : : : : : : : : : : & & : : : & & : : : : : & & : : : : : : & : : : : & % $ 7 ' [ [ [ [ [ [ [ [ [ [ [ [ [ [ [ [ [ [ [ [ P n n F.F.F.N.a a N.V.V.V.F.H.H.H.H.H.H.H.H.H.H.H.H.H.H.H.H.H.H.H.H.H.H.H.H.H.H.H.H.H.H.H.H.H.H.H.H.H.H.H.H.H.H.H.H.H.H.H.H.H.H.H.H.H.H.H.H.H.H.H.H.H.H.H.H.H.H.H.H.V.V.N.N.N.N.l l d d d d d d d d d a a d a a a a a a a a a a a 5.5.5.G.G.G._._._.1X1X1X3X3X9X9X9X9X0X0X0X0X0X0X0X0X0X0X0X0X0X0X0X0X0X0X0X0X0X0X0X0X0X0X0X0X0X0X0X0X0X0X0X0X0X0X0X0X0X0X0X0X0X0X0X0X0X0X0X0X0X0X0X0X0X0X0X0X0X0X0X0X0X0X0X0X0X0X0X0X0X0XjXbXbXbXbXbXbXbXbXbXbXbXbXbXbXbXbXbXbXbXbXbXbXbXbXbXa a w.1X|.`.H.H.H.H.H.H.H.N.a a a a F.F.F.F.F. .n n L L L L L L L Y Y Y Y Y Y Y Y Y Y Y Y Y Y Y Y Y Y N n n [ [ [ [ [ [ [ [ [ [ [ [ [ [ [ [ [ [ [ [ [ [ [ [ [ [ [ [ [ [ [ [ [ [ [ [ [ [ [ [ [ [ [ [ [ [ [ [ ` Y Y Y Y Y t O O 9 9 9 9 9 : O O ,X,X,X,X,X,X,X,X,X,X,X,X,X,X,X,X,X,X,X,X,X,X,X,X,X,X,X,X,X,X,X,X,X,X,X,X,X,X,X,X,X,X,X,X,X,X,X,X<X,X,X,X,X,X,X,X,X,X,X,X,X,X,X,X,X,X,X,X,X,X,X,X,X,X,X,X,X,X,X,X,X,X,X,X,X,X,X<X<X,X,X,X,X,X,X,X,X<X,X,X,X,X,X,X,X,X,X,X,X,X,X,X,X,X,X,X,X,X,X,X,X,X,X,X,X,X,X,X,X,X,X,X,X,X,X,X,X,X,X,X,X,X,X,X,X,X,X,X,X,X,X,X,X,X,X,X4X0X0X0X0X0X0X0X0X0X0X0X0X0X0X0X0X0X0X0X2X,X,X,X,X,X,X,X,X,X2X2X4X4X4X9X9X0X0X0X0X",
": : : : : : : : : : : : : : : : & : : : : : : : : : : : : : : : : & : : : : : : : : & : : & : : : : & & : : : : : : : : : : : & : : : : : : & & : : : : : : & & : : : : : : : : : : : : : : : : : : : : : : : : : : : : : : & & & & : : : : & : : & & : : : : & : : : & & : : : : : & : : : : : : : & & : : : : : : & $ $ & $ $ $ % & : : & : : : : : & & : : : : & : : : : : & & : : : & & : : : : : & & & : : : : : : : : : & % $ = _ [ [ [ [ [ [ [ [ [ [ [ [ [ [ [ [ [ [ [ [ [ P n n F.F.F.N.a a N.V.V.V.V.H.H.H.H.H.H.H.H.H.H.H.H.H.H.H.H.H.H.H.H.H.H.H.H.H.H.H.H.H.H.H.H.H.H.H.H.H.H.H.H.H.H.H.H.H.H.H.H.H.H.H.H.H.H.H.H.V.V.N.N.N.N.l l d d d d d d d d d d d d a a a a a a a a a a a a 5.5.G.G.G.G._._.1X1X1X3X3X3X9X9X9X0X0X0X0X0X0X0X0X0X0X0X0X0X0X0X0X0X0X0X0X0X0X0X0X0X0X0X0X0X0X0X0X0X0X0X0X0X0X0X0X0X0X0X0X0X0X0X0X0X0X0X0X0X0X0X0X0X0X0X0X0X0X0X0X0X0X0X0X0X0X0X0X0X0X0X0X0X0X0X0X0X0X0X0X0X0XcXbXbXbXbXbXbXbXbXbXbXbXbXbXbXbXbXbXbXbXbXbXbXbXbXbXa a T.9X|.`.H.H.H.H.H.H.H.k a a a a F.F.F.F.F. .n n L L L L L L L Y Y Y Y Y Y Y Y Y Y Y Y Y Y Y Y Y Y N n n [ [ [ [ [ [ [ [ [ [ [ [ [ [ [ [ [ [ [ [ [ [ [ [ [ [ [ [ [ [ [ [ [ [ [ [ [ [ [ [ [ [ [ [ [ [ [ [ ` Y Y Y Y Y ; O O 9 9 9 9 9 : O O ,X,X,X,X,X,X,X,X,X,X,X,X,X,X,X,X,X,X,X,X,X,X,X,X,X,X,X,X,X,X,X,X,X,X,X,X,X,X,X,X,X,X,X,X,X,X,X<X<X,X,X,X,X,X,X,X,X,X,X,X,X,X,X,X,X,X,X,X,X,X,X,X,X,X,X,X,X,X,X,X,X,X,X,X,X,X,X,X,X,X,X,X,X,X,X,X,X<X<X,X,X,X,X,X,X,X,X,X,X,X,X,X,X,X,X,X,X,X,X,X,X,X,X,X,X,X,X,X,X,X,X,X,X,X,X,X,X,X,X,X,X,X,X,X,X,X,X,X,X,X,X,X,X,X,X4X0X0X0X0X0X0X0X0X0X0X0X0X0X0X0X0X0X0X0X2X2X2X4X4X4X9X9X0X0X0X0X0X0X0X0X0X0X0X0X0X0X",
": : : : : : : : : : : : : : : : & & : : : : : : : : & & : : : : : : : : : : : : : : : : : : : : : : : : : : : : & & : : : : & & : : : : : : : : : : : : : : & : : : & : : : : : : : : : : : : : : : : : : : : : : : & & : : : : : : : : : : : : : : : : : : : : : : : : & & : : : : & & : : : : : : : & : : : : : & % $ $ : : # $ $ % & & & : : : : & & : : : : & & : : : : & & : : : : : : : : : : : & : : : : : : : : : : : % % % S [ [ [ [ [ [ [ [ [ [ [ [ [ [ [ [ [ [ [ [ [ [ P n n F.F.V.N.a a N.V.V.V.V.H.H.H.H.H.H.H.H.H.H.H.H.H.H.H.H.H.H.H.H.H.H.H.H.H.H.H.H.H.H.H.H.H.H.H.H.H.H.H.H.H.H.H.H.V.V.V.N.N.N.l l l d d d d d d d d d d d a a a a a a a a a a a a 5.5.G.G.G.G._._.1X1X1X1X3X3X9X9X9X9X0X0X0X0X0X0X0X0X0X0X0X0X0X0X0X0X0X0X0X0X0X0X0X0X0X0X0X0X0X0X0X0X0X0X0X0X0X0X0X0X0X0X0X0X0X0X0X0X0X0X0X0X0X0X0X0X0X0X0X0X0X0X0X0X0X0X0X0X0X0X0X0X0X0X0X0X0X0X0X0X0X0X0X0X0X0X0X0X0X0X0X0X0X0X0X0XjXbXbXbXbXbXbXbXbXbXbXbXbXbXbXbXbXbXbXbXbXbXbXbXbXbXbXa a T.dX|.`.H.H.H.H.H.H.H.j a a a a F.F.F.F.F. .n n L L L L L L L Y Y Y Y Y Y Y Y Y Y Y Y Y Y Y Y Y Y N n n [ [ [ [ [ [ [ [ [ [ [ [ [ [ [ [ [ [ [ [ [ [ [ [ [ [ [ [ [ [ [ [ [ [ [ [ [ [ [ [ [ [ [ [ [ ' [ [ ` Y Y Y Y Y ; O O 9 9 9 9 9 : O O ,X,X,X,X,X,X,X,X,X,X,X,X,X,X,X,X,X,X,X,X,X,X,X,X,X,X,X,X,X,X,X,X,X,X,X,X,X,X,X,X,X,X,X,X,X,X,X<X<X,X,X,X,X,X,X,X,X,X,X,X,X,X,X,X,X,X,X,X,X,X,X,X,X,X,X,X,X,X,X,X,X,X,X,X,X,X,X,X,X,X,X,X,X,X,X,X,X,X,X,X,X,X,X,X,X,X,X,X,X,X,X,X,X,X,X,X,X,X,X,X,X,X,X,X,X,X,X,X,X,X,X,X,X,X,X,X,X,X,X,X,X,X,X,X,X,X,X,X,X,X,X,X,X,X4X0X0X0X0X0X0X0X0X0X0X0XjXjXjXjXjXcXcXbXjX0X0X0X0X0X0X0X0X0X0X0X0X0X0X0X0X0X0X0X0X0X0X",
": : : : : : : : : : : : & : : : : & : : : : : : : : & : : : : & : : : : : : : : : : : : : : : : : : : : : : : : & : : : : : : : : & & : : : : : : : : : : : : : : & & : : : & & & : : : : : & & : : : : : : : : : : & & : : : : : : : : : : : : : : : : : : : : : : : : : : : : : : : : : : : & : : : : : : : : & & $ $ # O O O # $ $ % & : : : : : : : : : : : : : : : : : : : : : : : : : : : : : : : : : : : : : : : : & % % % 7 ' [ [ [ [ [ [ [ [ [ [ [ [ [ [ [ [ [ [ [ [ [ [ P n n F.F.V.N.a a N.V.V.V.V.H.H.H.H.H.H.H.H.H.H.H.H.H.H.H.H.H.H.H.H.H.H.H.H.H.H.H.H.H.H.H.H.H.V.V.N.N.N.N.l l d d d d d d d d d d d d a a a a a a a a a a a 5.5.5.G.G.G._._._.1X1X1X3X3X9X9X9X9X0X0X0X0X0X0X0X0X0X0X0X0X0X0X0X0X0X0X0X0X0X0X0X0X0X0X0X0X0X0X0X0X0X0X0X0X0X0X0X0X0X0X0X0X0X0X0X0X0X0X0X0X0X0X0X0X0X0X0X0X0X0X0X0X0X0X0X0X0X0X0X0X0X0X0X0X0X0X0X0X0X0X0X0X0X0X0X0X0X0X0X0X0X0X0X0X0X0X0X0X0X0X0X0X0X0X0XjXbXbXbXbXbXbXbXbXbXbXbXbXbXbXbXbXbXbXbXbXbXbXbXbXbXbXbXa a T.dX|.|.H.H.H.H.H.H.H.j a a a a F.F.F.F.F. .n n L L L L L L L Y Y Y Y Y Y Y Y Y Y Y Y Y Y Y Y Y Y N n n [ [ [ [ [ [ [ [ [ [ [ [ [ [ [ [ [ [ [ [ [ [ [ [ [ [ [ [ [ [ [ [ [ [ [ [ [ [ [ [ [ [ [ [ [ [ [ [ ` Y Y Y Y Y ; O O 9 9 9 9 9 : O O ,X,X,X,X,X,X,X,X,X,X,X,X,X,X,X,X,X,X,X,X,X,X,X,X,X,X,X,X,X,X,X,X,X,X,X,X,X,X,X,X,X,X,X,X,X,X,X,X,X,X,X,X,X,X,X,X,X,X,X,X,X,X,X,X,X,X,X,X,X,X,X,X,X,X,X,X,X,X,X,X,X,X,X,X,X,X,X,X,X,X,X,X,X,X,X,X,X,X,X,X,X,X,X,X,X,X<X,X,X,X,X,X,X,X,X,X,X,X,X,X,X,X,X,X,X,X,X,X,X,X,X,X,X,X,X,X,X,X,X,X,X,X,X,X,X,X,X,X,X,X,X,X,X4X0X0XjXjXjXjXjXcXcXcXcXbXbXbXbXbXbXbXbXcXjX0X0X0X0X0X0X0X0X0X0X0X0X0X0X0X0X0X0X0X0X0X0X",
": : : : : : : : & & : : : : & & & & & : : : : & & : : : : : : & : : : : : : : : : : : : : : : : : : : : : : : : : : : : : : : : : : & & & : : : : : : : : : : : : : : : : : : : : : : & : & % % & : : : & & : : : : : : : : : : : : & & : : : & & : : : : & : : : : : : & & : : : : & & : : : & : : : & : : : : & % $ $ O O O O O # $ $ % & : : : : : : & : : : : : : : : : : : : : : : : : : : : : : : : : : & & & : : : % $ $ 7 _ [ [ [ [ [ [ [ [ [ [ [ [ [ [ [ [ [ [ [ [ [ [ [ P n n F.F.F.N.a a o.V.V.V.N.H.H.H.H.H.H.H.H.H.H.H.H.H.H.H.H.H.H.H.H.H.V.V.N.N.N.N.l l d d d d d d d d d d a a a a a a a a a a a a a a 5.5.G.G.G.G.[._.1X1X1X3X3X3X9X9X9X0X0X0X0X0X0X0X0X0X0X0X0X0X0X0X0X0X0X0X0X0X0X0X0X0X0X0X0X0X0X0X0X0X0X0X0X0X0X0X0X0X0X0X0X0X0X0X0X0X0X0X0X0X0X0X0X0X0X0X0X0X0X0X0X0X0X0X0X0X0X0X0X0X0X0X0X0X0X0X0X0X0X0X0X0X0X0X0X0X0X0X0X0X0X0X0X0X0X0X0X0X0X0X0X0X0X0X0X0X0X0X0X0X0X0X0X0X0XjXbXbXbXbXbXbXbXbXbXbXbXbXbXbXbXbXbXbXbXbXbXbXbXbXbXbXbX1Xa a T.1X|.|.H.H.H.H.H.H.H.j a a a a F.F.F.F.F. .n n L L L L L L L Y Y Y Y Y Y Y Y Y Y Y Y Y Y Y Y Y Y N n n [ [ [ [ [ [ [ [ [ [ [ [ [ [ [ [ [ [ [ [ [ [ [ [ [ [ [ [ [ [ [ [ [ [ [ [ [ [ [ [ [ [ [ [ [ [ [ [ ` Y Y Y Y Y ; O O 9 9 9 9 9 : O O ,X,X,X,X,X,X,X,X,X,X,X,X,X,X,X,X,X,X,X,X,X,X,X,X,X,X,X,X,X,X,X,X,X,X,X,X,X,X,X,X,X,X,X,X,X,X,X,X,X,X,X,X,X,X,X,X,X,X,X,X,X,X,X,X,X,X,X,X,X,X,X,X,X,X,X,X,X,X,X,X,X,X,X,X,X,X,X,X,X,X,X,X,X,X,X,X,X,X,X,X,X,X,X,X,X,X,X,X,X,X,X,X,X,X,X,X,X,X,X,X,X,X,X,X,X,X,X,X,X,X,X,X,X,X,X,X,X,X,X,X,X,X,X,X,X2X2X4X4X4X4X9X0XcXbXbXbXbXbXbXbXbXbXbXbXbXbXbXbXbXbXbXcXjX0X0X0X0X0X0X0X0X0X0X0X0X0X0X0X0X0X0X0X0X0X0X0X",
": : & & : : : : & & : : : : : & : : & & : : : : : : : : : : & & : : : : : : : : : : : : : : : : : : : : : : : : : : : : : : : : : : & : : : : : : : : : : : : : : : : : : : : : : : : : & $ $ $ % : : : & : : : : : : : : : : : : : : & : : : & : : : : & & : : : : : : & & : : : : : & : : & & : : : & : : : : % $ $ <.:.:.i.i.i.%X<.$ $ % % & : : : : : : : : : : : : : : : : : : : : : : : : : : & & : : : : : : : : % $ $ 7 _ [ [ [ [ [ [ [ [ [ [ [ [ [ [ [ [ [ [ [ [ [ [ [ [ P n n F.F.F.N.a a w.V.V.V.V.H.H.H.H.H.H.H.H.H.H.H.V.N.N.N.k l l d d d d d d d d d d d a a a a a a a a a a a a 5.5.5.G.G.G.^._.^.1X1X1X3X3X9X9X9X9X0X0X0X0X0X0X0X0X0X0X0X0X0X0X0X0X0X0X0X0X0X0X0X0X0X0X0X0X0X0X0X0X0X0X0X0X0X0X0X0X0X0X0X0X0X0X0X0X0X0X0X0X0X0X0X0X0X0X0X0X0X0X0X0X0X0X0X0X0X0X0X0X0X0X0X0X0X0X0X0X0X0X0X0X0X0X0X0X0X0X0X0X0X0X0X0X0X0X0X0X0X0X0X0X0X0X0X0X0X0X0X0X0X0X0X0X0X0X0X0X0X0X0X0X0X0X0X0X0XcXbXbXbXbXbXbXbXbXbXbXbXbXbXbXbXbXbXbXbXbXbXbXbXbXbXbXbX;Xa a T.1X|.|.H.H.H.H.H.H.H.j a a a a F.F.F.F.F. .n n L L L L L L L L Y Y Y Y Y Y Y Y Y Y Y Y Y Y Y Y Y N n n [ [ [ [ [ [ [ [ [ [ [ [ [ [ [ [ [ [ [ [ [ [ [ [ [ [ [ [ [ [ [ [ [ [ [ [ [ [ [ [ [ [ [ [ [ [ [ [ ` Y Y Y Y Y ; O O 9 9 9 9 9 : O O ,X,X,X,X,X,X,X,X,X,X,X,X,X,X,X,X,X,X,X,X,X,X,X,X,X,X,X,X,X,X,X,X,X,X,X,X,X,X,X,X,X,X,X,X,X,X,X,X,X,X,X,X,X,X,X,X,X,X,X,X,X,X,X,X,X,X,X,X,X,X,X,X,X,X,X,X,X,X,X,X,X,X,X,X,X,X,X,X,X,X,X,X,X,X,X,X,X,X,X,X,X,X,X,X,X,X,X,X,X,X,X,X,X,X,X,X,X,X,X,X,X,X,X,X,X,X,X,X,X,X,X,X,X,X,X2X2X4X4X4X4X9X9X0X0X0X0X0X0X0X0XjXbXbXbXbXbXbXbXbXbXbXbXbXbXbXbXbXbXbXbXcXjX0X0X0X0X0X0X0X0X0X0X0X0X0X0X0X0X0X0X0X0X0X0X0X0X",
": : & & : : : : : : : : : : : : : : : : : : : : : : : : : : : : & & : : : : & : : & & : : : : & : : & : : & : : : : & & : : : & : : : : : : : : : : & & : & : : : : & : : & : : : : : : % $ $ $ $ & : : : : : : : : : : : : : : : : : : : : : : : : : : : : : : : : : : : : : : : : : : : : : : : : & : : : : & $ $ <.=X=X=X>X>X>X,X=XL.$ $ $ % & : : : & : : : : & & : : : : : : : & & : & : : : : & : : : : : : : & % $ $ 7 _ [ [ [ [ [ [ [ [ [ [ [ [ [ [ [ [ [ [ [ [ [ [ [ [ [ P n n F.F.F.N.a a w.V.V.V.V.H.H.H.H.H.H.H.H.H.H.d d d d d d d a a a a a a a a a a a a 5.5.5.G.G.G.G.^.^.1X1X1X3X3X3X9X9X9X0X0X0X0X0X0X0X0X0X0X0X0X0X0X0X0X0X0X0X0X0X0X0X0X0X0X0X0X0X0X0X0X0X0X0X0X0X0X0X0X0X0X0X0X0X0X0X0X0X0X0X0X0X0X0X0X0X0X0X0X0X0X0X0X0X0X0X0X0X0X0X0X0X0X0X0X0X0X0X0X0X0X0X0X0X0X0X0X0X0X0X0X0X0X0X0X0X0X0X0X0X0X0X0X0X0X0X0X0X0X0X0X0X0X0X0X0X0X0X0X0X0X0X0X0X0X0X0X0X0X0X0X0X0X0X0X0X0X0X0XjXbXbXbXbXbXbXbXbXbXbXbXbXbXbXbXbXbXbXbXbXbXbXbXbXbXbXbXbX;Xa a T.1X|.|.H.H.H.H.H.H.H.j a a a a F.F.F.F.F. .n n L L L L L L L U Y Y Y Y Y Y Y Y Y Y Y Y Y Y Y Y Y N n n [ [ [ [ [ [ [ [ [ [ [ [ [ [ [ [ [ [ [ [ [ [ [ [ [ [ [ [ [ [ [ [ [ [ [ [ [ [ [ [ [ [ [ [ [ [ [ [ ` Y Y Y Y Y ; O O 9 9 9 9 9 : O O ,X,X,X,X,X,X,X,X,X,X,X,X,X,X,X,X,X,X,X,X,X,X,X,X,X,X,X,X,X,X,X,X,X,X,X,X,X,X,X,X,X,X,X,X,X,X,X,X,X,X,X,X,X,X,X,X,X,X,X,X,X,X,X,X,X,X,X,X,X,X,X,X,X,X,X,X,X,X,X,X,X,X,X,X,X,X,X,X,X,X,X,X,X,X,X,X,X,X,X,X,X,X,X,X,X,X,X,X,X,X,X,X,X,X,X,X,X,X,X,X,X,X,X,X,X2X2X4X4X4X4X9X9X0X0X0X0X0X0X0X0X0X0X0X0X0X0X0X0X0XjXbXbXbXbXbXbXbXbXbXbXbXbXbXbXbXbXbXbXbXcXjX0X0X0X0X0X0X0X0X0X0X0X0X0X0X0X0X0X0X0X0X0X0X0X0X0X",
": : : : : : : : : : : : : : : : : : : : : : : & % & : : : : : : : & & : : & & : & & : : : : & & : & & : & & : : : : : & : : : & : : : : : : : : : & & : & & : : : : & & : & & : : : : & $ $ & % $ $ & : : : : : : : : & & : : : : : : : : : : : : : : : : : : : : : : : : : : : : : : : : : : : : : : : : : & % $ q =X,X,X,X,X,X,X,X,X>X%Xq $ $ % % & : & : : : : & & : : & & & & & & : : & : : : : : : : : : : : & % $ $ 7 _ [ [ [ [ [ [ [ [ [ [ [ [ [ [ [ [ [ [ [ [ [ [ [ [ [ [ P n n F.F.F.N.a a N.V.V.V.V.H.H.H.H.H.H.H.H.H.V.a a a a a a a a l 5.G.G.G.G.^.^.1X1X1X3X3X3X9X9X9X9X0X0X0X0X0X0X0X0X0X0X0X0X0X0X0X0X0X0X0X0X0X0X0X0X0X0X0X0X0X0X0X0X0X0X0X0X0X0X0X0X0X0X0X0X0X0X0X0X0X0X0X0X0X0X0X0X0X0X0X0X0X0X0X0X0X0X0X0X0X0X0X0X0X0X0X0X0X0X0X0X0X0X0X0X0X0X0X0X0X0X0X0X0X0X0X0X0X0X0X0X0X0X0X0X0X0X0X0X0X0X0X0X0X0X0X0X0X0X0X0X0X0X0X0X0X0X0X0X0X0X0X0X0X0X0X0X0X0X0X0X0X0X0X0X0X0X0X0X0X0XjXbXbXbXbXbXbXbXbXbXbXbXbXbXbXbXbXbXbXbXbXbXbXbXbXbXbXbXbXbX;Xa a T.1X|.`.H.H.H.H.H.H.H.j a a a a F.F.F.F.F. .n n L L L L L L L L Y Y Y Y Y Y Y Y Y Y Y Y Y Y Y Y Y N n n [ [ [ [ [ [ [ [ [ [ [ [ [ [ [ [ [ [ [ [ [ [ [ [ [ [ [ [ [ [ [ [ [ [ [ [ [ [ [ [ [ [ [ [ [ [ [ [ ` Y Y Y Y Y ; O O 9 9 9 9 9 : O O ,X,X,X,X,X,X,X,X,X,X,X,X,X,X,X,X,X,X,X,X,X,X,X,X,X,X,X,X,X,X,X,X,X,X,X,X,X,X,X,X,X,X,X,X,X,X,X,X,X,X,X,X,X,X,X,X,X,X,X,X,X,X,X,X,X,X,X,X,X,X,X,X,X,X,X,X,X,X,X,X,X,X,X,X,X,X,X,X,X,X,X,X,X,X,X,X,X,X,X,X,X,X,X,X,X,X,X,X,X,X,X,X,X,X,X2X2X4X4X4X4X9X9X0X0X0X0X0X0X0X0X0X0X0X0X0X0X0X0X0X0X0X0X0X0X0X0X0X0X0XbXbXbXbXbXbXbXbXbXbXbXbXbXbXbXbXbXbXbXbXjX0X0X0X0X0X0X0X0X0X0X0X0X0X0X0X0X0X0X0X0X0X0X0X0X0X0X",
": : : : : : & & & : : : : : : : : : : : : : : % $ $ & : : : : : : : : & & & : : : : : : : : : : : : : : : : : : : : & : : : : & : : & & : & : : : : : : : : : : : : : : : : : : : : & % $ $ + O $ $ % : : : : : : & & : & & & : : : : : : : : : & & : : : : & & : : : & & : : : : : : : : : : : : : : : : : % $ $ U.,X,X,X,X,X,X,X,X,X,X,X*XL.q $ $ % % & : : : : : : : : : : : : : : : : : : : : : : : : : & : & % $ $ 7 _ [ [ [ [ [ [ [ [ [ [ [ [ [ [ [ [ [ [ [ [ [ [ [ [ [ [ [ P n n F.F.F.N.a a N.V.V.V.V.H.H.H.H.H.H.H.H.H.V.a a 5.^.^.1X1X1X3X3X9X9X9X9X0X9X0X0X0X0X0X0X0X0X0X0X0X0X0X0X0X0X0X0X0X0X0X0X0X0X0X0X0X0X0X0X0X0X0X0X0X0X0X0X0X0X0X0X0X0X0X0X0X0X0X0X0X0X0X0X0X0X0X0X0X0X0X0X0X0X0X0X0X0X0X0X0X0X0X0X0X0X0X0X0X0X0X0X0X0X0X0X0X0X0X0X0X0X0X0X0X0X0X0X0X0X0X0X0X0X0X0X0X0X0X0X0X0X0X0X0X0X0X0X0X0X0X0X0X0X0X0X0X0X0X0X0X0X0X0X0X0X0X0X0X0X0X0X0X0X0X0X0X0X0X0X0X0X0X0X0X0X0X0X0X0XcXbXbXbXbXbXbXbXbXbXbXbXbXbXbXbXbXbXbXbXbXbXbXbXbXbXbXbXbXbX;Xa a T.|.|.`.H.H.H.H.H.H.H.j a a a d F.F.F.F.F. .n n L L L L L L L U Y Y Y Y Y Y Y Y Y Y Y Y Y Y Y Y Y N n n [ [ [ [ [ [ [ [ [ [ [ [ [ [ [ [ [ [ [ [ [ [ [ [ [ [ [ [ [ [ [ [ [ [ [ [ [ [ [ [ [ [ [ [ [ [ [ [ ` Y Y Y Y Y ; O O 9 9 9 9 9 : O O ,X,X,X,X,X,X,X,X,X,X,X,X,X,X,X,X,X,X,X,X,X,X,X,X,X,X,X,X,X,X,X,X,X,X,X,X,X,X,X,X,X,X,X,X,X,X,X,X,X,X,X,X,X,X,X,X,X,X,X,X,X,X,X,X,X,X,X,X,X,X,X,X,X,X,X,X,X,X,X,X,X,X,X,X,X,X,X,X,X,X,X,X,X,X,X,X,X,X,X,X,X,X,X,X,X2X2X4X4X4X4X9X9X0X0X0X0X0X0X0X0X0X0X0X0X0X0X0X0X0X0X0X0X0X0X0X0X0X0X0X0X0X0X0X0X0X0X0X0XcXbXbXbXbXbXbXbXbXbXbXbXbXbXbXbXbXbXbXbXcX0X0X0X0X0X0X0X0X0X0X0X0X0X0X0X0X0X0X0X0X0X0X0X0X0X0X0X",
": : : & : : & : & : : : : : & : & & : : : : & $ $ $ % : : : : & : : : : : : : : : : : : : : : : : : : : : : : : : : & & : : : : : : : & & & : : : : : : : : : : : : : : : : : : : : % $ $ # O O + $ $ & : & : : & & : : : : & & : : : : : : & & : & : : : : & & : : & & & : : : : : : : : : : & : : & & : % $ $ L.>X,X,X,X,X,X,X,X,X,X,X,X,X>X*X<.$ $ $ % % % & : : : : : : : : : : : : : : : : : : : & : : & & % % $ 7 _ [ [ [ [ [ [ [ [ [ [ [ [ [ [ [ [ [ [ [ [ [ [ [ [ [ [ [ [ P n n F.F.F.N.a a N.V.V.V.V.H.H.H.H.H.H.H.H.H.V.a a G.0X0X0X0X0X0X0X0X0X0X0X0X0X0X0X0X0X0X0X0X0X0X0X0X0X0X0X0X0X0X0X0X0X0X0X0X0X0X0X0X0X0X0X0X0X0X0X0X0X0X0X0X0X0X0X0X0X0X0X0X0X0X0X0X0X0X0X0X0X0X0X0X0X0X0X0X0X0X0X0X0X0X0X0X0X0X0X0X0X0X0X0X0X0X0X0X0X0X0X0X0X0X0X0X0X0X0X0X0X0X0X0X0X0X0X0X0X0X0X0X0X0X0X0X0X0X0X0X0X0X0X0X0X0X0X0X0X0X0X0X0X0X0X0X0X0X0X0X0X0X0X0X0X0X0X0X0X0X0X0X0X0X0X0X0X0X0X0X0X0X0X0XjXbXbXbXbXbXbXbXbXbXbXbXbXbXbXbXbXbXbXbXbXbXbXbXbXbXbXbXbXbXbX;Xa a T.|.|.`.H.H.H.H.H.H.H.j a a a j F.F.F.F.F. .n n L L L L L L L U Y Y Y Y Y Y Y Y Y Y Y Y Y Y Y Y Y N n n [ [ [ [ [ [ [ [ [ [ [ [ [ [ [ [ [ [ [ [ [ [ [ [ [ [ [ [ [ [ [ [ [ [ [ [ [ [ [ [ [ [ [ [ [ [ [ [ ` Y Y Y Y Y ; O O 9 9 9 9 9 : O O ,X,X,X,X,X,X,X,X,X,X,X,X,X,X,X,X,X,X,X,X,X,X,X,X,X,X,X,X,X,X,X,X,X,X,X,X,X,X,X,X,X,X,X,X,X,X,X,X,X,X,X,X,X,X,X,X,X,X,X,X,X,X,X,X,X,X,X,X,X,X,X,X,X,X,X,X,X,X,X,X,X,X,X,X,X,X,X,X,X,X,X,X,X,X,X2X2X4X4X4X4X9X9X0X0X0X0X0X0X0X0X0X0X0X0X0X0X0X0X0X0X0X0X0X0X0X0X0X0X0X0X0X0X0X0X0X0X0X0X0X0X0X0X0X0X0X0X0XcXbXbXbXbXbXbXbXbXbXbXbXbXbXbXbXbXbXbXbXcX0X0X0X0X0X0X0X0X0X0X0X0X0X0X0X0X0X0X0X0X0X0X0X0X0X0X0X0X",
": : : & : : : : & : : : : : & & : : : : : : % $ $ $ $ & : : : & : : : : : : : : : : : : & & : : : : : & : : : : : : : & : : : : : : : : : : : : : : : : : : : : : : : : & : : : : & $ $ q :.:.i.i.q $ % & & : : : : : : : : : : : & & : : : : & : : : : : : : : : : : : & : : : : & & : : : : & : : & & & $ $ <.>X,X,X,X,X,X,X,X,X,X,X,X,X,X,X,X=X%X<.$ $ $ $ % % & & : & & : : : : : : : & : : : : : & : & % % % % ; _ [ [ [ [ [ [ [ [ [ [ [ [ [ [ [ [ [ [ [ [ [ [ [ [ [ [ [ [ [ P n n F.F.F.N.a a g.N.V.N.N.H.H.H.H.H.H.H.H.H.V.a a T.0X0X0X0X0X0X0X0X0X0X0X0X0X0X0X0X0X0X0X0X0X0X0X0X0X0X0X0X0X0X0X0X0X0X0X0X0X0X0X0X0X0X0X0X0X0X0X0X0X0X0X0X0X0X0X0X0X0X0X0X0X0X0X0X0X0X0X0X0X0X0X0X0X0X0X0X0X0X0X0X0X0X0X0X0X0X0X0X0X0X0X0X0X0X0X0X0X0X0X0X0X0X0X0X0X0X0X0X0X0X0X0X0X0X0X0X0X0X0X0X0X0X0X0X0X0X0X0X0X0X0X0X0X0X0X0X0X0X0X0X0X0X0X0X0X0X0X0X0X0X0X0X0X0X0X0X0X0X0X0X0X0X0X0X0X0X0X0X0X0X0XjXbXbXbXbXbXbXbXbXbXbXbXbXbXbXbXbXbXbXbXbXbXbXbXbXbXbXbXbXbXbXbX;Xa a G.|.|.`.H.H.H.H.H.H.H.j a a a j F.F.F.F.F. .n n L L L L L L L U Y Y Y Y Y Y Y Y Y Y Y Y Y Y Y Y Y N n n [ [ [ [ [ [ [ [ [ [ [ [ [ [ [ [ [ [ [ [ [ [ [ [ [ [ [ [ [ [ [ [ [ [ [ [ [ [ [ [ [ [ [ [ [ [ [ [ ` Y Y Y Y Y ; O O 9 9 9 9 9 : O O ,X,X,X,X,X,X,X,X,X,X,X,X,X,X,X,X,X,X,X,X,X,X,X,X,X,X,X,X,X,X,X,X,X,X,X,X,X,X,X,X,X,X,X,X,X,X,X,X,X,X,X,X,X,X,X,X,X,X,X,X,X,X,X,X,X,X,X,X,X,X,X,X,X,X,X,X,X,X,X,X,X,X,X,X,X2X2X4X4X4X9X9X0X0X0X0X0X0X0X0X0X0X0X0X0X0X0X0X0X0X0X0X0X0X0X0X0X0X0X0X0X0X0X0X0X0X0X0X0X0X0X0X0X0X0X0X0X0X0X0X0X0X0X0X0X0X0XjXbXbXbXbXbXbXbXbXbXbXbXbXbXbXbXbXbXbXbXcXjX0X0X0X0X0X0X0X0X0X0X0X0X0X0X0X0X0X0X0X0X0X0X0X0X0X0X0X0X",
": : : & : : : : : : : : : : : : : : : : : & $ $ & $ $ % : : : & : : : : : : : : & : : : : & : : : : : & & & : : : : : : : : : : : : : : : : : : : : : & & & : : : : & & & : : : & % $ $ U.=X=X>X>XU.$ $ $ & : : : : : : : : : : : : & & : : : : : : : : : : : : : : : : : : : : : : & : : : : & : : : & % $ q =X,X,X,X,X,X,X,X,X,X,X,X,X,X,X,X,X,X,X=X%X<.$ $ $ $ % % % % & & : : : : & : : : : : : & & & % $ $ = I R [ [ [ [ [ [ [ [ [ [ [ [ [ [ [ [ [ [ [ [ [ [ [ [ [ [ [ [ [ [ P n n F.F.F.N.a a l N.N.N.V.H.H.H.H.H.H.H.H.H.V.a a T.0X0X0X0X0X0X0X0X0X0X0X0X0X0X0X0X0X0X0X0X0X0X0X0X0X0X0X0X0X0X0X0X0X0X0X0X0X0X0X0X0X0X0X0X0X0X0X0X0X0X0X0X0X0X0X0X0X0X0X0X0X0X0X0X0X0X0X0X0X0X0X0X0X0X0X0X0X0X0X0X0X0X0X0X0X0X0X0X0X0X0X0X0X0X0X0X0X0X0X0X0X0X0X0X0X0X0X0X0X0X0X0X0X0X0X0X0X0X0X0X0X0X0X0X0X0X0X0X0X0X0X0X0X0X0X0X0X0X0X0X0X0X0X0X0X0X0X0X0X0X0X0X0X0X0X0X0X0X0X0X0X0X0X0X0X0X0X0X0X0X0XbXbXbXbXbXbXbXbXbXbXbXbXbXbXbXbXbXbXbXbXbXbXbXbXbXbXbXbXbXbXbXbX1Xa a G.|.|.`.H.H.H.H.H.H.H.j a a a j F.F.F.F.F. .n n L L L L L L L Y Y Y Y Y Y Y Y Y Y Y Y Y Y Y Y Y Y N n n [ [ [ [ [ [ [ [ [ [ [ [ [ [ [ [ [ [ [ [ [ [ [ [ [ [ [ [ [ [ [ [ [ [ [ [ [ [ [ [ [ [ [ [ [ [ [ [ ` Y Y Y Y Y ; O O 9 9 9 9 9 : O O ,X,X,X,X,X,X,X,X,X,X,X,X,X,X,X,X,X,X,X,X,X,X,X,X,X,X,X,X,X,X,X,X,X,X,X,X,X,X,X,X,X,X,X,X,X,X,X,X,X,X,X,X,X,X,X,X,X,X,X,X,X,X,X,X,X,X,X,X,X,X,X,X,X,X,X2X2X4X4X4X9X9X0X0X0X0X0X0X0X0X0X0X0X0X0X0X0X0X0X0X0X0X0X0X0X0X0X0X0X0X0X0X0X0X0X0X0X0X0X0X0X0X0X0X0X0X0X0X0X0X0X0X0X0X0X0X0X0X0X0X0X0X0X0X0X0XjXbXbXbXbXbXbXbXbXbXbXbXbXbXbXbXbXbXbXbXcXjX0X0X0X0X0X0X0X0X0X0X0X0X0X0X0X0X0X0X0X0X0X0X0X0X0X0X0X0XjX",
": : : : & : : : : : & & & : : : : : : : : % $ $ < > $ $ & : : & : : : : : : : : & & : : : & & & & : : : : : : : : : : : : : : : : : : : : : : : : & : : : & & : : & & : : : : : % $ $ L.>X,X,X,X,X>X<.$ $ % & : : : : : : : : : & : : : : & : : : : : : : : : : : : : : : : : : : : & & : : : : : : & % $ $ *X,X,X,X,X,X,X,X,X,X,X,X,X,X,X,X,X,X,X,X,X,X=X%XL.q $ $ $ $ $ % % % % % & & & & & & & & & % % $ $ ; U ~ ` [ [ ' [ [ [ [ [ [ [ [ [ [ [ [ [ [ [ [ [ [ [ [ [ [ [ [ [ [ [ P n n F.F.F.N.a a N.V.V.N.V.H.H.H.H.H.H.H.H.H.V.a a [.0X0X0X0X0X0X0X0X0X0X0X0X0X0X0X0X0X0X0X0X0X0X0X0X0X0X0X0X0X0X0X0X0X0X0X0X0X0X0X0X0X0X0X0X0X0X0X0X0X0X0X0X0X0X0X0X0X0X0X0X0X0X0X0X0X0X0X0X0X0X0X0X0X0X0X0X0X0X0X0X0X0X0X0X0X0X0X0X0X0X0X0X0X0X0X0X0X0X0X0X0X0X0X0X0X0X0X0X0X0X0X0X0X0X0X0X0X0X0X0X0X0X0X0X0X0X0X0X0X0X0X0X0X0X0X0X0X0X0X0X0X0X0X0X0X0X0X0X0X0X0X0X0X0X0X0X0X0X0X0X0X0X0X0X0X0X0X0X0X0XcXbXbXbXbXbXbXbXbXbXbXbXbXbXbXbXbXbXbXbXbXbXbXbXbXbXbXbXbXbXbXbXbX1Xa a _.|.|.`.H.H.H.H.H.H.H.d a a a j F.F.F.F.F.D n n L L L L L L L Y Y Y Y Y Y Y Y Y Y Y Y Y Y Y Y Y Y N n n [ [ [ [ [ [ [ [ [ [ [ [ [ [ [ [ [ [ [ [ [ [ [ [ [ [ [ [ [ [ [ [ [ [ [ [ [ [ [ [ [ [ [ [ [ [ [ [ ` Y Y Y Y Y ; O O 9 9 9 9 9 : O O ,X,X,X,X,X,X,X,X,X,X,X,X,X,X,X,X,X,X,X,X,X,X,X,X,X,X,X,X,X,X,X,X,X,X,X,X,X,X,X,X,X,X,X,X,X,X,X,X,X,X,X,X,X,X,X,X,X,X,X,X,X,X,X,X,X2X2X4X4X4X9X9X0X0X0X0X0X0X0X0X0X0X0X0X0X0X0X0X0X0X0X0X0X0X0X0X0X0X0X0X0X0X0X0X0X0X0X0X0X0X0X0X0X0X0X0X0X0X0X0X0X0X0X0X0X0X0X0X0X0X0X0X0X0X0X0X0X0X0X0X0X0X0X0X0XjXbXbXbXbXbXbXbXbXbXbXbXbXbXbXbXbXbXbXbXcXjX0X0X0X0X0X0X0X0X0X0X0X0X0X0X0X0X0X0X0X0X0X0X0X0X0X0X0X0X0XcX",
": : : : & : : : : : & : : : : : : : : : & $ $ # % % $ $ % : : : : : : : : : : : : : : : : & : : & & : : : : & & : : : : & : : : : : & : : : : : & & : : : : & : : & : : : : : % $ $ <.>X,X,X,X,X,X,X=X<.$ $ % & : : : : : : : : & : : : : & & : : : & & : : : : : : : : : : : : : : : & : : : : : & % $ $ L.,X,X,X,X,X,X,X,X,X,X,X,X,X,X,X,X,X,X,X,X,X,X,X,X2X;X;XU.q $ $ $ $ $ $ $ % % % % % % % % % % $ = A U ~ ~ ` [ ' ' [ [ [ [ [ [ [ [ [ [ [ [ [ [ [ [ [ [ [ [ [ [ [ [ [ [ [ P n n F.F.F.N.a a N.V.V.V.N.F.H.H.H.H.H.H.H.H.V.a a [.0X0X0X0X0X0X0X0X0X0X0X0X0X0X0X0X0X0X0X0X0X0X0X0X0X0X0X0X0X0X0X0X0X0X0X0X0X0X0X0X0X0X0X0X0X0X0X0X0X0X0X0X0X0X0X0X0X0X0X0X0X0X0X0X0X0X0X0X0X0X0X0X0X0X0X0X0X0X0X0X0X0X0X0X0X0X0X0X0X0X0X0X0X0X0X0X0X0X0X0X0X0X0X0X0X0X0X0X0X0X0X0X0X0X0X0X0X0X0X0X0X0X0X0X0X0X0X0X0X0X0X0X0X0X0X0X0X0X0X0X0X0X0X0X0X0X0X0X0X0X0X0X0X0X0X0X0X0X0X0X0X0X0X0X0X0X0X0X0XjXbXbXbXbXbXbXbXbXbXbXbXbXbXbXbXbXbXbXbXbXbXbXbXbXbXbXbXbXbXbXbXbXbX;Xa a _.|.|._.H.H.H.H.H.H.H.a a a a j F.F.F.F.F.A n n L L L L L L L Y Y Y Y Y Y Y Y Y Y Y Y Y Y Y Y Y Y N n n [ [ [ [ [ [ [ [ [ [ [ [ [ [ [ [ [ [ [ [ [ [ [ [ [ [ [ [ [ [ [ [ [ [ [ [ [ [ [ [ [ [ [ [ [ [ [ [ ` Y Y Y Y Y ; O O 9 9 9 9 9 : O O ,X,X,X,X,X,X,X,X,X,X,X,X,X,X,X,X,X,X,X,X,X,X,X,X,X,X,X,X,X,X,X,X,X,X,X,X,X,X,X,X,X,X,X,X,X,X,X,X,X,X,X,X,X,X,X2X2X4X4X4X9X9X0X0X0X0X0X0X0X0X0X0X0X0X0X0X0X0X0X0X0X0X0X0X0X0X0X0X0X0X0X0X0X0X0X0X0X0X0X0X0X0X0X0X0X0X0X0X0X0X0X0X0X0X0X0X0X0X0X0X0X0X0X0X0X0X0X0X0X0X0X0X0X0X0X0X0X0X0X0X0X0X0X0XjXbXbXbXbXbXbXbXbXbXbXbXbXbXbXbXbXbXbXbXcXjX0X0X0X0X0X0X0X0X0X0X0X0X0X0X0X0X0X0X0X0X0X0X0X0X0X0X0X0X0XjXbX",
": : : : & & : : : : : : : : : : : : : & $ $ $ O O O # $ $ & : : : : & : : : : : : : : : : : : : : : : : : : : & : : : : & & : : : : & & : : : : : : : : : : : : : : : : : : & $ $ q =X,X,X,X,X,X,X,X,X=X<.$ $ % % & : : : : & : & & : : : : : : : : : & & : : : : : : : : & & : : : : : : : & & & % $ $ <.>X,X,X,X,X,X,X,X,X,X,X,X,X,X,X,X,X,X,X,X,X,X,X,X4X0X0X0X9X;X;XU.U.q q $ $ $ $ $ $ $ $ % $ % % = U Y Y ~ Y [ [ [ [ [ [ [ [ [ [ [ [ [ [ [ [ [ [ [ [ [ [ [ [ [ [ [ [ [ [ [ P n n F.F.F.N.a a N.V.V.V.V.F.H.H.H.H.H.H.H.H.V.a a [.0X0X0XjX0X0X0X0X0X0X0X0X0X0X0X0X0X0X0X0X0X0X0X0X0X0X0X0X0X0X0X0X0X0X0X0X0X0X0X0X0X0X0X0X0X0X0X0X0X0X0X0X0X0X0X0X0X0X0X0X0X0X0X0X0X0X0X0X0X0X0X0X0X0X0X0X0X0X0X0X0X0X0X0X0X0X0X0X0X0X0X0X0X0X0X0X0X0X0X0X0X0X0X0X0X0X0X0X0X0X0X0X0X0X0X0X0X0X0X0X0X0X0X0X0X0X0X0X0X0X0X0X0X0X0X0X0X0X0X0X0X0X0X0X0X0X0X0X0X0X0X0X0X0X0X0X0X0X0X0X0X0X0X0X0X0X0X0XjXbXbXbXbXbXbXbXbXbXbXbXbXbXbXbXbXbXbXbXbXbXbXbXbXbXbXbXbXbXbXbXbXbXcX[.a a ).|.|.).H.H.H.H.H.H.H.a a a a j F.F.F.F.F.A n n L L L L L L L Y Y Y Y Y Y Y Y Y Y Y Y Y Y Y Y Y Y N n n [ [ [ [ [ [ [ [ [ [ [ [ [ [ [ [ [ [ [ [ [ [ [ [ [ [ [ [ [ [ [ [ [ [ [ [ [ [ [ [ [ [ [ [ [ [ [ [ ` Y Y Y Y Y ; O O 9 9 9 9 9 : O O ,X,X,X,X,X,X,X,X,X,X,X,X,X,X,X,X,X,X,X,X,X,X,X,X,X,X,X,X,X,X,X,X,X,X,X,X,X,X,X,X,X,X,X,X,X2X2X4X4X4X9X9X0X0X0X0X0X0X0X0X0X0X0X0X0X0X0X0X0X0X0X0X0X0X0X0X0X0X0X0X0X0X0X0X0X0X0X0X0X0X0X0X0X0X0X0X0X0X0X0X0X0X0X0X0X0X0X0X0X0X0X0X0X0X0X0X0X0X0X0X0X0X0X0X0X0X0X0X0X0X0X0X0X0X0X0X0X0X0X0X0X0X0XjXbXbXbXbXbXbXbXbXbXbXbXbXbXbXbXbXbXbXbXcXjX0X0X0X0X0X0X0X0X0X0X0X0X0X0X0X0X0X0X0X0X0X0X0X0X0X0X0X0X0XjXbXbX",
"& & : : : : : : : : : : : : : : : : : % $ $ # O O 8 8 $ $ & : : : : & & & : : : : : : : : : : : : : : : : : : : & & : : : : : : : : : & : : : & : : : : : : : : : : : : : & % $ q %X,X,X,X,X,X,X,X,X,X,X=XL.$ $ $ % & : : : & : : : : : : : : : : : : : & : : : & & : : : & & : : : : : : : : & % $ $ <.=X,X,X,X,X,X,X,X,X,X,X,X,X,X,X,X,X,X,X,X,X,X,X,X2X0X0X0X0X0X0X0X4X4X;X;X;XO O r < < < < < < % O = Y Y Y Y ` [ [ [ [ [ [ [ [ [ [ [ [ [ [ [ [ [ [ [ [ [ [ [ [ [ [ [ [ [ [ [ P n n F.F.F.N.a a N.N.V.V.V.F.H.H.H.H.H.H.H.H.V.a a [.0X0XjXjX0X0X0X0X0X0X0X0X0X0X0X0X0X0X0X0X0X0X0X0X0X0X0X0X0X0X0X0X0X0X0X0X0X0X0X0X0X0X0X0X0X0X0X0X0X0X0X0X0X0X0X0X0X0X0X0X0X0X0X0X0X0X0X0X0X0X0X0X0X0X0X0X0X0X0X0X0X0X0X0X0X0X0X0X0X0X0X0X0X0X0X0X0X0X0X0X0X0X0X0X0X0X0X0X0X0X0X0X0X0X0X0X0X0X0X0X0X0X0X0X0X0X0X0X0X0X0X0X0X0X0X0X0X0X0X0X0X0X0X0X0X0X0X0X0X0X0X0X0X0X0X0X0X0X0X0X0X0X0X0X0X0X0X0XcXbXbXbXbXbXbXbXbXbXbXbXbXbXbXbXbXbXbXbXbXbXbXbXbXbXbXbXbXbXbXbXbXbXjX[.a a ).|.|.).H.H.H.H.H.H.H.a a a a j F.F.F.F.F.A n M L L L L L L L Y Y Y Y Y Y Y Y Y Y Y Y Y Y Y Y Y Y N n n [ [ [ [ [ [ [ [ [ [ [ [ [ [ [ [ [ [ [ [ [ [ [ [ [ [ [ [ [ [ [ [ [ [ [ [ [ [ [ [ [ [ [ [ [ [ [ [ ` Y Y Y Y Y ; O O 9 9 9 9 9 : O O ,X,X,X,X,X,X,X,X,X,X,X,X,X,X,X,X,X,X,X,X,X,X,X,X,X,X,X,X,X,X,X,X,X,X,X2X2X4X4X4X9X9X0X0X0X0X0X0X0X0X0X0X0X0X0X0X0X0X0X0X0X0X0X0X0X0X0X0X0X0X0X0X0X0X0X0X0X0X0X0X0X0X0X0X0X0X0X0X0X0X0X0X0X0X0X0X0X0X0X0X0X0X0X0X0X0X0X0X0X0X0X0X0X0X0X0X0X0X0X0X0X0X0X0X0X0X0X0X0X0X0X0X0X0X0X0X0X0X0X0X0X0X0XcXbXbXbXbXbXbXbXbXbXbXbXbXbXbXbXbXbXbXbXjX0X0X0X0X0X0X0X0X0X0X0X0X0X0X0X0X0X0X0X0X0X0X0X0X0X0X0X0X0XjXbXbXbX",
"& : : : : : : : : : & & : & : : : : & $ $ q ^.^.^.%X%X<.$ % & : : & & & : : & : & & : : : : : : : : : : : : : : & : : : & : : : : : : : : : & & : : : : : : : : : : : : & % $ $ U.,X,X,X,X,X,X,X,X,X,X,X,X>X%Xq $ $ % % % & : : : : : : : : : : : : : : & : : : : : : : : : : : : : : : & & % $ $ $ <.=X,X,X,X,X,X,X,X,X,X,X,X,X,X,X,X,X,X,X,X,X,X,X,X,X0X0X0X0X0X0X0X0X0X0X0X0X0XO O > 9 9 9 9 9 9 # O = Y Y Y Y ` [ [ [ [ [ [ [ [ [ [ [ [ [ [ [ [ [ [ [ [ [ [ [ [ [ [ [ [ [ [ [ P n n F.F.F.N.a a l N.V.V.V.F.H.H.H.H.H.H.H.H.V.a a [.0X0X0X0X0X0X0X0X0X0X0X0X0X0X0X0X0X0X0X0X0X0X0X0X0X0X0X0X0X0X0X0X0X0X0X0X0X0X0X0X0X0X0X0X0X0X0X0X0X0X0X0X0X0X0X0X0X0X0X0X0X0X0X0X0X0X0X0X0X0X0X0X0X0X0X0X0X0X0X0X0X0X0X0X0X0X0X0X0X0X0X0X0X0X0X0X0X0X0X0X0X0X0X0X0X0X0X0X0X0X0X0X0X0X0X0X0X0X0X0X0X0X0X0X0X0X0X0X0X0X0X0X0X0X0X0X0X0X0X0X0X0X0X0X0X0X0X0X0X0X0X0X0X0X0X0X0X0X0X0X0X0X0X0X0X0X0XjXbXbXbXbXbXbXbXbXbXbXbXbXbXbXbXbXbXbXbXbXbXbXbXbXbXbXbXbXbXbXbXbXbXcX0X[.a a ).|.|.).H.H.H.H.H.H.H.a a a a j F.F.F.F.F.A n M L L L L L L L Y Y Y Y Y Y Y Y Y Y Y Y Y Y Y Y Y Y N n n [ [ [ [ [ [ [ [ [ [ [ [ [ [ [ [ [ [ [ [ [ [ [ [ [ [ [ [ [ [ [ [ [ [ [ [ [ [ [ [ [ [ [ [ [ [ [ [ ` Y Y Y Y Y ; O O 9 9 9 9 9 : O O ,X,X,X,X,X,X,X,X,X,X,X,X,X,X,X,X,X,X,X,X,X,X,X,X,X2X2X4X4X4X9X9X0X0X0X0X0X0X0X0X0X0X0X0X0X0X0X0X0X0X0X0X0X0X0X0X0X0X0X0X0X0X0X0X0X0X0X0X0X0X0X0X0X0X0X0X0X0X0X0X0X0X0X0X0X0X0X0X0X0X0X0X0X0X0X0X0X0X0X0X0X0X0X0X0X0X0X0X0X0X0X0X0X0X0X0X0X0X0X0X0X0X0X0X0X0X0X0X0X0X0X0X0X0X0X0X0X0X0X0X0X0XcXbXbXbXbXbXbXbXbXbXbXbXbXbXbXbXbXbXbXbXcX0X0X0X0X0X0X0X0X0X0X0X0X0X0X0X0X0X0X0X0X0X0X0X0X0X0X0X0X0X0XcXbXbXbX",
": : : : & & : : : : : & & & : : : : % $ $ U.,X,X,X,X,X=X$ $ % & : : : : : : & & & : : : : : & & : : : : : : : & : : : : & & : : : : & & : : : : : : : : : : : : : : : & % $ $ L.>X,X,X,X,X,X,X,X,X,X,X,X,X,X,X%XP.q $ $ $ % % & : : : : : : : : : : : & : : : : : : : : : : : : : : & % % % $ $ q L.=X,X,X,X,X,X,X,X,X,X,X,X,X,X,X,X,X,X,X,X,X,X,X,X,X4X0X0X0X0X0X0X0X0X0X0X0X0X0XO O : 9 9 9 9 9 9 # O = Y Y Y Y ` [ [ [ [ [ [ [ [ [ [ [ [ [ [ [ [ [ [ [ [ [ [ [ [ [ [ [ [ [ [ [ P n n F.F.F.N.a a l N.V.V.V.F.H.H.H.H.H.H.H.H.V.a a [.0X0X0X0X0X0X0X0X0X0X0X0X0X0X0X0X0X0X0X0X0X0X0X0X0X0X0X0X0X0X0X0X0X0X0X0X0X0X0X0X0X0X0X0X0X0X0X0X0X0X0X0X0X0X0X0X0X0X0X0X0X0X0X0X0X0X0X0X0X0X0X0X0X0X0X0X0X0X0X0X0X0X0X0X0X0X0X0X0X0X0X0X0X0X0X0X0X0X0X0X0X0X0X0X0X0X0X0X0X0X0X0X0X0X0X0X0X0X0X0X0X0X0X0X0X0X0X0X0X0X0X0X0X0X0X0X0X0X0X0X0X0X0X0X0X0X0X0X0X0X0X0X0X0X0X0X0X0X0X0X0X0X0X0X0X0XjXbXbXbXbXbXbXbXbXbXbXbXbXbXbXbXbXbXbXbXbXbXbXbXbXbXbXbXbXbXbXbXbXbXcXjX0XT.a a ).|.|.).H.H.H.H.H.H.H.a a a a j F.F.F.F.F.A n M L L L L L L L Y Y Y Y Y Y Y Y Y Y Y Y Y Y Y Y Y Y N n n [ [ [ [ [ [ [ [ [ [ [ [ [ [ [ [ [ [ [ [ [ [ [ [ [ [ [ [ [ [ [ [ [ [ [ [ [ [ [ [ [ [ [ [ [ [ [ [ ` Y Y Y Y Y ; O O 9 9 9 9 9 : O O ,X,X,X,X,X,X,X,X,X,X,X,X,X,X,X2X2X4X4X4X9X9X0X0X0X0X0X0X0X0X0X0X0X0X0X0X0X0X0X0X0X0X0X0X0X0X0X0X0X0X0X0X0X0X0X0X0X0X0X0X0X0X0X0X0X0X0X0X0X0X0X0X0X0X0X0X0X0X0X0X0X0X0X0X0X0X0X0X0X0X0X0X0X0X0X0X0X0X0X0X0X0X0X0X0X0X0X0X0X0X0X0X0X0X0X0X0X0X0X0X0X0X0X0X0X0X0X0X0X0X0X0X0X0X0X0X0X0X0X0X0XcXbXbXbXbXbXbXbXbXbXbXbXbXbXbXbXbXbXbXbXcX0X0X0X0X0X0X0X0X0X0X0X0X0X0X0X0X0X0X0X0X0X0X0X0X0X0X0X0X0X0XjXbXbXbXbX",
": : : : : & : : : : : : : : : : : % $ $ <.>X,X,X,X,X,X,X<.$ $ % : : : : : : : : : : : : : : & : & & : : : : & & : : : : : & : : : : : & : : : : & & : : : : & : : & & % $ $ L.>X,X,X,X,X,X,X,X,X,X,X,X,X,X,X,X,X2X;XU.q $ $ $ % $ % & : & : : : : : & & : : : : : : : & & & : & & % $ $ $ $ <.<.%X>X,X,X,X,X,X,X,X,X,X,X,X,X,X,X,X,X,X,X,X,X,X,X,X,X4X0X0X0X0X0X0X0X0X0X0X0X0X0X0XO O : 9 9 9 9 9 9 # O = Y Y Y Y ` [ [ [ [ [ [ [ [ [ [ [ [ [ [ [ [ [ [ [ [ [ [ [ [ [ [ [ [ [ [ [ P n n F.F.F.N.a a N.V.V.V.V.F.H.H.H.H.H.H.H.H.N.a a [.0X0X0X0X0X0X0X0X0X0X0X0X0X0X0X0X0X0X0X0X0X0X0X0X0X0X0X0X0X0X0X0X0X0X0X0X0X0X0X0X0X0X0X0X0X0X0X0X0X0X0X0X0X0X0X0X0X0X0X0X0X0X0X0X0X0X0X0X0X0X0X0X0X0X0X0X0X0X0X0X0X0X0X0X0X0X0X0X0X0X0X0X0X0X0X0X0X0X0X0X0X0X0X0X0X0X0X0X0X0X0X0X0X0X0X0X0X0X0X0X0X0X0X0X0X0X0X0X0X0X0X0X0X0X0X0X0X0X0X0X0X0X0X0X0X0X0X0X0X0X0X0X0X0X0X0X0X0X0X0X0X0X0X0X0X0XbXbXbXbXbXbXbXbXbXbXbXbXbXbXbXbXbXbXbXbXbXbXbXbXbXbXbXbXbXbXbXbXbXbXjX0X0XT.a a ).|.|.).H.H.H.H.H.H.H.a a a a j F.F.F.F.F.A n M L L L L L L L Y Y Y Y Y Y Y Y Y Y Y Y Y Y Y Y Y Y N n n [ [ [ [ [ [ [ [ [ [ [ [ [ [ [ [ [ [ [ [ [ [ [ [ [ [ [ [ [ [ [ [ [ [ [ [ [ [ [ [ [ [ [ [ [ [ [ [ ` Y Y Y Y Y ; O O 9 9 9 9 9 : O O ,X,X,X,X,X2X2X4X4X4X9X9X0X0X0X0X0X0X0X0X0X0X0X0X0X0X0X0X0X0X0X0X0X0X0X0X0X0X0X0X0X0X0X0X0X0X0X0X0X0X0X0X0X0X0X0X0X0X0X0X0X0X0X0X0X0X0X0X0X0X0X0X0X0X0X0X0X0X0X0X0X0X0X0X0X0X0X0X0X0X0X0X0X0X0X0X0X0X0X0X0X0X0X0X0X0X0X0X0X0X0X0X0X0X0X0X0X0X0X0X0X0X0X0X0X0X0X0X0X0X0X0X0X0X0X0X0X0X0X0XjXbXbXbXbXbXbXbXbXbXbXbXbXbXbXbXbXbXbXbXcXjX0X0X0X0X0X0X0X0X0X0X0X0X0X0X0X0X0X0X0X0X0X0X0X0X0X0X0X0X0XjXbXbXbXbXbX",
": : : : : : : : : : : : : : : : & $ $ q =X,X,X,X,X,X,X,X=X<.$ $ % : : : : : : : : : : : : : : : & : : : : : & : : : : : : : : : : : : : : : : : & & : : : : & & & & $ $ $ L.>X,X,X,X,X,X,X,X,X,X,X,X,X,X,X,X,X4X0X0X9X;XU.q $ $ $ $ % % % % & & : : & : : : : : : : & & & $ % % % $ $ $ <.L.=X=X,X,X,X,X,X,X,X,X,X,X,X,X,X,X,X,X,X,X,X,X,X,X,X,X,X2X0X0X0X0X0X0X0X0X0X0X0X0X0X0X0XO O : 9 9 9 9 9 9 # O = Y Y Y Y [ [ [ [ [ [ [ [ [ [ [ [ [ [ [ [ [ [ [ [ [ [ [ [ [ [ [ [ [ [ [ [ P n n F.F.F.N.a a N.V.V.V.V.F.H.H.H.H.H.H.H.H.N.a a [.0X0X0X0X0X0X0X0X0X0X0X0X0X0X0X0X0X0X0X0X0X0X0X0X0X0X0X0X0X0X0X0X0X0X0X0X0X0X0X0X0X0X0X0X0X0X0X0X0X0X0X0X0X0X0X0X0X0X0X0X0X0X0X0X0X0X0X0X0X0X0X0X0X0X0X0X0X0X0X0X0X0X0X0X0X0X0X0X0X0X0X0X0X0X0X0X0X0X0X0X0X0X0X0X0X0X0X0X0X0X0X0X0X0X0X0X0X0X0X0X0X0X0X0X0X0X0X0X0X0X0X0X0X0X0X0X0X0X0X0X0X0X0X0X0X0X0X0X0X0X0X0X0X0X0X0X0X0X0X0X0X0X0X0X0XcXbXbXbXbXbXbXbXbXbXbXbXbXbXbXbXbXbXbXbXbXbXbXbXbXbXbXbXbXbXbXbXbXbXcX0X0X0XT.a a ).|.|.).H.H.H.H.H.H.H.a a a a j F.F.F.F.F.A n M L L L L L L L Y Y Y Y Y Y Y Y Y Y Y Y Y Y Y Y Y Y N n n [ [ [ [ [ [ [ [ [ [ [ [ [ [ [ [ [ [ [ [ [ [ [ [ [ [ [ [ [ [ [ [ [ [ [ [ [ [ [ [ [ [ [ [ [ [ [ [ [ Y Y Y Y Y ; O O 9 9 9 9 9 : O O 9X9X0X0X0X0X0X0X0X0X0X0X0X0X0X0X0X0X0X0X0X0X0X0X0X0X0X0X0X0X0X0X0X0X0X0X0X0X0X0X0X0X0X0X0X0X0X0X0X0X0X0X0X0X0X0X0X0X0X0X0X0X0X0X0X0X0X0X0X0X0X0X0X0X0X0X0X0X0X0X0X0X0X0X0X0X0X0X0X0X0X0X0X0X0X0X0X0X0X0X0X0X0X0X0X0X0X0X0X0X0X0X0X0X0X0X0X0X0X0X0X0X0X0X0X0X0X0X0X0X0X0X0X0X0X0X0X0X0XjXbXbXbXbXbXbXbXbXbXbXbXbXbXbXbXbXbXbXbXcXjX0X0X0X0X0X0X0X0X0X0X0X0X0X0X0X0X0X0X0X0X0X0X0X0X0X0X0X0X0X0XcXbXbXbXbXbX",
": & : : : : & & : : : & & : : & % $ $ %X,X,X,X,X,X,X,X,X,X=Xq $ $ % & : : : : : : : : & : & & & : : : : & : : : : : : : : : : : : : : : : & : : : : : : : : : & % % $ $ L.>X,X,X,X,X,X,X,X,X,X,X,X,X,X,X,X,X2X0X0X0X0X0X4X;XU.U.q $ $ $ $ $ % % % % % % % % % % % % % % % $ $ $ $ <.<.^.=X>X,X,X,X,X,X,X,X,X,X,X,X,X,X,X,X,X,X,X,X,X,X,X,X,X,X,X,X4X0X0X0X0X0X0X0X0X0X0X0X0X0X0X0XO O : 9 9 9 9 9 9 # O = Y Y Y ` [ [ [ [ [ [ [ [ [ [ [ [ [ [ [ [ [ [ [ [ [ [ [ [ [ [ [ [ [ [ [ [ P n n F.F.F.N.a a N.V.V.V.V.F.H.H.H.H.H.H.H.H.N.a a [.0X0X0X0X0X0X0X0X0X0X0X0X0X0X0X0X0X0X0X0X0X0X0X0X0X0X0X0X0X0X0X0X0X0X0X0X0X0X0X0X0X0X0X0X0X0X0X0X0X0X0X0X0X0X0X0X0X0X0X0X0X0X0X0X0X0X0X0X0X0X0X0X0X0X0X0X0X0X0X0X0X0X0X0X0X0X0X0X0X0X0X0X0X0X0X0X0X0X0X0X0X0X0X0X0X0X0X0X0X0X0X0X0X0X0X0X0X0X0X0X0X0X0X0X0X0X0X0X0X0X0X0X0X0X0X0X0X0X0X0X0X0X0X0X0X0X0X0X0X0X0X0X0X0X0X0X0X0X0X0X0X0X0X0XjXbXbXbXbXbXbXbXbXbXbXbXbXbXbXbXbXbXbXbXbXbXbXbXbXbXbXbXbXbXbXbXbXbXcXjX0X0X0XT.a a ).|.|.).H.H.H.H.H.H.H.a a a a j F.F.F.F.F.A n M L L L L L L L Y Y Y Y Y Y Y Y Y Y Y Y Y Y Y Y Y Y N n n [ [ [ [ [ [ [ [ [ [ [ [ [ [ [ [ [ [ [ [ [ [ [ [ [ [ [ [ [ [ [ [ [ [ [ [ [ [ [ [ [ [ [ [ [ [ [ [ [ Y Y Y Y Y ; O O 9 9 9 9 9 : O O 0X0X0X0X0X0X0X0X0X0X0X0X0X0X0X0X0X0X0X0X0X0X0X0X0X0X0X0X0X0X0X0X0X0X0X0X0X0X0X0X0X0X0X0X0X0X0X0X0X0X0X0X0X0X0X0X0X0X0X0X0X0X0X0X0X0X0X0X0X0X0X0X0X0X0X0X0X0X0X0X0X0X0X0X0X0X0X0X0X0X0X0X0X0X0X0X0X0X0X0X0X0X0X0X0X0X0X0X0X0X0X0X0X0X0X0X0X0X0X0X0X0X0X0X0X0X0X0X0X0X0X0X0X0X0X0X0X0XjXbXbXbXbXbXbXbXbXbXbXbXbXbXbXbXbXbXbXbXcXjX0X0X0X0X0X0X0X0X0X0X0X0X0X0X0X0X0X0X0X0X0X0X0X0X0X0X0X0X0X0XjXbXbXbXbXbXbX",
"& & : : : : : & : : : : & : & % $ $ L.,X,X,X,X,X,X,X,X,X,X,X%Xq $ $ % : : : : : : : : : : : & & : : : : & : : : : : : : : : : : : : : : : & : : & : : : : : & % $ $ q ^.>X,X,X,X,X,X,X,X,X,X,X,X,X,X,X,X,X,X9X0X0X0X0X0X0X0X4X4X;X*XU.q q $ $ $ $ $ $ $ $ $ $ $ $ $ $ $ $ q <.<.%X=X=X,X,X,X,X,X,X,X,X,X,X,X,X,X,X,X,X,X,X,X,X,X,X,X,X,X,X,X,X,X4X0X0X0X0X0X0X0X0X0X0X0X0X0X0X0X0XO O : 9 9 9 9 9 9 # O = Y Y Y ` [ [ [ [ [ [ [ [ [ [ [ [ [ [ [ [ [ [ [ [ [ [ [ [ [ [ [ [ [ [ [ [ P n n F.F.F.N.a a N.V.V.V.N.F.H.H.H.H.H.H.H.H.N.a a [.0X0X0X0X0X0X0X0X0X0X0X0X0X0X0X0X0X0X0X0X0X0X0X0X0X0X0X0X0X0X0X0X0X0X0X0X0X0X0X0X0X0X0X0X0X0X0X0X0X0X0X0X0X0X0X0X0X0X0X0X0X0X0X0X0X0X0X0X0X0X0X0X0X0X0X0X0X0X0X0X0X0X0X0X0X0X0X0X0X0X0X0X0X0X0X0X0X0X0X0X0X0X0X0X0X0X0X0X0X0X0X0X0X0X0X0X0X0X0X0X0X0X0X0X0X0X0X0X0X0X0X0X0X0X0X0X0X0X0X0X0X0X0X0X0X0X0X0X0X0X0X0X0X0X0X0X0X0X0X0X0X0X0XjXbXbXbXbXbXbXbXbXbXbXbXbXbXbXbXbXbXbXbXbXbXbXbXbXbXbXbXbXbXbXbXbXbXcXjX0X0X0X0XT.a a |.|.|.).H.H.H.H.H.H.H.a a a a l F.F.F.F.F.A n M L L L L L L L Y Y Y Y Y Y Y Y Y Y Y Y Y Y Y Y Y Y N n n [ [ [ [ [ [ [ [ [ [ [ [ [ [ [ [ [ [ [ [ [ [ [ [ [ [ [ [ [ [ [ [ [ [ [ [ [ [ [ [ [ [ [ [ [ [ [ [ [ Y Y Y Y Y ; O O 9 9 9 9 9 : O O 0X0X0X0X0X0X0X0X0X0X0X0X0X0X0X0X0X0X0X0X0X0X0X0X0X0X0X0X0X0X0X0X0X0X0X0X0X0X0X0X0X0X0X0X0X0X0X0X0X0X0X0X0X0X0X0X0X0X0X0X0X0X0X0X0X0X0X0X0X0X0X0X0X0X0X0X0X0X0X0X0X0X0X0X0X0X0X0X0X0X0X0X0X0X0X0X0X0X0X0X0X0X0X0X0X0X0X0X0X0X0X0X0X0X0X0X0X0X0X0X0X0X0X0X0X0X0X0X0X0X0X0X0X0X0X0X0XjXbXbXbXbXbXbXbXbXbXbXbXbXbXbXbXbXbXbXbXcXjX0X0X0X0X0X0X0X0X0X0X0X0X0X0X0X0X0X0X0X0X0X0X0X0X0X0X0X0X0X0XjXbXbXbXbXbXbXbX",
": : : : : : : : : : : : : & % $ $ <.>X,X,X,X,X,X,X,X,X,X,X,X,X%Xq $ $ % & : : : : : : & : : : : : : : : : : : : : : & : : : : : : & : : & : : : : : : : : & % $ $ <.%X,X,X,X,X,X,X,X,X,X,X,X,X,X,X,X,X,X,X4X0X0X0X0X0X0X0X0X0X0X0X0X9X;X;X*XU.U.<.q q q q q q q <.<.<.U.*X;X2X;X,X,X,X,X,X,X,X,X,X,X,X,X,X,X,X,X,X,X,X,X,X,X,X,X,X,X,X,X,X,X,X2X0X0X0X0X0X0X0X0X0X0X0X0X0X0X0X0X0XO O : 9 9 9 9 9 9 # O = Y Y Y ` [ [ [ ' [ [ [ [ [ [ [ [ [ [ [ [ [ [ [ [ [ [ [ [ [ [ [ [ [ [ [ [ P n n F.F.F.N.a a N.V.N.N.N.F.H.H.H.H.H.H.H.H.N.a a [.0X0X0X0X0X0X0X0X0X0X0X0X0X0X0X0X0X0X0X0X0X0X0X0X0X0X0X0X0X0X0X0X0X0X0X0X0X0X0X0X0X0X0X0X0X0X0X0X0X0X0X0X0X0X0X0X0X0X0X0X0X0X0X0X0X0X0X0X0X0X0X0X0X0X0X0X0X0X0X0X0X0X0X0X0X0X0X0X0X0X0X0X0X0X0X0X0X0X0X0X0X0X0X0X0X0X0X0X0X0X0X0X0X0X0X0X0X0X0X0X0X0X0X0X0X0X0X0X0X0X0X0X0X0X0X0X0X0X0X0X0X0X0X0X0X0X0X0X0X0X0X0X0X0X0X0X0X0X0X0X0X0X0XcXbXbXbXbXbXbXbXbXbXbXbXbXbXbXbXbXbXbXbXbXbXbXbXbXbXbXbXbXbXbXbXbXbXjX0X0X0X0X0XT.a a |.|.|.).H.H.H.H.H.H.H.a a a a l F.F.F.F.F.A n M L L L L L L L Y Y Y Y Y Y Y Y Y Y Y Y Y Y Y Y Y Y N n n [ [ [ [ [ [ [ [ [ [ [ [ [ [ [ [ [ [ [ [ [ [ [ [ [ [ [ [ [ [ [ [ [ [ [ [ [ [ [ [ [ [ [ [ [ [ [ [ [ Y Y Y Y Y ; O O 9 9 9 9 9 : O O 0X0X0X0X0X0X0X0X0X0X0X0X0X0X0X0X0X0X0X0X0X0X0X0X0X0X0X0X0X0X0X0X0X0X0X0X0X0X0X0X0X0X0X0X0X0X0X0X0X0X0X0X0X0X0X0X0X0X0X0X0X0X0X0X0X0X0X0X0X0X0X0X0X0X0X0X0X0X0X0X0X0X0X0X0X0X0X0X0X0X0X0X0X0X0X0X0X0X0X0X0X0X0X0X0X0X0X0X0X0X0X0X0X0X0X0X0X0X0X0X0X0X0X0X0X0X0X0X0X0X0X0X0X0X0X0XjXbXbXbXbXbXbXbXbXbXbXbXbXbXbXbXbXbXbXbXcXjX0X0X0X0X0X0X0X0X0X0X0X0X0X0X0X0X0X0X0X0X0X0X0X0X0X0X0X0X0X0X0XbXbXbXbXbXbXbXbX",
": : : : : : : : : : : : & % $ $ <.=X,X,X,X,X,X,X,X,X,X,X,X,X,X,X%Xq $ $ % & : : : & : : : : : : : : : : : : : : : & & & & & : : & & : : : : : : & & : & % % $ $ <.=X,X,X,X,X,X,X,X,X,X,X,X,X,X,X,X,X,X,X2X0X0X0X0X0X0X0X0X0X0X0X0X0X0X0X0X0X4X4X2X;X;X;X;X;X;X;X2X2X2X4X0X0X9X<X,X<X,X,X,X,X,X,X,X,X,X,X,X,X,X,X,X,X,X,X,X,X,X,X,X,X,X,X,X,X2X0X0X0X0X0X0X0X0X0X0X0X0X0X0X0X0X0X0XO O : 9 9 9 9 9 9 # O = Y Y Y ` [ [ [ ' [ [ [ [ [ [ [ [ [ [ [ [ [ [ [ [ [ [ [ [ [ [ [ [ [ [ [ [ P n n F.F.F.N.a a N.V.V.N.N.F.H.H.H.H.H.H.H.H.N.a a [.0X0X0X0X0X0X0X0X0X0X0X0X0X0X0X0X0X0X0X0X0X0X0X0X0X0X0X0X0X0X0X0X0X0X0X0X0X0X0X0X0X0X0X0X0X0X0X0X0X0X0X0X0X0X0X0X0X0X0X0X0X0X0X0X0X0X0X0X0X0X0X0X0X0X0X0X0X0X0X0X0X0X0X0X0X0X0X0X0X0X0X0X0X0X0X0X0X0X0X0X0X0X0X0X0X0X0X0X0X0X0X0X0X0X0X0X0X0X0X0X0X0X0X0X0X0X0X0X0X0X0X0X0X0X0X0X0X0X0X0X0X0X0X0X0X0X0X0X0X0X0X0X0X0X0X0X0X0X0X0X0X0XjXbXbXbXbXbXbXbXbXbXbXbXbXbXbXbXbXbXbXbXbXbXbXbXbXbXbXbXbXbXbXbXbXbXcX0X0X0X0X0X0XT.a a |.|.|.).H.H.H.H.H.H.V.a a a a l F.F.F.F.F.A n M L L L L L L L Y Y Y Y Y Y Y Y Y Y Y Y Y Y Y Y Y Y N n n [ [ [ [ [ [ [ [ [ [ [ [ [ [ [ [ [ [ [ [ [ [ [ [ [ [ [ [ [ [ [ [ [ [ [ [ [ [ [ [ [ [ [ [ [ [ [ [ [ Y Y Y Y Y ; O O 9 9 9 9 9 : O O 0X0X0X0X0X0X0X0X0X0X0X0X0X0X0X0X0X0X0X0X0X0X0X0X0X0X0X0X0X0X0X0X0X0X0X0X0X0X0X0X0X0X0X0X0X0X0X0X0X0X0X0X0X0X0X0X0X0X0X0X0X0X0X0X0X0X0X0X0X0X0X0X0X0X0X0X0X0X0X0X0X0X0X0X0X0X0X0X0X0X0X0X0X0X0X0X0X0X0X0X0X0X0X0X0X0X0X0X0X0X0X0X0X0X0X0X0X0X0X0X0X0X0X0X0X0X0X0X0X0X0X0X0X0X0X0XcXbXbXbXbXbXbXbXbXbXbXbXbXbXbXbXbXbXbXbXjX0X0X0X0X0X0X0X0X0X0X0X0X0X0X0X0X0X0X0X0X0X0X0X0X0X0X0X0X0X0X0XcXbXbXbXbXbXbXbXbX",
"& : : : : : : : : : & & % $ $ <.=X,X,X,X,X,X,X,X,X,X,X,X,X,X,X,X,X%X<.$ $ % % & : : : : : : : : : : & : : & & & : : : & : : : : & : : : : : : : : & % % $ $ <.^.=X,X,X,X,X,X,X,X,X,X,X,X,X,X,X,X,X,X,X,X0X0X0X0X0X0X0X0X0X0X0X0X0X0X0X0X0X0X0X0X0X0X0X0X0X0X0X0X0X0X0X0X0X0X2X,X,X,X,X,X,X,X,X,X,X,X,X,X,X,X,X,X,X,X,X,X,X,X,X,X,X,X,X,X,X,X4X0X0X0X0X0X0X0X0X0X0X0X0X0X0X0X0X0X0XO O : 9 9 9 9 9 9 # O = Y Y Y ` [ [ [ [ [ [ [ [ [ [ [ [ [ [ [ [ [ [ [ [ [ [ [ [ [ [ [ [ [ [ [ [ P n n F.F.F.N.a a N.V.V.V.V.F.H.H.H.H.H.H.H.H.N.a a [.0X0X0X0X0X0X0X0X0X0X0X0X0X0X0X0X0X0X0X0X0X0X0X0X0X0X0X0X0X0X0X0X0X0X0X0X0X0X0X0X0X0X0X0X0X0X0X0X0X0X0X0X0X0X0X0X0X0X0X0X0X0X0X0X0X0X0X0X0X0X0X0X0X0X0X0X0X0X0X0X0X0X0X0X0X0X0X0X0X0X0X0X0X0X0X0X0X0X0X0X0X0X0X0X0X0X0X0X0X0X0X0X0X0X0X0X0X0X0X0X0X0X0X0X0X0X0X0X0X0X0X0X0X0X0X0X0X0X0X0X0X0X0X0X0X0X0X0X0X0X0X0X0X0X0X0X0X0X0X0X0XjXbXbXbXbXbXbXbXbXbXbXbXbXbXbXbXbXbXbXbXbXbXbXbXbXbXbXbXbXbXbXbXbXbXcXjX0X0X0X0X0X0XT.a a |.|.|.).H.H.H.H.H.H.V.a a a a l F.F.F.F.F.A n M L L L L L L U Y Y Y Y Y Y Y Y Y Y Y Y Y Y Y Y Y Y N n n [ [ [ [ [ [ [ [ [ [ [ [ [ [ [ [ [ [ [ [ [ [ [ [ [ [ [ [ [ [ [ [ [ [ [ [ [ [ [ [ [ [ [ [ [ [ [ [ [ Y Y Y Y Y ; O O 9 9 9 9 9 : O O 0X0X0X0X0X0X0X0X0X0X0X0X0X0X0X0X0X0X0X0X0X0X0X0X0X0X0X0X0X0X0X0X0X0X0X0X0X0X0X0X0X0X0X0X0X0X0X0X0X0X0X0X0X0X0X0X0X0X0X0X0X0X0X0X0X0X0X0X0X0X0X0X0X0X0X0X0X0X0X0X0X0X0X0X0X0X0X0X0X0X0X0X0X0X0X0X0X0X0X0X0X0X0X0X0X0X0X0X0X0X0X0X0X0X0X0X0X0X0X0X0X0X0X0X0X0X0X0X0X0X0X0X0X0X0XcXbXbXbXbXbXbXbXbXbXbXbXbXbXbXbXbXbXbXbXcX0X0X0X0X0X0X0X0X0X0X0X0X0X0X0X0X0X0X0X0X0X0X0X0X0X0X0X0X0X0X0XjXbXbXbXbXbXbXbXbXbX",
"& : : : : : & : : : & $ $ $ <.=X,X,X,X,X,X,X,X,X,X,X,X,X,X,X,X,X,X,X=Xi.q $ $ % % % & : : : : : : : & : : & : : : : : : : : : & : : : : : : : & % % $ $ $ <.=X,X,X,X,X,X,X,X,X,X,X,X,X,X,X,X,X,X,X,X,X4X0X0X0X0X0X0X0X0X0X0X0X0X0X0X0X0X0X0X0X0X0X0X0X0X0X0X0X0X0X0X0X0X0X4X,X,X,X,X,X,X,X,X,X,X,X,X,X,X,X,X,X,X,X,X,X,X,X,X,X,X,X,X,X,X,X4X0X0X0X0X0X0X0X0X0X0X0X0X0X0X0X0X0X0X9XO O : 9 9 9 9 9 9 # O = Y Y Y ` [ [ [ [ [ [ [ [ [ [ [ [ [ [ [ [ [ [ [ [ [ [ [ [ [ [ [ [ [ [ [ [ P n n F.F.F.N.a a N.V.V.V.V.F.H.H.H.H.H.H.H.H.N.a a [.0X0X0X0X0X0X0X0X0X0X0X0X0X0X0X0X0X0X0X0X0X0X0X0X0X0X0X0X0X0X0X0X0X0X0X0X0X0X0X0X0X0X0X0X0X0X0X0X0X0X0X0X0X0X0X0X0X0X0X0X0X0X0X0X0X0X0X0X0X0X0X0X0X0X0X0X0X0X0X0X0X0X0X0X0X0X0X0X0X0X0X0X0X0X0X0X0X0X0X0X0X0X0X0X0X0X0X0X0X0X0X0X0X0X0X0X0X0X0X0X0X0X0X0X0X0X0X0X0X0X0X0X0X0X0X0X0X0X0X0X0X0X0X0X0X0X0X0X0X0X0X0X0X0X0X0X0X0X0X0X0XcXbXbXbXbXbXbXbXbXbXbXbXbXbXbXbXbXbXbXbXbXbXbXbXbXbXbXbXbXbXbXbXbXbXjX0X0X0X0X0X0X0XT.a a |.|.|.).H.H.H.H.H.H.V.a a a a l F.F.F.F.F.A n M L L L L L L U Y Y Y Y Y Y Y Y Y Y Y Y Y Y Y Y Y Y N n n [ [ [ [ [ [ [ [ [ [ [ [ [ [ [ [ [ [ [ [ [ [ [ [ [ [ [ [ [ [ [ [ [ [ [ [ [ [ [ [ [ [ [ [ [ [ [ [ [ Y Y Y Y Y ; O O 9 9 9 9 9 : O O 0X0X0X0X0X0X0X0X0X0X0X0X0X0X0X0X0X0X0X0X0X0X0X0X0X0X0X0X0X0X0X0X0X0X0X0X0X0X0X0X0X0X0X0X0X0X0X0X0X0X0X0X0X0X0X0X0X0X0X0X0X0X0X0X0X0X0X0X0X0X0X0X0X0X0X0X0X0X0X0X0X0X0X0X0X0X0X0X0X0X0X0X0X0X0X0X0X0X0X0X0X0X0X0X0X0X0X0X0X0X0X0X0X0X0X0X0X0X0X0X0X0X0X0X0X0X0X0X0X0X0X0X0X0XcXbXbXbXbXbXbXbXbXbXbXbXbXbXbXbXbXbXbXbXcX0X0X0X0X0X0X0X0X0X0X0X0X0X0X0X0X0X0X0X0X0X0X0X0X0X0X0X0X0X0X0XjXbXbXbXbXbXbXbXbXbXbX",
"& & : : : : & & & % $ $ $ <.=X,X,X,X,X,X,X,X,X,X,X,X,X,X,X,X,X,X,X,X,X>X%X<.$ $ $ $ % % & & : : : : : : : : : : : : : : : : & & : : : & & % % % $ $ $ <.^.=X,X,X,X,X,X,X,X,X,X,X,X,X,X,X,X,X,X,X,X,X4X0X0X0X0X0X0X0X0X0X0X0X0X0X0X0X0X0X0X0X0X0X0X0X0X0X0X0X0X0X0X0X0X0X9X<X,X,X,X,X,X,X,X,X,X,X,X,X,X,X,X,X,X,X,X,X,X,X,X,X,X,X,X,X,X,X2X0X0X0X0X0X0X0X0X0X0X0X0X0X0X0X0X0X0X0X2XO O : 9 9 9 9 9 9 # O = Y Y Y ` [ [ [ [ [ [ [ [ [ [ [ [ [ [ [ [ [ [ [ [ [ [ [ [ [ [ [ [ [ [ [ [ P n n F.F.F.N.a a N.V.V.V.V.F.H.H.H.H.H.H.H.H.N.a a [.0X0X0X0X0X0X0X0X0X0X0X0X0X0X0X0X0X0X0X0X0X0X0X0X0X0X0X0X0X0X0X0X0X0X0X0X0X0X0X0X0X0X0X0X0X0X0X0X0X0X0X0X0X0X0X0X0X0X0X0X0X0X0X0X0X0X0X0X0X0X0X0X0X0X0X0X0X0X0X0X0X0X0X0X0X0X0X0X0X0X0X0X0X0X0X0X0X0X0X0X0X0X0X0X0X0X0X0X0X0X0X0X0X0X0X0X0X0X0X0X0X0X0X0X0X0X0X0X0X0X0X0X0X0X0X0X0X0X0X0X0X0X0X0X0X0X0X0X0X0X0X0X0X0X0X0X0X0X0X0XcXbXbXbXbXbXbXbXbXbXbXbXbXbXbXbXbXbXbXbXbXbXbXbXbXbXbXbXbXbXbXbXbXbXcX0X0X0X0X0X0X0X0XT.a a |.|.|.H.H.H.H.H.H.H.V.a a a a l F.F.F.F.F.A n M L L L L L L U Y Y Y Y Y Y Y Y Y Y Y Y Y Y Y Y Y Y N n n [ [ [ [ [ [ [ [ [ [ [ [ [ [ [ [ [ [ [ [ [ [ [ [ [ [ [ [ [ [ [ [ [ [ [ [ [ [ [ [ [ [ [ [ [ [ [ [ [ ` Y Y Y Y ; O O 9 9 9 9 9 : O O 0X0X0X0X0X0X0X0X0X0X0X0X0X0X0X0X0X0X0X0X0X0X0X0X0X0X0X0X0X0X0X0X0X0X0X0X0X0X0X0X0X0X0X0X0X0X0X0X0X0X0X0X0X0X0X0X0X0X0X0X0X0X0X0X0X0X0X0X0X0X0X0X0X0X0X0X0X0X0X0X0X0X0X0X0X0X0X0X0X0X0X0X0X0X0X0X0X0X0X0X0X0X0X0X0X0X0X0X0X0X0X0X0X0X0X0X0X0X0X0X0X0X0X0X0X0X0X0X0X0X0X0X0XjXbXbXbXbXbXbXbXbXbXbXbXbXbXbXbXbXbXbXbXcXjX0X0X0X0X0X0X0X0X0X0X0X0X0X0X0X0X0X0X0X0X0X0X0X0X0X0X0X0X0X0X0XcXbXbXbXbXbXbXbXbXbXbX",
": : : : : : : & % $ $ $ i.=X,X,X,X,X,X,X,X,X,X,X,X,X,X,X,X,X,X,X,X,X,X,X,X=X^.i.q $ $ $ % % % % % & & & : : : : : : : : : : & & & & % % % $ $ $ q <.^.=X,X,X,X,X,X,X,X,X,X,X,X,X,X,X,X,X,X,X,X,X,X2X0X0X0X0X0X0X0X0X0X0X0X0X0X0X0X0X0X0X0X0X0X0X0X0X0X0X0X0X0X0X0X0X0X0X2X,X,X,X,X,X,X,X,X,X,X,X,X,X,X,X,X,X,X,X,X,X,X,X,X,X,X,X,X,X,X,X4X0X0X0X0X0X0X0X0X0X0X0X0X0X0X0X0X0X0X4X,XO O : 9 9 9 9 9 9 # O = Y Y Y ` [ [ [ [ [ [ [ [ [ [ [ [ [ [ [ [ [ [ [ [ [ [ [ [ [ [ [ [ [ [ [ [ P n n F.F.F.N.a a N.V.N.V.V.F.H.H.H.H.H.H.H.H.N.a a [.0X0X0XjX0X0X0X0X0X0X0X0X0X0X0X0X0X0X0X0X0X0X0X0X0X0X0X0X0X0X0X0X0X0X0X0X0X0X0X0X0X0X0X0X0X0X0X0X0X0X0X0X0X0X0X0X0X0X0X0X0X0X0X0X0X0X0X0X0X0X0X0X0X0X0X0X0X0X0X0X0X0X0X0X0X0X0X0X0X0X0X0X0X0X0X0X0X0X0X0X0X0X0X0X0X0X0X0X0X0X0X0X0X0X0X0X0X0X0X0X0X0X0X0X0X0X0X0X0X0X0X0X0X0X0X0X0X0X0X0X0X0X0X0X0X0X0X0X0X0X0X0X0X0X0X0X0X0X0XjXbXbXbXbXbXbXbXbXbXbXbXbXbXbXbXbXbXbXbXbXbXbXbXbXbXbXbXbXbXbXbXbXbXcXjX0X0X0X0X0X0X0X0XT.a a |.|.|.H.H.H.H.H.H.H.V.a a a a l F.F.F.F.F.A n M L L L L L L U Y Y Y Y Y Y Y Y Y Y Y Y Y Y Y Y Y Y N n n [ [ [ [ [ [ [ [ [ [ [ [ [ [ [ [ [ [ [ [ [ [ [ [ [ [ [ [ [ [ [ [ [ [ [ [ [ [ [ [ [ [ [ [ [ [ [ [ [ ` Y Y Y Y ; O O 9 9 9 9 9 : O O 0X0X0X0X0X0X0X0X0X0X0X0X0X0X0X0X0X0X0X0X0X0X0X0X0X0X0X0X0X0X0X0X0X0X0X0X0X0X0X0X0X0X0X0X0X0X0X0X0X0X0X0X0X0X0X0X0X0X0X0X0X0X0X0X0X0X0X0X0X0X0X0X0X0X0X0X0X0X0X0X0X0X0X0X0X0X0X0X0X0X0X0X0X0X0X0X0X0X0X0X0X0X0X0X0X0X0X0X0X0X0X0X0X0X0X0X0X0X0X0X0X0X0X0X0X0X0X0X0X0X0X0XjXbXbXbXbXbXbXbXbXbXbXbXbXbXbXbXbXbXbXbXcXjX0X0X0X0X0X0X0X0X0X0X0X0X0X0X0X0X0X0X0X0X0X0X0X0X0X0X0X0X0X0X0XjXbXbXbXbXbXbXbXbXbXbXbX",
": : : : : : & $ $ $ <.^.>X,X,X,X,X,X,X,X,X,X,X,X,X,X,X,X,X,X,X,X,X,X,X,X,X,X,X>X%Xi.q $ $ $ $ $ $ % % % % % % % % % % % % % % $ % $ $ $ $ $ <.i.%X=X,X,X,X,X,X,X,X,X,X,X,X,X,X,X,X,X,X,X,X,X,X,X,X9X0X0X0X0X0X0X0X0X0X0X0X0X0X0X0X0X0X0X0X0X0X0X0X0X0X0X0X0X0X0X0X0X0X4X,X,X,X,X,X,X,X,X,X,X,X,X,X,X,X,X,X,X,X,X,X,X,X,X,X,X,X,X,X,X,X4X0X0X0X0X0X0X0X0X0X0X0X0X0X0X0X0X0X0X9X,X,XO O : 9 9 9 9 9 9 # O = Y Y Y ` [ [ [ [ [ [ [ [ [ [ [ [ [ [ [ [ [ [ [ [ [ [ [ [ [ [ [ [ [ [ [ [ P n n F.F.F.N.a a l N.V.V.V.F.H.H.H.H.H.H.H.H.N.a a [.0X0X0X0X0X0X0X0X0X0X0X0X0X0X0X0X0X0X0X0X0X0X0X0X0X0X0X0X0X0X0X0X0X0X0X0X0X0X0X0X0X0X0X0X0X0X0X0X0X0X0X0X0X0X0X0X0X0X0X0X0X0X0X0X0X0X0X0X0X0X0X0X0X0X0X0X0X0X0X0X0X0X0X0X0X0X0X0X0X0X0X0X0X0X0X0X0X0X0X0X0X0X0X0X0X0X0X0X0X0X0X0X0X0X0X0X0X0X0X0X0X0X0X0X0X0X0X0X0X0X0X0X0X0X0X0X0X0X0X0X0X0X0X0X0X0X0X0X0X0X0X0X0X0X0X0X0X0XjXbXbXbXbXbXbXbXbXbXbXbXbXbXbXbXbXbXbXbXbXbXbXbXbXbXbXbXbXbXbXbXbXbXbXjX0X0X0X0X0X0X0X0X0XN.a a |.|.|.H.H.H.H.H.H.H.V.a a a a l F.F.F.F.F.A n M L L L L L L U Y Y Y Y Y Y Y Y Y Y Y Y Y Y Y Y Y Y N n n [ [ [ [ [ [ [ [ [ [ [ [ [ [ [ [ [ [ [ [ [ [ [ [ [ [ [ [ [ [ [ [ [ [ [ [ [ [ [ [ [ [ [ [ [ [ [ [ [ ` Y Y Y Y ; O O 9 9 9 9 9 : O O 0X0X0X0X0X0X0X0X0X0X0X0X0X0X0X0X0X0X0X0X0X0X0X0X0X0X0X0X0X0X0X0X0X0X0X0X0X0X0X0X0X0X0X0X0X0X0X0X0X0X0X0X0X0X0X0X0X0X0X0X0X0X0X0X0X0X0X0X0X0X0X0X0X0X0X0X0X0X0X0X0X0X0X0X0X0X0X0X0X0X0X0X0X0X0X0X0X0X0X0X0X0X0X0X0X0X0X0X0X0X0X0X0X0X0X0X0X0X0X0X0X0X0X0X0X0X0X0X0X0X0XjXbXbXbXbXbXbXbXbXbXbXbXbXbXbXbXbXbXbXbXcXjX0X0X0X0X0X0X0X0X0X0X0X0X0X0X0X0X0X0X0X0X0X0X0X0X0X0X0X0X0X0X0XjXbXbXbXbXbXbXbXbXbXbXbXbX",
": : : : & % $ $ $ <.=X,X,X,X,X,X,X,X,X,X,X,X,X,X,X,X,X,X,X,X,X,X,X,X,X,X,X,X,X,X,X>X%X^.i.<.q q $ $ $ $ $ $ $ $ $ $ $ $ $ $ $ $ $ $ q <.i.^.=X>X,X,X,X,X,X,X,X,X,X,X,X,X,X,X,X,X,X,X,X,X,X,X,X,X4X0X0X0X0X0X0X0X0X0X0X0X0X0X0X0X0X0X0X0X0X0X0X0X0X0X0X0X0X0X0X0X0X0X4X<X,X,X,X,X,X,X,X,X,X,X,X,X,X,X,X,X,X,X,X,X,X,X,X,X,X,X,X,X,X,X4X0X0X0X0X0X0X0X0X0X0X0X0X0X0X0X0X0X0X0X2X,X,XO O : 9 9 9 9 9 9 # O = Y Y Y ` [ [ [ [ [ [ [ [ [ [ [ [ [ [ [ [ [ [ [ [ [ [ [ [ [ [ [ [ [ [ [ [ P n n F.F.F.l a a N.V.V.V.V.F.H.H.H.H.H.H.H.H.N.a a [.0X0X0X0X0X0X0X0X0X0X0X0X0X0X0X0X0X0X0X0X0X0X0X0X0X0X0X0X0X0X0X0X0X0X0X0X0X0X0X0X0X0X0X0X0X0X0X0X0X0X0X0X0X0X0X0X0X0X0X0X0X0X0X0X0X0X0X0X0X0X0X0X0X0X0X0X0X0X0X0X0X0X0X0X0X0X0X0X0X0X0X0X0X0X0X0X0X0X0X0X0X0X0X0X0X0X0X0X0X0X0X0X0X0X0X0X0X0X0X0X0X0X0X0X0X0X0X0X0X0X0X0X0X0X0X0X0X0X0X0X0X0X0X0X0X0X0X0X0X0X0X0X0X0X0X0X0X0XcXbXbXbXbXbXbXbXbXbXbXbXbXbXbXbXbXbXbXbXbXbXbXbXbXbXbXbXbXbXbXbXbXbXcX0X0X0X0X0X0X0X0X0XjXw.a a |.|.|.H.H.H.H.H.H.H.V.a a a a l F.F.F.F.F.A n M L L L L L L Y Y Y Y Y Y Y Y Y Y Y Y Y Y Y Y Y Y Y N n n [ [ [ [ [ [ [ [ [ [ [ [ [ [ [ [ [ [ [ [ [ [ [ [ [ [ [ [ [ [ [ [ [ [ [ [ [ [ [ [ [ [ [ [ [ [ [ [ [ ` Y Y Y Y ; O O 9 9 9 9 9 : O O 0X0X0X0X0X0X0X0X0X0X0X0X0X0X0X0X0X0X0X0X0X0X0X0X0X0X0X0X0X0X0X0X0X0X0X0X0X0X0X0X0X0X0X0X0X0X0X0X0X0X0X0X0X0X0X0X0X0X0X0X0X0X0X0X0X0X0X0X0X0X0X0X0X0X0X0X0X0X0X0X0X0X0X0X0X0X0X0X0X0X0X0X0X0X0X0X0X0X0X0X0X0X0X0X0X0X0X0X0X0X0X0X0X0X0X0X0X0X0X0X0X0X0X0X0X0X0X0X0X0XjXbXbXbXbXbXbXbXbXbXbXbXbXbXbXbXbXbXbXbXcXjX0X0X0X0X0X0X0X0X0X0X0X0X0X0X0X0X0X0X0X0X0X0X0X0X0X0X0X0X0X0X0X0XbXbXbXbXbXbXbXbXbXbXbXbXbX",
"& : & % % $ $ <.^.=X,X,X,X,X,X,X,X,X,X,X,X,X,X,X,X,X,X,X,X,X,X,X,X,X,X,X,X,X,X,X,X,X,X,X>X=X%X%X^.i.i.<.<.q q q q q q q q <.<.i.^.^.%X=X>X,X,X,X,X,X,X,X,X,X,X,X,X,X,X,X,X,X,X,X,X,X,X,X,X,X,X2X0X0X0X0X0X0X0X0X0X0X0X0X0X0X0X0X0X0X0X0X0X0X0X0X0X0X0X0X0X0X0X0X0X9X<X,X,X,X,X,X,X,X,X,X,X,X,X,X,X,X,X,X,X,X,X,X,X,X,X,X,X,X,X,X,X2X0X0X0X0X0X0X0X0X0X0X0X0X0X0X0X0X0X0X0X2X,X,X,XO O : 9 9 9 9 9 9 # O = Y Y Y ` [ [ [ [ [ [ [ [ [ [ [ [ [ [ [ [ [ [ [ [ [ [ [ [ [ [ [ [ [ [ [ [ P n n F.F.F.l a a N.V.V.V.V.F.H.H.H.H.H.H.H.H.N.a a [.0X0X0X0X0X0X0X0X0X0X0X0X0X0X0X0X0X0X0X0X0X0X0X0X0X0X0X0X0X0X0X0X0X0X0X0X0X0X0X0X0X0X0X0X0X0X0X0X0X0X0X0X0X0X0X0X0X0X0X0X0X0X0X0X0X0X0X0X0X0X0X0X0X0X0X0X0X0X0X0X0X0X0X0X0X0X0X0X0X0X0X0X0X0X0X0X0X0X0X0X0X0X0X0X0X0X0X0X0X0X0X0X0X0X0X0X0X0X0X0X0X0X0X0X0X0X0X0X0X0X0X0X0X0X0X0X0X0X0X0X0X0X0X0X0X0X0X0X0X0X0X0X0X0X0X0X0XjXbXbXbXbXbXbXbXbXbXbXbXbXbXbXbXbXbXbXbXbXbXbXbXbXbXbXbXbXbXbXbXbXbXcX0X0X0X0X0X0X0X0X0X0XbXw.a a |.|.|.H.H.H.H.H.H.H.V.a a a a l F.F.F.F.F.n n M L L L L L L Y Y Y Y Y Y Y Y Y Y Y Y Y Y Y Y Y Y Y N n n [ [ [ [ [ [ [ [ [ [ [ [ [ [ [ [ [ [ [ [ [ [ [ [ [ [ [ [ [ [ [ [ [ [ [ [ [ [ [ [ [ [ [ [ [ [ [ [ [ ` Y Y Y Y ; O O 9 9 9 9 9 : O O 0X0X0X0X0X0X0X0X0X0X0X0X0X0X0X0X0X0X0X0X0X0X0X0X0X0X0X0X0X0X0X0X0X0X0X0X0X0X0X0X0X0X0X0X0X0X0X0X0X0X0X0X0X0X0X0X0X0X0X0X0X0X0X0X0X0X0X0X0X0X0X0X0X0X0X0X0X0X0X0X0X0X0X0X0X0X0X0X0X0X0X0X0X0X0X0X0X0X0X0X0X0X0X0X0X0X0X0X0X0X0X0X0X0X0X0X0X0X0X0X0X0X0X0X0X0X0X0X0XjXbXbXbXbXbXbXbXbXbXbXbXbXbXbXbXbXbXbXbXbXjX0X0X0X0X0X0X0X0X0X0X0X0X0X0X0X0X0X0X0X0X0X0X0X0X0X0X0X0X0X0X0X0XcXbXbXbXbXbXbXbXbXbXbXbXbXbX",
"& % % $ $ $ <.=X,X,X,X,X,X,X,X,X,X,X,X,X,X,X,X,X,X,X,X,X,X,X,X,X,X,X,X,X,X,X,X,X,X,X,X,X,X,X,X,X,X>X>X=X=X%X%X%X%X%X%X%X%X=X=X>X,X,X,X,X,X,X,X,X,X,X,X,X,X,X,X,X,X,X,X,X,X,X,X,X,X,X,X,X,X,X,X0X0X0X0X0X0X0X0X0X0X0X0X0X0X0X0X0X0X0X0X0X0X0X0X0X0X0X0X0X0X0X0X0X0X2X,X,X,X,X,X,X,X,X,X,X,X,X,X,X,X,X,X,X,X,X,X,X,X,X,X,X,X,X,X,X,X9X0X0X0X0X0X0X0X0X0X0X0X0X0X0X0X0X0X0X4X,X,X,X,XO O : 9 9 9 9 9 9 # O = Y Y Y Y [ [ [ [ [ [ [ [ [ [ [ [ [ [ [ [ [ [ [ [ [ [ [ [ [ [ [ [ [ [ [ [ P n n F.F.F.l a a N.V.V.V.V.V.H.H.H.H.H.H.H.H.N.a a [.0X0X0X0X0X0X0X0X0X0X0X0X0X0X0X0X0X0X0X0X0X0X0X0X0X0X0X0X0X0X0X0X0X0X0X0X0X0X0X0X0X0X0X0X0X0X0X0X0X0X0X0X0X0X0X0X0X0X0X0X0X0X0X0X0X0X0X0X0X0X0X0X0X0X0X0X0X0X0X0X0X0X0X0X0X0X0X0X0X0X0X0X0X0X0X0X0X0X0X0X0X0X0X0X0X0X0X0X0X0X0X0X0X0X0X0X0X0X0X0X0X0X0X0X0X0X0X0X0X0X0X0X0X0X0X0X0X0X0X0X0X0X0X0X0X0X0X0X0X0X0X0X0X0X0X0XjXbXbXbXbXbXbXbXbXbXbXbXbXbXbXbXbXbXbXbXbXbXbXbXbXbXbXbXbXbXbXbXbXbXcXjX0X0X0X0X0X0X0X0X0XcXbXw.a a |.|.`.H.H.H.H.H.H.H.V.a a a a l F.F.F.F.F.n n M L L L L L L Y Y Y Y Y Y Y Y Y Y Y Y Y Y Y Y Y Y Y N n n [ [ [ [ [ [ [ [ [ [ [ [ [ [ [ [ [ [ [ [ [ [ [ [ [ [ [ [ [ [ [ [ [ [ [ [ [ [ [ [ [ [ [ [ [ [ [ [ [ ` Y Y Y Y ; O O 9 9 9 9 9 : O O 0X0X0X0X0X0X0X0X0X0X0X0X0X0X0X0X0X0X0X0X0X0X0X0X0X0X0X0X0X0X0X0X0X0X0X0X0X0X0X0X0X0X0X0X0X0X0X0X0X0X0X0X0X0X0X0X0X0X0X0X0X0X0X0X0X0X0X0X0X0X0X0X0X0X0X0X0X0X0X0X0X0X0X0X0X0X0X0X0X0X0X0X0X0X0X0X0X0X0X0X0X0X0X0X0X0X0X0X0X0X0X0X0X0X0X0X0X0X0X0X0X0X0X0X0X0X0X0X0XcXbXbXbXbXbXbXbXbXbXbXbXbXbXbXbXbXbXbXbXcX0X0X0X0X0X0X0X0X0X0X0X0X0X0X0X0X0X0X0X0X0X0X0X0X0X0X0X0X0X0X0X0XjXbXbXbXbXbXbXbXbXbXbXbXbXbXbX",
"% $ $ $ <.^.=X,X,X,X,X,X,X,X,X,X,X,X,X,X,X,X,X,X,X,X,X,X,X,X,X,X,X,X,X,X,X,X,X,X,X,X,X,X,X,X,X,X,X,X,X,X,X,X,X,X,X,X,X,X,X,X,X,X,X,X,X,X,X,X,X,X,X,X,X,X,X,X,X,X,X,X,X,X,X,X,X,X,X,X,X,X,X,X4X0X0X0X0X0X0X0X0X0X0X0X0X0X0X0X0X0X0X0X0X0X0X0X0X0X0X0X0X0X0X0X0X0X4X<X,X,X,X,X,X,X,X,X,X,X,X,X,X,X,X,X,X,X,X,X,X,X,X,X,X,X,X,X,X,X4X0X0X0X0X0X0X0X0X0X0X0X0X0X0X0X0X0X0X9X,X,X,X,X,XO O : 9 9 9 9 9 9 # O = Y Y Y Y [ [ [ [ [ [ [ [ [ [ [ [ [ [ [ [ [ [ [ [ [ [ [ [ [ [ [ [ [ [ [ [ P n n F.F.F.l a a N.V.V.V.N.V.H.H.H.H.H.H.H.H.N.a a [.0X0X0X0X0X0X0X0X0X0X0X0X0X0X0X0X0X0X0X0X0X0X0X0X0X0X0X0X0X0X0X0X0X0X0X0X0X0X0X0X0X0X0X0X0X0X0X0X0X0X0X0X0X0X0X0X0X0X0X0X0X0X0X0X0X0X0X0X0X0X0X0X0X0X0X0X0X0X0X0X0X0X0X0X0X0X0X0X0X0X0X0X0X0X0X0X0X0X0X0X0X0X0X0X0X0X0X0X0X0X0X0X0X0X0X0X0X0X0X0X0X0X0X0X0X0X0X0X0X0X0X0X0X0X0X0X0X0X0X0X0X0X0X0X0X0X0X0X0X0X0X0X0X0X0X0XcXbXbXbXbXbXbXbXbXbXbXbXbXbXbXbXbXbXbXbXbXbXbXbXbXbXbXbXbXbXbXbXbXbXjX0X0X0X0X0X0X0X0X0XjXbXbXw.a a |.|.`.H.H.H.H.H.H.H.V.a a a a l F.F.F.F.F.n n M L L L L L L Y Y Y Y Y Y Y Y Y Y Y Y Y Y Y Y Y Y Y N n n [ [ [ [ [ [ [ [ [ [ [ [ [ [ [ [ [ [ [ [ [ [ [ [ [ [ [ [ [ [ [ [ [ [ [ [ [ [ [ [ [ [ [ [ [ [ [ [ [ ` Y Y Y Y ; O O 9 9 9 9 9 : O O 0X0X0X0X0X0X0X0X0X0X0X0X0X0X0X0X0X0X0X0X0X0X0X0X0X0X0X0X0X0X0X0X0X0X0X0X0X0X0X0X0X0X0X0X0X0X0X0X0X0X0X0X0X0X0X0X0X0X0X0X0X0X0X0X0X0X0X0X0X0X0X0X0X0X0X0X0X0X0X0X0X0X0X0X0X0X0X0X0X0X0X0X0X0X0X0X0X0X0X0X0X0X0X0X0X0X0X0X0X0X0X0X0X0X0X0X0X0X0X0X0X0X0X0X0X0X0X0XcXbXbXbXbXbXbXbXbXbXbXbXbXbXbXbXbXbXbXbXcX0X0X0X0X0X0X0X0X0X0X0X0X0X0X0X0X0X0X0X0X0X0X0X0X0X0X0X0X0X0X0X0XjXbXbXbXbXbXbXbXbXbXbXbXbXbXbXbX",
"$ q <.^.=X,X,X,X,X,X,X,X,X,X,X,X,X,X,X,X,X,X,X,X,X,X,X,X,X,X,X,X,X,X,X,X,X,X,X,X,X,X,X,X,X,X,X,X,X,X,X,X,X,X,X,X,X,X,X,X,X,X,X,X,X,X,X,X,X,X,X,X,X,X,X,X,X,X,X,X,X,X,X,X,X,X,X,X,X,X,X,X,X4X0X0X0X0X0X0X0X0X0X0X0X0X0X0X0X0X0X0X0X0X0X0X0X0X0X0X0X0X0X0X0X0X0X9X<X,X,X,X,X,X,X,X,X,X,X,X,X,X,X,X,X,X,X,X,X,X,X,X,X,X,X,X,X,X,X2X0X0X0X0X0X0X0X0X0X0X0X0X0X0X0X0X0X0X0X2X,X,X,X,X,XO O : 9 9 9 9 9 9 # O = Y Y Y Y [ [ [ [ [ [ [ [ [ [ [ [ [ [ [ [ [ [ [ [ [ [ [ [ [ [ [ [ [ [ [ [ P n n F.F.F.l a a N.V.V.V.N.V.H.H.H.H.H.H.H.H.N.a a [.0X0X0X0X0X0X0X0X0X0X0X0X0X0X0X0X0X0X0X0X0X0X0X0X0X0X0X0X0X0X0X0X0X0X0X0X0X0X0X0X0X0X0X0X0X0X0X0X0X0X0X0X0X0X0X0X0X0X0X0X0X0X0X0X0X0X0X0X0X0X0X0X0X0X0X0X0X0X0X0X0X0X0X0X0X0X0X0X0X0X0X0X0X0X0X0X0X0X0X0X0X0X0X0X0X0X0X0X0X0X0X0X0X0X0X0X0X0X0X0X0X0X0X0X0X0X0X0X0X0X0X0X0X0X0X0X0X0X0X0X0X0X0X0X0X0X0X0X0X0X0X0X0X0X0XjXbXbXbXbXbXbXbXbXbXbXbXbXbXbXbXbXbXbXbXbXbXbXbXbXbXbXbXbXbXbXbXbXbXcX0X0X0X0X0X0X0X0X0XjXbXbXbXw.a k |.|.`.H.H.H.H.H.H.H.V.a a a a N.F.F.F.F.F.n n N L L L L L L Y Y Y Y Y Y Y Y Y Y Y Y Y Y Y Y Y Y Y N n n [ [ [ [ [ [ [ [ [ [ [ [ [ [ [ [ [ [ [ [ [ [ [ [ [ [ [ [ [ [ [ [ [ [ [ [ [ [ [ [ [ [ [ [ [ [ [ [ [ ` Y Y Y Y ; O O 9 9 9 9 9 : O O 0X0X0X0X0X0X0X0X0X0X0X0X0X0X0X0X0X0X0X0X0X0X0X0X0X0X0X0X0X0X0X0X0X0X0X0X0X0X0X0X0X0X0X0X0X0X0X0X0X0X0X0X0X0X0X0X0X0X0X0X0X0X0X0X0X0X0X0X0X0X0X0X0X0X0X0X0X0X0X0X0X0X0X0X0X0X0X0X0X0X0X0X0X0X0X0X0X0X0X0X0X0X0X0X0X0X0X0X0X0X0X0X0X0X0X0X0X0X0X0X0X0X0X0X0X0X0XcXbXbXbXbXbXbXbXbXbXbXbXbXbXbXbXbXbXbXbXcX0X0X0X0X0X0X0X0X0X0X0X0X0X0X0X0X0X0X0X0X0X0X0X0X0X0X0X0X0X0X0X0X0XcXbXbXbXbXbXbXbXbXbXbXbXbXbXbXbX",
"^.%X=X,X,X,X,X,X,X,X,X,X,X,X,X,X,X,X,X,X,X,X,X,X,X,X,X,X,X,X,X,X,X,X,X,X,X,X,X,X,X,X,X,X,X,X,X,X,X,X,X,X,X,X,X,X,X,X,X,X,X,X,X,X,X,X,X,X,X,X,X,X,X,X,X,X,X,X,X,X,X,X,X,X,X,X,X,X,X,X,X,X2X0X0X0X0X0X0X0X0X0X0X0X0X0X0X0X0X0X0X0X0X0X0X0X0X0X0X0X0X0X0X0X0X0X0X2X,X,X,X,X,X,X,X,X,X,X,X,X,X,X,X,X,X,X,X,X,X,X,X,X,X,X,X,X,X,X,X0X0X0X0X0X0X0X0X0X0X0X0X0X0X0X0X0X0X0X4X<X,X,X,X,X,XO O : 9 9 9 9 9 9 # O = Y Y Y Y [ [ [ [ [ [ [ [ [ [ [ [ [ [ [ [ [ [ [ [ [ [ [ [ [ [ [ [ [ [ [ [ P n n F.F.F.l a a l V.V.V.V.V.H.H.H.H.H.H.H.H.N.a a [.0X0X0X0X0X0X0X0X0X0X0X0X0X0X0X0X0X0X0X0X0X0X0X0X0X0X0X0X0X0X0X0X0X0X0X0X0X0X0X0X0X0X0X0X0X0X0X0X0X0X0X0X0X0X0X0X0X0X0X0X0X0X0X0X0X0X0X0X0X0X0X0X0X0X0X0X0X0X0X0X0X0X0X0X0X0X0X0X0X0X0X0X0X0X0X0X0X0X0X0X0X0X0X0X0X0X0X0X0X0X0X0X0X0X0X0X0X0X0X0X0X0X0X0X0X0X0X0X0X0X0X0X0X0X0X0X0X0X0X0X0X0X0X0X0X0X0X0X0X0X0X0X0X0XjXbXbXbXbXbXbXbXbXbXbXbXbXbXbXbXbXbXbXbXbXbXbXbXbXbXbXbXbXbXbXbXbXbXbXjX0X0X0X0X0X0X0X0X0XcXbXbXbXw.a d |.|.`.H.H.H.H.H.H.H.N.a a a a N.F.F.F.F.F.n n Z L L L L L L Y Y Y Y Y Y Y Y Y Y Y Y Y Y Y Y Y Y Y N n n [ [ [ [ [ [ [ [ [ [ [ [ [ [ [ [ [ [ [ [ [ [ [ [ [ [ [ [ [ [ [ [ [ [ [ [ [ [ [ [ [ [ [ [ [ [ [ [ [ ` Y Y Y Y ; O O 9 9 9 9 9 : O O 0X0X0X0X0X0X0X0X0X0X0X0X0X0X0X0X0X0X0X0X0X0X0X0X0X0X0X0X0X0X0X0X0X0X0X0X0X0X0X0X0X0X0X0X0X0X0X0X0X0X0X0X0X0X0X0X0X0X0X0X0X0X0X0X0X0X0X0X0X0X0X0X0X0X0X0X0X0X0X0X0X0X0X0X0X0X0X0X0X0X0X0X0X0X0X0X0X0X0X0X0X0X0X0X0X0X0X0X0X0X0X0X0X0X0X0X0X0X0X0X0X0X0X0X0X0XjXbXbXbXbXbXbXbXbXbXbXbXbXbXbXbXbXbXbXbXcXjX0X0X0X0X0X0X0X0X0X0X0X0X0X0X0X0X0X0X0X0X0X0X0X0X0X0X0X0X0X0X0X0XjXbXbXbXbXbXbXbXbXbXbXbXbXbXbXbXbX",
",X,X,X,X,X,X,X,X,X,X,X,X,X,X,X,X,X,X,X,X,X,X,X,X,X,X,X,X,X,X,X,X,X,X,X,X,X,X,X,X,X,X,X,X,X,X,X,X,X,X,X,X,X,X,X,X,X,X,X,X,X,X,X,X,X,X,X,X,X,X,X,X,X,X,X,X,X,X,X,X,X,X,X,X,X,X,X,X,X,X,X,X4X0X0X0X0X0X0X0X0X0X0X0X0X0X0X0X0X0X0X0X0X0X0X0X0X0X0X0X0X0X0X0X0X0X4X,X,X,X,X,X,X,X,X,X,X,X,X,X,X,X,X,X,X,X,X,X,X,X,X,X,X,X,X,X,X,X4X0X0X0X0X0X0X0X0X0X0X0X0X0X0X0X0X0X0X9X<X,X,X,X,X,X,XO O : 9 9 9 9 9 9 # O = Y Y Y Y [ [ [ [ [ [ [ [ [ [ [ [ [ [ [ [ [ [ [ [ [ [ [ [ [ [ [ [ [ [ [ [ P n n F.F.F.l a a N.V.V.V.N.V.H.H.H.H.H.H.H.H.N.a a [.0X0X0X0X0X0X0X0X0X0X0X0X0X0X0X0X0X0X0X0X0X0X0X0X0X0X0X0X0X0X0X0X0X0X0X0X0X0X0X0X0X0X0X0X0X0X0X0X0X0X0X0X0X0X0X0X0X0X0X0X0X0X0X0X0X0X0X0X0X0X0X0X0X0X0X0X0X0X0X0X0X0X0X0X0X0X0X0X0X0X0X0X0X0X0X0X0X0X0X0X0X0X0X0X0X0X0X0X0X0X0X0X0X0X0X0X0X0X0X0X0X0X0X0X0X0X0X0X0X0X0X0X0X0X0X0X0X0X0X0X0X0X0X0X0X0X0X0X0X0X0X0X0X0XbXbXbXbXbXbXbXbXbXbXbXbXbXbXbXbXbXbXbXbXbXbXbXbXbXbXbXbXbXbXbXbXbXbXjX0X0X0X0X0X0X0X0X0XjXbXbXbXbXw.a a  X|.`.H.H.H.H.H.H.H.N.a a a a N.F.F.F.F.F.n n Z L L L L L L Y Y Y Y Y Y Y Y Y Y Y Y Y Y Y Y Y Y Y N n n [ [ [ [ [ [ [ [ [ [ [ [ [ [ [ [ [ [ [ [ [ [ [ [ [ [ [ [ [ [ [ [ [ [ [ [ [ [ [ [ [ [ [ [ [ [ [ [ [ ` Y Y Y Y ; O O 9 9 9 9 9 : O O 0X0X0X0X0X0X0X0X0X0X0X0X0X0X0X0X0X0X0X0X0X0X0X0X0X0X0X0X0X0X0X0X0X0X0X0X0X0X0X0X0X0X0X0X0X0X0X0X0X0X0X0X0X0X0X0X0X0X0X0X0X0X0X0X0X0X0X0X0X0X0X0X0X0X0X0X0X0X0X0X0X0X0X0X0X0X0X0X0X0X0X0X0X0X0X0X0X0X0X0X0X0X0X0X0X0X0X0X0X0X0X0X0X0X0X0X0X0X0X0X0X0X0X0X0XjXbXbXbXbXbXbXbXbXbXbXbXbXbXbXbXbXbXbXbXcXjX0X0X0X0X0X0X0X0X0X0X0X0X0X0X0X0X0X0X0X0X0X0X0X0X0X0X0X0X0X0X0X0XjXbXbXbXbXbXbXbXbXbXbXbXbXbXbXbXbXbX",
",X,X,X,X,X,X,X,X,X,X,X,X,X,X,X,X,X,X,X,X,X,X,X,X,X,X,X,X,X,X,X,X,X,X,X,X,X,X,X,X,X,X,X,X,X,X,X,X,X,X,X,X,X,X,X,X,X,X,X,X,X,X,X,X,X,X,X,X,X,X,X,X,X,X,X,X,X,X,X,X,X,X,X,X,X,X,X,X,X,X,X4X0X0X0X0X0X0X0X0X0X0X0X0X0X0X0X0X0X0X0X0X0X0X0X0X0X0X0X0X0X0X0X0X0X9X,X,X,X,X,X,X,X,X,X,X,X,X,X,X,X,X,X,X,X,X,X,X,X,X,X,X,X,X,X,X,X4X0X0X0X0X0X0X0X0X0X0X0X0X0X0X0X0X0X0X0X2X,X,X,X,X,X,X,XO O : 9 9 9 9 9 9 # O = Y Y Y Y [ [ [ [ [ [ [ [ [ [ [ [ [ [ [ [ [ [ [ [ [ [ [ [ [ [ [ [ [ [ [ [ P n n F.F.F.l a a l N.V.V.V.V.H.H.H.H.H.H.H.H.N.a a 9X0X0X0X0X0X0X0X0X0X0X0X0X0X0X0X0X0X0X0X0X0X0X0X0X0X0X0X0X0X0X0X0X0X0X0X0X0X0X0X0X0X0X0X0X0X0X0X0X0X0X0X0X0X0X0X0X0X0X0X0X0X0X0X0X0X0X0X0X0X0X0X0X0X0X0X0X0X0X0X0X0X0X0X0X0X0X0X0X0X0X0X0X0X0X0X0X0X0X0X0X0X0X0X0X0X0X0X0X0X0X0X0X0X0X0X0X0X0X0X0X0X0X0X0X0X0X0X0X0X0X0X0X0X0X0X0X0X0X0X0X0X0X0X0X0X0X0X0X0X0X0X0X0XcXbXbXbXbXbXbXbXbXbXbXbXbXbXbXbXbXbXbXbXbXbXbXbXbXbXbXbXbXbXbXbXbXbXcX0X0X0X0X0X0X0X0X0XjXbXbXbXbXbXw.a l 1X|.`.H.H.H.H.H.H.H.N.a a a a N.F.F.F.F.F.n n Z L L L L L L Y Y Y Y Y Y Y Y Y Y Y Y Y Y Y Y Y Y Y N n n [ [ [ [ [ [ [ [ [ [ [ [ [ [ [ [ [ [ [ [ [ [ [ [ [ [ [ [ [ [ [ [ [ [ [ [ [ [ [ [ [ [ [ [ [ [ [ [ [ ` Y Y Y Y ; O O 9 9 9 9 9 : O O 0X0X0X0X0X0X0X0X0X0X0X0X0X0X0X0X0X0X0X0X0X0X0X0X0X0X0X0X0X0X0X0X0X0X0X0X0X0X0X0X0X0X0X0X0X0X0X0X0X0X0X0X0X0X0X0X0X0X0X0X0X0X0X0X0X0X0X0X0X0X0X0X0X0X0X0X0X0X0X0X0X0X0X0X0X0X0X0X0X0X0X0X0X0X0X0X0X0X0X0X0X0X0X0X0X0X0X0X0X0X0X0X0X0X0X0X0X0X0X0X0X0X0X0XjXbXbXbXbXbXbXbXbXbXbXbXbXbXbXbXbXbXbXbXbXjX0X0X0X0X0X0X0X0X0X0X0X0X0X0X0X0X0X0X0X0X0X0X0X0X0X0X0X0X0X0X0X0X0XcXbXbXbXbXbXbXbXbXbXbXbXbXbXbXbXbXbX",
",X,X,X,X,X,X,X,X,X,X,X,X,X,X,X,X,X,X,X,X,X,X,X,X,X,X,X,X,X,X,X,X,X,X,X,X,X,X,X,X,X,X,X,X,X,X,X,X,X,X,X,X,X,X,X,X,X,X,X,X,X,X,X,X,X,X,X,X,X,X,X,X,X,X,X,X,X,X,X,X,X,X,X,X,X,X,X,X,X,X2X0X0X0X0X0X0X0X0X0X0X0X0X0X0X0X0X0X0X0X0X0X0X0X0X0X0X0X0X0X0X0X0X0X9X2X,X,X,X,X,X,X,X,X,X,X,X,X,X,X,X,X,X,X,X,X,X,X,X,X,X,X,X,X,X,X2X0X0X0X0X0X0X0X0X0X0X0X0X0X0X0X0X0X0X0X4X,X,X,X,X,X,X,X,XO O : 9 9 9 9 9 9 # O = Y Y Y Y [ [ [ [ [ [ [ [ [ [ [ [ [ [ [ [ [ [ [ [ [ [ [ [ [ [ [ [ [ [ [ [ P n n F.F.F.l a a l V.V.V.V.V.H.H.H.H.H.H.H.H.N.a a 0X0X0X0X0X0X0X0X0X0X0X0X0X0X0X0X0X0X0X0X0X0X0X0X0X0X0X0X0X0X0X0X0X0X0X0X0X0X0X0X0X0X0X0X0X0X0X0X0X0X0X0X0X0X0X0X0X0X0X0X0X0X0X0X0X0X0X0X0X0X0X0X0X0X0X0X0X0X0X0X0X0X0X0X0X0X0X0X0X0X0X0X0X0X0X0X0X0X0X0X0X0X0X0X0X0X0X0X0X0X0X0X0X0X0X0X0X0X0X0X0X0X0X0X0X0X0X0X0X0X0X0X0X0X0X0X0X0X0X0X0X0X0X0X0X0X0X0X0X0X0X0X0XjXbXbXbXbXbXbXbXbXbXbXbXbXbXbXbXbXbXbXbXbXbXbXbXbXbXbXbXbXbXbXbXbXbXcX0X0X0X0X0X0X0X0X0X0XcXbXbXbXbXbXw.a w.1X|.`.H.H.H.H.H.H.H.N.a a a a N.F.F.F.F.F.n n Z L L L L L L Y Y Y Y Y Y Y Y Y Y Y Y Y Y Y Y Y Y Y N n n [ [ [ [ [ [ [ [ [ [ [ [ [ [ [ [ [ [ [ [ [ [ [ [ [ [ [ [ [ [ [ [ [ [ [ [ [ [ [ [ [ [ [ [ [ [ [ [ [ ` Y Y Y Y ; O O 9 9 9 9 9 : O O 0X0X0X0X0X0X0X0X0X0X0X0X0X0X0X0X0X0X0X0X0X0X0X0X0X0X0X0X0X0X0X0X0X0X0X0X0X0X0X0X0X0X0X0X0X0X0X0X0X0X0X0X0X0X0X0X0X0X0X0X0X0X0X0X0X0X0X0X0X0X0X0X0X0X0X0X0X0X0X0X0X0X0X0X0X0X0X0X0X0X0X0X0X0X0X0X0X0X0X0X0X0X0X0X0X0X0X0X0X0X0X0X0X0X0X0X0X0X0X0X0X0X0XjXbXbXbXbXbXbXbXbXbXbXbXbXbXbXbXbXbXbXbXbXjX0X0X0X0X0X0X0X0X0X0X0X0X0X0X0X0X0X0X0X0X0X0X0X0X0X0X0X0X0X0X0X0X0XcXbXbXbXbXbXbXbXbXbXbXbXbXbXbXbXbXbXbX",
",X,X,X,X,X,X,X,X,X,X,X,X,X,X,X,X,X,X,X,X,X,X,X,X,X,X,X,X,X,X,X,X,X,X,X,X,X,X,X,X,X,X,X,X,X,X,X,X,X,X,X,X,X,X,X,X,X,X,X,X,X,X,X,X,X,X,X,X,X,X,X,X,X,X,X,X,X,X,X,X,X,X,X,X,X,X,X,X,X,X9X0X0X0X0X0X0X0X0X0X0X0X0X0X0X0X0X0X0X0X0X0X0X0X0X0X0X0X0X0X0X0X0X0X2X,X,X,X,X,X,X,X,X,X,X,X,X,X,X,X,X,X,X,X,X,X,X,X,X,X,X,X,X,X,X,X4X0X0X0X0X0X0X0X0X0X0X0X0X0X0X0X0X0X0X4X<X,X,X,X,X,X,X,X,XO O : 9 9 9 9 9 9 # O = Y Y Y Y [ [ [ [ [ [ [ [ [ [ [ [ [ [ [ [ [ [ [ [ [ [ [ [ [ [ [ [ [ [ [ [ P n n F.F.F.l a a N.V.V.V.N.V.H.H.H.H.H.H.H.H.N.a a 0X0X0X0X0X0X0X0X0X0X0X0X0X0X0X0X0X0X0X0X0X0X0X0X0X0X0X0X0X0X0X0X0X0X0X0X0X0X0X0X0X0X0X0X0X0X0X0X0X0X0X0X0X0X0X0X0X0X0X0X0X0X0X0X0X0X0X0X0X0X0X0X0X0X0X0X0X0X0X0X0X0X0X0X0X0X0X0X0X0X0X0X0X0X0X0X0X0X0X0X0X0X0X0X0X0X0X0X0X0X0X0X0X0X0X0X0X0X0X0X0X0X0X0X0X0X0X0X0X0X0X0X0X0X0X0X0X0X0X0X0X0X0X0X0X0X0X0X0X0X0X0XjXbXbXbXbXbXbXbXbXbXbXbXbXbXbXbXbXbXbXbXbXbXbXbXbXbXbXbXbXbXbXbXbXbXbXjX0X0X0X0X0X0X0X0X0XjXbXbXbXbXbXbXw.a w.1X|._.H.H.H.H.H.H.H.N.a a a a N.F.F.F.F.F.n n Z L L L L L L Y Y Y Y Y Y Y Y Y Y Y Y Y Y Y Y Y Y Y N n n [ [ [ [ [ [ [ [ [ [ [ [ [ [ [ [ [ [ [ [ [ [ [ [ [ [ [ [ [ [ [ [ [ [ [ [ [ [ [ [ [ [ [ [ [ [ [ [ [ ` Y Y Y Y ; O O 9 9 9 9 9 : O O 0X0X0X0X0X0X0X0X0X0X0X0X0X0X0X0X0X0X0X0X0X0X0X0X0X0X0X0X0X0X0X0X0X0X0X0X0X0X0X0X0X0X0X0X0X0X0X0X0X0X0X0X0X0X0X0X0X0X0X0X0X0X0X0X0X0X0X0X0X0X0X0X0X0X0X0X0X0X0X0X0X0X0X0X0X0X0X0X0X0X0X0X0X0X0X0X0X0X0X0X0X0X0X0X0X0X0X0X0X0X0X0X0X0X0X0X0X0X0X0X0X0XjXbXbXbXbXbXbXbXbXbXbXbXbXbXbXbXbXbXbXbXbXjX0X0X0X0X0X0X0X0X0X0X0X0X0X0X0X0X0X0X0X0X0X0X0X0X0X0X0X0X0X0X0X0X0XjXbXbXbXbXbXbXbXbXbXbXbXbXbXbXbXbXbXbXbX",
",X,X,X,X,X,X,X,X,X,X,X,X,X,X,X,X,X,X,X,X,X,X,X,X,X,X,X,X,X,X,X,X,X,X,X,X,X,X,X,X,X,X,X,X,X,X,X,X,X,X,X,X,X,X,X,X,X,X,X,X,X,X,X,X,X,X,X,X,X,X,X,X,X,X,X,X,X,X,X,X,X,X,X,X,X,X,X,X,X4X0X0X0X0X0X0X0X0X0X0X0X0X0X0X0X0X0X0X0X0X0X0X0X0X0X0X0X0X0X0X0X0X0X4X,X,X,X,X,X,X,X,X,X,X,X,X,X,X,X,X,X,X,X,X,X,X,X,X,X,X,X,X,X,X,X4X0X0X0X0X0X0X0X0X0X0X0X0X0X0X0X0X0X0X9X,X,X,X,X,X,X,X,X,X,XO O : 9 9 9 9 9 9 # O = Y Y Y Y ` [ [ [ [ [ [ [ [ [ [ [ [ [ [ [ [ [ [ [ [ [ [ [ [ [ [ [ [ [ [ [ P n n F.F.F.l a a N.V.V.V.V.V.H.H.H.H.H.H.H.H.N.a a 0X0X0X0X0X0X0X0X0X0X0X0X0X0X0X0X0X0X0X0X0X0X0X0X0X0X0X0X0X0X0X0X0X0X0X0X0X0X0X0X0X0X0X0X0X0X0X0X0X0X0X0X0X0X0X0X0X0X0X0X0X0X0X0X0X0X0X0X0X0X0X0X0X0X0X0X0X0X0X0X0X0X0X0X0X0X0X0X0X0X0X0X0X0X0X0X0X0X0X0X0X0X0X0X0X0X0X0X0X0X0X0X0X0X0X0X0X0X0X0X0X0X0X0X0X0X0X0X0X0X0X0X0X0X0X0X0X0X0X0X0X0X0X0X0X0X0X0X0X0X0X0XcXbXbXbXbXbXbXbXbXbXbXbXbXbXbXbXbXbXbXbXbXbXbXbXbXbXbXbXbXbXbXbXbXbXjX0X0X0X0X0X0X0X0X0XjXbXbXbXbXbXbXbXw.a w.|.|._.H.H.H.H.H.H.H.N.a a a a N.F.F.F.F.F.n n Z L L L L L L Y Y Y Y Y Y Y Y Y Y Y Y Y Y Y Y Y Y Y N n n [ [ [ [ [ [ [ [ [ [ [ [ [ [ [ [ [ [ [ [ [ [ [ [ [ [ [ [ [ [ [ [ [ [ [ [ [ [ [ [ [ [ [ [ [ [ [ [ [ ` Y Y Y Y ; O O 9 9 9 9 9 : O O 0X0X0X0X0X0X0X0X0X0X0X0X0X0X0X0X0X0X0X0X0X0X0X0X0X0X0X0X0X0X0X0X0X0X0X0X0X0X0X0X0X0X0X0X0X0X0X0X0X0X0X0X0X0X0X0X0X0X0X0X0X0X0X0X0X0X0X0X0X0X0X0X0X0X0X0X0X0X0X0X0X0X0X0X0X0X0X0X0X0X0X0X0X0X0X0X0X0X0X0X0X0X0X0X0X0X0X0X0X0X0X0X0X0X0X0X0X0X0X0X0X0XcXbXbXbXbXbXbXbXbXbXbXbXbXbXbXbXbXbXbXbXcX0X0X0X0X0X0X0X0X0X0X0X0X0X0X0X0X0X0X0X0X0X0X0X0X0X0X0X0X0X0X0X0X0XjXbXbXbXbXbXbXbXbXbXbXbXbXbXbXbXbXbXbXbXbX",
",X,X,X,X,X,X,X,X,X,X,X,X,X,X,X,X,X,X,X,X,X,X,X,X,X,X,X,X,X,X,X,X,X,X,X,X,X,X,X,X,X,X,X,X,X,X,X,X,X,X,X,X,X,X,X,X,X,X,X,X,X,X,X,X,X,X,X,X,X,X,X,X,X,X,X,X,X,X,X,X,X,X,X,X,X,X,X,X4X0X0X0X0X0X0X0X0X0X0X0X0X0X0X0X0X0X0X0X0X0X0X0X0X0X0X0X0X0X0X0X0X0X9X2X,X,X,X,X,X,X,X,X,X,X,X,X,X,X,X,X,X,X,X,X,X,X,X,X,X,X,X,X,X,X2X0X0X0X0X0X0X0X0X0X0X0X0X0X0X0X0X0X0X0X2X,X,X,X,X,X,X,X,X,X,XO O : 9 9 9 9 9 9 # O = Y Y Y Y ` [ [ [ [ [ [ [ [ [ [ [ [ [ [ [ [ [ [ [ [ [ [ [ [ [ [ [ [ [ [ [ P n n F.F.F.l a a N.V.V.V.V.V.H.H.H.H.H.H.H.H.N.a a 0X0X0X0X0X0X0X0X0X0X0X0X0X0X0X0X0X0X0X0X0X0X0X0X0X0X0X0X0X0X0X0X0X0X0X0X0X0X0X0X0X0X0X0X0X0X0X0X0X0X0X0X0X0X0X0X0X0X0X0X0X0X0X0X0X0X0X0X0X0X0X0X0X0X0X0X0X0X0X0X0X0X0X0X0X0X0X0X0X0X0X0X0X0X0X0X0X0X0X0X0X0X0X0X0X0X0X0X0X0X0X0X0X0X0X0X0X0X0X0X0X0X0X0X0X0X0X0X0X0X0X0X0X0X0X0X0X0X0X0X0X0X0X0X0X0X0X0X0X0X0XjXbXbXbXbXbXbXbXbXbXbXbXbXbXbXbXbXbXbXbXbXbXbXbXbXbXbXbXbXbXbXbXbXbXcX0X0X0X0X0X0X0X0X0X0XcXbXbXbXbXbXbXbXd a N.|.|.).H.H.H.H.H.H.H.N.a a a a N.F.F.F.F.F.n n Z L L L L L L Y Y Y Y Y Y Y Y Y Y Y Y Y Y Y Y Y Y Y N n n [ [ [ [ [ [ [ [ [ [ [ [ [ [ [ [ [ [ [ [ [ [ [ [ [ [ [ [ [ [ [ [ [ [ [ [ [ [ [ [ [ [ [ [ [ [ [ [ [ ` Y Y Y Y ; O O 9 9 9 9 9 : O O 0X0X0X0X0X0X0X0X0X0X0X0X0X0X0X0X0X0X0X0X0X0X0X0X0X0X0X0X0X0X0X0X0X0X0X0X0X0X0X0X0X0X0X0X0X0X0X0X0X0X0X0X0X0X0X0X0X0X0X0X0X0X0X0X0X0X0X0X0X0X0X0X0X0X0X0X0X0X0X0X0X0X0X0X0X0X0X0X0X0X0X0X0X0X0X0X0X0X0X0X0X0X0X0X0X0X0X0X0X0X0X0X0X0X0X0X0X0X0X0X0XcXbXbXbXbXbXbXbXbXbXbXbXbXbXbXbXbXbXbXbXcX0X0X0X0X0X0X0X0X0X0X0X0X0X0X0X0X0X0X0X0X0X0X0X0X0X0X0X0X0X0X0X0X0X0XcXbXbXbXbXbXbXbXbXbXbXbXbXbXbXbXbXbXbXbXbX",
",X,X,X,X,X,X,X,X,X,X,X,X,X,X,X,X,X,X,X,X,X,X,X,X,X,X,X,X,X,X,X,X,X,X,X,X,X,X,X,X,X,X,X,X,X,X,X,X,X,X,X,X,X,X,X,X,X,X,X,X,X,X,X,X,X,X,X,X,X,X,X,X,X,X,X,X,X,X,X,X,X,X,X,X,X,X,X2X0X0X0X0X0X0X0X0X0X0X0X0X0X0X0X0X0X0X0X0X0X0X0X0X0X0X0X0X0X0X0X0X0X0X2X,X,X,X,X,X,X,X,X,X,X,X,X,X,X,X,X,X,X,X,X,X,X,X,X,X,X,X,X,X,X2X0X0X0X0X0X0X0X0X0X0X0X0X0X0X0X0X0X0X0X4X,X,X,X,X,X,X2X2X4X4X4XO O : 9 9 9 9 9 9 # O = Y Y Y Y ` [ [ [ [ [ [ [ [ [ [ [ [ [ [ [ [ [ [ [ [ [ [ [ [ [ [ [ [ [ [ [ P n n F.F.F.l a a N.V.V.V.V.V.H.H.H.H.H.H.H.H.N.a a 0X0X0X0X0X0X0X0X0X0X0X0X0X0X0X0X0X0X0X0X0X0X0X0X0X0X0X0X0X0X0X0X0X0X0X0X0X0X0X0X0X0X0X0X0X0X0X0X0X0X0X0X0X0X0X0X0X0X0X0X0X0X0X0X0X0X0X0X0X0X0X0X0X0X0X0X0X0X0X0X0X0X0X0X0X0X0X0X0X0X0X0X0X0X0X0X0X0X0X0X0X0X0X0X0X0X0X0X0X0X0X0X0X0X0X0X0X0X0X0X0X0X0X0X0X0X0X0X0X0X0X0X0X0X0X0X0X0X0X0X0X0X0X0X0X0X0X0X0X0XjXbXbXbXbXbXbXbXbXbXbXbXbXbXbXbXbXbXbXbXbXbXbXbXbXbXbXbXbXbXbXbXbXbXbXjX0X0X0X0X0X0X0X0X0XjXbXbXbXbXbXbXbXbXa a w.|.|.).H.H.H.H.H.H.H.N.a a a a N.F.F.F.F.F.n n Z L L L L L U Y Y Y Y Y Y Y Y Y Y Y Y Y Y Y Y Y Y Y N n n [ [ [ [ [ [ [ [ [ [ [ [ [ [ [ [ [ [ [ [ [ [ [ [ [ [ [ [ [ [ [ [ [ [ [ [ [ [ [ [ [ [ [ [ [ [ [ [ [ ` Y Y Y Y ; O O 9 9 9 9 9 : O O 0X0X0X0X0X0X0X0X0X0X0X0X0X0X0X0X0X0X0X0X0X0X0X0X0X0X0X0X0X0X0X0X0X0X0X0X0X0X0X0X0X0X0X0X0X0X0X0X0X0X0X0X0X0X0X0X0X0X0X0X0X0X0X0X0X0X0X0X0X0X0X0X0X0X0X0X0X0X0X0X0X0X0X0X0X0X0X0X0X0X0X0X0X0X0X0X0X0X0X0X0X0X0X0X0X0X0X0X0X0X0X0X0X0X0X0X0X0X0X0XjXbXbXbXbXbXbXbXbXbXbXbXbXbXbXbXbXbXbXbXcX0X0X0X0X0X0X0X0X0X0X0X0X0X0X0X0X0X0X0X0X0X0X0X0X0X0X0X0X0X0X0X0X0X0XjXbXbXbXbXbXbXbXbXbXbXbXbXbXbXbXbXbXbXbXbXbX",
",X,X,X,X,X,X,X,X,X,X,X,X,X,X,X,X,X,X,X,X,X,X,X,X,X,X,X,X,X,X,X,X,X,X,X,X,X,X,X,X,X,X,X,X,X,X,X,X,X,X,X,X,X,X,X,X,X,X,X,X,X,X,X,X,X,X,X,X,X,X,X,X,X,X,X,X,X,X,X,X,X,X,X,X,X,X,X4X0X0X0X0X0X0X0X0X0X0X0X0X0X0X0X0X0X0X0X0X0X0X0X0X0X0X0X0X0X0X0X0X0X4X<X,X,X,X,X,X,X,X,X,X,X,X,X,X,X,X,X,X,X,X,X,X,X,X,X,X,X,X,X,X,X4X0X0X0X0X0X0X0X0X0X0X0X0X0X0X0X0XjXjX0X4X4X9X9X0X0X0X0X0X0X0X0XO O : 9 9 9 9 9 9 # O = Y Y Y Y ` [ [ [ [ [ [ [ [ [ [ [ [ [ [ [ [ [ [ [ [ [ [ [ [ [ [ [ [ [ [ [ P n n F.F.F.l a a N.V.V.V.V.V.H.H.H.H.H.H.H.H.k a a 0X0X0X0X0X0X0X0X0X0X0X0X0X0X0X0X0X0X0X0X0X0X0X0X0X0X0X0X0X0X0X0X0X0X0X0X0X0X0X0X0X0X0X0X0X0X0X0X0X0X0X0X0X0X0X0X0X0X0X0X0X0X0X0X0X0X0X0X0X0X0X0X0X0X0X0X0X0X0X0X0X0X0X0X0X0X0X0X0X0X0X0X0X0X0X0X0X0X0X0X0X0X0X0X0X0X0X0X0X0X0X0X0X0X0X0X0X0X0X0X0X0X0X0X0X0X0X0X0X0X0X0X0X0X0X0X0X0X0X0X0X0X0X0X0X0X0X0X0X0XbXbXbXbXbXbXbXbXbXbXbXbXbXbXbXbXbXbXbXbXbXbXbXbXbXbXbXbXbXbXbXbXbXbXjX0X0X0X0X0X0X0X0X0XjXbXbXbXbXbXbXbXbXbXa a w.|.|.).H.H.H.H.H.H.H.N.a a a a N.F.F.F.F.F.n n Z L L L L L U Y Y Y Y Y Y Y Y Y Y Y Y Y Y Y Y Y Y Y N n n [ [ [ [ [ [ [ [ [ [ [ [ [ [ [ [ [ [ [ [ [ [ [ [ [ [ [ [ [ [ [ [ [ [ [ [ [ [ [ [ [ [ [ [ [ [ [ [ [ ` Y Y Y Y ; O O 9 9 9 9 9 : O O 0X0X0X0X0X0X0X0X0X0X0X0X0X0X0X0X0X0X0X0X0X0X0X0X0X0X0X0X0X0X0X0X0X0X0X0X0X0X0X0X0X0X0X0X0X0X0X0X0X0X0X0X0X0X0X0X0X0X0X0X0X0X0X0X0X0X0X0X0X0X0X0X0X0X0X0X0X0X0X0X0X0X0X0X0X0X0X0X0X0X0X0X0X0X0X0X0X0X0X0X0X0X0X0X0X0X0X0X0X0X0X0X0X0X0X0X0X0X0XjXbXbXbXbXbXbXbXbXbXbXbXbXbXbXbXbXbXbXbXcXjX0X0X0X0X0X0X0X0X0X0X0X0X0X0X0X0X0X0X0X0X0X0X0X0X0X0X0X0X0X0X0X0X0XjXbXbXbXbXbXbXbXbXbXbXbXbXbXbXbXbXbXbXbXbXbXbX",
",X,X,X,X,X,X,X,X,X,X,X,X,X,X,X,X,X,X,X,X,X,X,X,X,X,X,X,X,X,X,X,X,X,X,X,X,X,X,X,X,X,X,X,X,X,X,X,X,X,X,X,X,X,X,X,X,X,X,X,X,X,X,X,X,X,X,X,X,X,X,X,X,X,X,X,X,X,X,X,X,X,X,X,X,X,X4X0X0X0X0X0X0X0X0X0X0X0X0X0X0X0X0X0X0X0X0X0X0X0X0X0X0X0X0X0X0X0X0X0X9X2X,X,X,X,X,X,X,X,X,X,X,X,X,X,X,X,X,X,X,X,X,X,X,X,X,X,X,X,X,X,X4X0X0X0X0X0X0X0X0XjXjXjXjXjXcXcXcXcXbXcX0X0X0X0X0X0X0X0X0X0X0X0X0XO O : 9 9 9 9 9 9 # O = Y Y Y Y ` [ [ [ [ [ [ [ [ [ [ [ [ [ [ [ [ [ [ [ [ [ [ [ [ [ [ [ [ [ [ [ P n n F.F.F.l a a N.V.V.V.V.F.H.H.H.H.H.H.H.H.j a a 0X0X0X0X0X0X0X0X0X0X0X0X0X0X0X0X0X0X0X0X0X0X0X0X0X0X0X0X0X0X0X0X0X0X0X0X0X0X0X0X0X0X0X0X0X0X0X0X0X0X0X0X0X0X0X0X0X0X0X0X0X0X0X0X0X0X0X0X0X0X0X0X0X0X0X0X0X0X0X0X0X0X0X0X0X0X0X0X0X0X0X0X0X0X0X0X0X0X0X0X0X0X0X0X0X0X0X0X0X0X0X0X0X0X0X0X0X0X0X0X0X0X0X0X0X0X0X0X0X0X0X0X0X0X0X0X0X0X0X0X0X0X0X0X0X0X0X0X0XcXbXbXbXbXbXbXbXbXbXbXbXbXbXbXbXbXbXbXbXbXbXbXbXbXbXbXbXbXbXbXbXbXbXcX0X0X0X0X0X0X0X0X0X0XbXbXbXbXbXbXbXbXbXbXa a w.|.|.).H.H.H.H.H.H.H.N.a a a a N.F.F.F.F.F.n n Z L L L L L U Y Y Y Y Y Y Y Y Y Y Y Y Y Y Y Y Y Y Y N n n [ [ [ [ [ [ [ [ [ [ [ [ [ [ [ [ [ [ [ [ [ [ [ [ [ [ [ [ [ [ [ [ [ [ [ [ [ [ [ [ [ [ [ [ [ [ [ [ [ ` Y Y Y Y ; O O 9 9 9 9 9 : O O 0X0X0X0X0X0X0X0X0X0X0X0X0X0X0X0X0X0X0X0X0X0X0X0X0X0X0X0X0X0X0X0X0X0X0X0X0X0X0X0X0X0X0X0X0X0X0X0X0X0X0X0X0X0X0X0X0X0X0X0X0X0X0X0X0X0X0X0X0X0X0X0X0X0X0X0X0X0X0X0X0X0X0X0X0X0X0X0X0X0X0X0X0X0X0X0X0X0X0X0X0X0X0X0X0X0X0X0X0X0X0X0X0X0X0X0X0X0XjXbXbXbXbXbXbXbXbXbXbXbXbXbXbXbXbXbXbXbXcXjX0X0X0X0X0X0X0X0X0X0X0X0X0X0X0X0X0X0X0X0X0X0X0X0X0X0X0X0X0X0X0X0X0X0XcXbXbXbXbXbXbXbXbXbXbXbXbXbXbXbXbXbXbXbXbXbXbX",
",X,X,X,X,X,X,X,X,X,X,X,X,X,X,X,X,X,X,X,X,X,X,X,X,X,X,X,X,X,X,X,X,X,X,X,X,X,X,X,X,X,X,X,X,X,X,X,X,X,X,X,X,X,X,X,X,X,X,X,X,X,X,X,X,X,X,X,X,X,X,X,X,X,X,X,X,X,X,X,X,X,X,X,X,X2X0X0X0X0X0X0X0X0X0X0X0X0X0X0X0X0X0X0X0X0X0X0X0X0X0X0X0X0X0X0X0X0X0X0X2X,X,X,X,X,X,X,X,X,X,X,X,X,X,X,X,X,X,X,X,X,X,X,X,X,X,X,X,X,X,X4X0XjXjXjXcXcXcXcXcXbXbXbXbXbXbXbXbXbXbXjX0X0X0X0X0X0X0X0X0X0X0X0X0XO O : 9 9 9 9 9 9 # O = Y Y Y Y ` [ [ [ [ [ [ [ [ [ [ [ [ [ [ [ [ [ [ [ [ [ [ [ [ [ [ [ [ [ [ [ P n n F.F.F.l a a N.V.V.B.B.F.H.H.H.H.H.H.H.H.j a a 0X0X0X0X0X0X0X0X0X0X0X0X0X0X0X0X0X0X0X0X0X0X0X0X0X0X0X0X0X0X0X0X0X0X0X0X0X0X0X0X0X0X0X0X0X0X0X0X0X0X0X0X0X0X0X0X0X0X0X0X0X0X0X0X0X0X0X0X0X0X0X0X0X0X0X0X0X0X0X0X0X0X0X0X0X0X0X0X0X0X0X0X0X0X0X0X0X0X0X0X0X0X0X0X0X0X0X0X0X0X0X0X0X0X0X0X0X0X0X0X0X0X0X0X0X0X0X0X0X0X0X0X0X0X0X0X0X0X0X0X0X0X0X0X0X0X0X0XjXbXbXbXbXbXbXbXbXbXbXbXbXbXbXbXbXbXbXbXbXbXbXbXbXbXbXbXbXbXbXbXbXbXbXjX0X0X0X0X0X0X0X0X0XcXbXbXbXbXbXbXbXbXbXbXa a w.|.|.).H.H.H.H.H.H.H.k a a a a N.F.F.F.F.F.n n Z L L L L L U Y Y Y Y Y Y Y Y Y Y Y Y Y Y Y Y Y Y Y N n n [ [ [ [ [ [ [ [ [ [ [ [ [ [ [ [ [ [ [ [ [ [ [ [ [ [ [ [ [ [ [ [ [ [ [ [ [ [ [ [ [ [ [ [ [ [ [ [ [ ` Y Y Y Y ; O O 9 9 9 9 9 : O O 0X0X0X0X0X0X0X0X0X0X0X0X0X0X0X0X0X0X0X0X0X0X0X0X0X0X0X0X0X0X0X0X0X0X0X0X0X0X0X0X0X0X0X0X0X0X0X0X0X0X0X0X0X0X0X0X0X0X0X0X0X0X0X0X0X0X0X0X0X0X0X0X0X0X0X0X0X0X0X0X0X0X0X0X0X0X0X0X0X0X0X0X0X0X0X0X0X0X0X0X0X0X0X0X0X0X0X0X0X0X0X0X0X0X0X0X0XjXbXbXbXbXbXbXbXbXbXbXbXbXbXbXbXbXbXbXbXbXjX0X0X0X0X0X0X0X0X0X0X0X0X0X0X0X0X0X0X0X0X0X0X0X0X0X0X0X0X0X0X0X0X0X0XjXbXbXbXbXbXbXbXbXbXbXbXbXbXbXbXbXbXbXbXbXbXbXbX",
",X,X,X,X,X,X,X,X,X,X,X,X,X,X,X,X,X,X,X,X,X,X,X,X,X,X,X,X,X,X,X,X,X,X,X,X,X,X,X,X,X,X,X,X,X,X,X,X,X,X,X,X,X,X,X,X,X,X,X,X,X,X,X,X,X,X,X,X,X,X,X,X,X,X,X,X,X,X,X,X,X,X,X,X,X4X0X0X0X0X0X0X0X0X0X0X0X0X0X0X0X0X0X0X0X0X0X0X0X0X0X0X0X0X0X0X0X0X0X4X,X,X,X,X,X,X,X,X,X,X,X,X,X,X,X,X,X,X,X,X,X2X2X4X4X4X9X9X0X0X0XcXbXbXbXbXbXbXbXbXbXbXbXbXbXbXbXbXbXbXcX0X0X0X0X0X0X0X0X0X0X0X0X0X0XO O : 9 9 9 9 9 9 # O = Y Y Y Y ` [ [ [ [ [ [ [ [ [ [ [ [ [ [ [ [ [ [ [ [ [ [ [ [ [ [ [ [ [ [ [ P n n F.F.F.l a a N.V.V.V.B.F.H.H.H.H.H.H.H.H.j a a 0X0X0X0X0X0X0X0X0X0X0X0X0X0X0X0X0X0X0X0X0X0X0X0X0X0X0X0X0X0X0X0X0X0X0X0X0X0X0X0X0X0X0X0X0X0X0X0X0X0X0X0X0X0X0X0X0X0X0X0X0X0X0X0X0X0X0X0X0X0X0X0X0X0X0X0X0X0X0X0X0X0X0X0X0X0X0X0X0X0X0X0X0X0X0X0X0X0X0X0X0X0X0X0X0X0X0X0X0X0X0X0X0X0X0X0X0X0X0X0X0X0X0X0X0X0X0X0X0X0X0X0X0X0X0X0X0X0X0X0X0X0X0X0X0X0X0XjXbXbXbXbXbXbXbXbXbXbXbXbXbXbXbXbXbXbXbXbXbXbXbXbXbXbXbXbXbXbXbXbXbXbXjX0X0X0X0X0X0X0X0X0XjXbXbXbXbXbXbXbXbXbXbXbXa a w.|.|.).H.H.H.H.H.H.H.j a a a a N.F.F.F.F.F.n n Z L L L L L U Y Y Y Y Y Y Y Y Y Y Y Y Y Y Y Y Y Y Y N n n [ [ [ [ [ [ [ [ [ [ [ [ [ [ [ [ [ [ [ [ [ [ [ [ [ [ [ [ [ [ [ [ [ [ [ [ [ [ [ [ [ [ [ [ [ [ [ [ [ ` Y Y Y Y ; O O 9 9 9 9 9 : O O 0X0X0X0X0X0X0X0X0X0X0X0X0X0X0X0X0X0X0X0X0X0X0X0X0X0X0X0X0X0X0X0X0X0X0X0X0X0X0X0X0X0X0X0X0X0X0X0X0X0X0X0X0X0X0X0X0X0X0X0X0X0X0X0X0X0X0X0X0X0X0X0X0X0X0X0X0X0X0X0X0X0X0X0X0X0X0X0X0X0X0X0X0X0X0X0X0X0X0X0X0X0X0X0X0X0X0X0X0X0X0X0X0X0X0X0XjXbXbXbXbXbXbXbXbXbXbXbXbXbXbXbXbXbXbXbXbXjX0X0X0X0X0X0X0X0X0X0X0X0X0X0X0X0X0X0X0X0X0X0X0X0X0X0X0X0X0X0X0X0X0X0XjXbXbXbXbXbXbXbXbXbXbXbXbXbXbXbXbXbXbXbXbXbXbXbXbX",
",X,X,X,X,X,X,X,X,X,X,X,X,X,X,X,X,X,X,X,X,X,X,X,X,X,X,X,X,X,X,X,X,X,X,X,X,X,X,X,X,X,X,X,X,X,X,X,X,X,X,X,X,X,X,X,X,X,X,X,X,X,X,X,X,X,X,X,X,X,X,X,X,X,X,X,X,X,X,X,X,X,X,X,X4X0X0X0X0X0X0X0X0X0X0X0X0X0X0X0X0X0X0X0X0X0X0X0X0X0X0X0X0X0X0X0X0X0X4X<X,X,X,X,X,X,X,X,X,X,X,X,X2X2X4X4X4X9X9X0X0X0X0X0X0X0X0X0X0X0XcXbXbXbXbXbXbXbXbXbXbXbXbXbXbXbXbXbXbXcXjX0X0X0X0X0X0X0X0X0X0X0X0X0X0XO O : 9 9 9 9 9 9 # O = Y Y Y Y ` [ [ [ [ [ [ [ [ [ [ [ [ [ [ [ [ [ [ [ [ [ [ [ [ [ [ [ [ [ [ [ P n n F.F.F.l a a l V.N.N.B.F.H.H.H.H.H.H.H.H.j a a 0X0X0X0X0X0X0X0X0X0X0X0X0X0X0X0X0X0X0X0X0X0X0X0X0X0X0X0X0X0X0X0X0X0X0X0X0X0X0X0X0X0X0X0X0X0X0X0X0X0X0X0X0X0X0X0X0X0X0X0X0X0X0X0X0X0X0X0X0X0X0X0X0X0X0X0X0X0X0X0X0X0X0X0X0X0X0X0X0X0X0X0X0X0X0X0X0X0X0X0X0X0X0X0X0X0X0X0X0X0X0X0X0X0X0X0X0X0X0X0X0X0X0X0X0X0X0X0X0X0X0X0X0X0X0X0X0X0X0X0X0X0X0X0X0X0X0XcXbXbXbXbXbXbXbXbXbXbXbXbXbXbXbXbXbXbXbXbXbXbXbXbXbXbXbXbXbXbXbXbXbXcX0X0X0X0X0X0X0X0X0XjXbXbXbXbXbXbXbXbXbXbXbXbXa a w.|.|.).H.H.H.H.H.H.H.j a a a a N.F.F.F.F.F.n n Z L L L L L Y Y Y Y Y Y Y Y Y Y Y Y Y Y Y Y Y Y Y Y N n n [ [ [ [ [ [ [ [ [ [ [ [ [ [ [ [ [ [ [ [ [ [ [ [ [ [ [ [ [ [ [ [ [ [ [ [ [ [ [ [ [ [ [ [ [ [ [ [ [ ` Y Y Y Y ; O O 9 9 9 9 9 : O O 0X0X0X0X0X0X0X0X0X0X0X0X0X0X0X0X0X0X0X0X0X0X0X0X0X0X0X0X0X0X0X0X0X0X0X0X0X0X0X0X0X0X0X0X0X0X0X0X0X0X0X0X0X0X0X0X0X0X0X0X0X0X0X0X0X0X0X0X0X0X0X0X0X0X0X0X0X0X0X0X0X0X0X0X0X0X0X0X0X0X0X0X0X0X0X0X0X0X0X0X0X0X0X0X0X0X0X0X0X0X0X0X0X0X0XjXbXbXbXbXbXbXbXbXbXbXbXbXbXbXbXbXbXbXbXbXjX0X0X0X0X0X0X0X0X0X0X0X0X0X0X0X0X0X0X0X0X0X0X0X0X0X0X0X0X0X0X0X0X0X0XjXbXbXbXbXbXbXbXbXbXbXbXbXbXbXbXbXbXbXbXbXbXbXbXbXbX",
",X,X,X,X,X,X,X,X,X,X,X,X,X,X,X,X,X,X,X,X,X,X,X,X,X,X,X,X,X,X,X,X,X,X,X,X,X,X,X,X,X,X,X,X,X,X,X,X,X,X,X,X,X,X,X,X,X,X,X,X,X,X,X,X,X,X,X,X,X,X,X,X,X,X,X,X,X,X,X,X,X,X,X2X0X0X0X0X0X0X0X0X0X0X0X0X0X0X0X0X0X0X0X0X0X0X0X0X0X0X0X0X0X0X0X0X0X9X2X,X,X,X2X2X4X4X4X9X9X0X0X0X0X0X0X0X0X0X0X0X0X0X0X0X0X0X0X0X0XjXbXbXbXbXbXbXbXbXbXbXbXbXbXbXbXbXbXbXbXjX0X0X0X0X0X0X0X0X0X0X0X0X0X0X0XO O : 9 9 9 9 9 9 # O = Y Y Y Y ` [ [ [ [ [ [ [ [ [ [ [ [ [ [ [ [ [ [ [ [ [ [ [ [ [ [ [ [ [ [ [ P n n F.F.F.l a a x.V.V.N.N.F.H.H.H.H.H.H.H.H.j a a 0X0X0X0X0X0X0X0X0X0X0X0X0X0X0X0X0X0X0X0X0X0X0X0X0X0X0X0X0X0X0X0X0X0X0X0X0X0X0X0X0X0X0X0X0X0X0X0X0X0X0X0X0X0X0X0X0X0X0X0X0X0X0X0X0X0X0X0X0X0X0X0X0X0X0X0X0X0X0X0X0X0X0X0X0X0X0X0X0X0X0X0X0X0X0X0X0X0X0X0X0X0X0X0X0X0X0X0X0X0X0X0X0X0X0X0X0X0X0X0X0X0X0X0X0X0X0X0X0X0X0X0X0X0X0X0X0X0X0X0X0X0X0X0X0X0XjXbXbXbXbXbXbXbXbXbXbXbXbXbXbXbXbXbXbXbXbXbXbXbXbXbXbXbXbXbXbXbXbXbXcXjX0X0X0X0X0X0X0X0X0XcXbXbXbXbXbXbXbXbXbXbXbXbXa a w.|.|.).H.H.H.H.H.H.H.j a a a a V.F.F.F.F.F.n n Z L L L L L Y Y Y Y Y Y Y Y Y Y Y Y Y Y Y Y Y Y Y Y N n n [ [ [ [ [ [ [ [ [ [ [ [ [ [ [ [ [ [ [ [ [ [ [ [ [ [ [ [ [ [ [ [ [ [ [ [ [ [ [ [ [ [ [ [ [ [ [ [ [ [ Y Y Y Y ; O O 9 9 9 9 9 : O O 0X0X0X0X0X0X0X0X0X0X0X0X0X0X0X0X0X0X0X0X0X0X0X0X0X0X0X0X0X0X0X0X0X0X0X0X0X0X0X0X0X0X0X0X0X0X0X0X0X0X0X0X0X0X0X0X0X0X0X0X0X0X0X0X0X0X0X0X0X0X0X0X0X0X0X0X0X0X0X0X0X0X0X0X0X0X0X0X0X0X0X0X0X0X0X0X0X0X0X0X0X0X0X0X0X0X0X0X0X0X0X0X0X0X0XcXbXbXbXbXbXbXbXbXbXbXbXbXbXbXbXbXbXbXbXcXjX0X0X0X0X0X0X0X0X0X0X0X0X0X0X0X0X0X0X0X0X0X0X0X0X0X0X0X0X0X0X0X0X0X0XcXbXbXbXbXbXbXbXbXbXbXbXbXbXbXbXbXbXbXbXbXbXbXbXbXbX",
",X,X,X,X,X,X,X,X,X,X,X,X,X,X,X,X,X,X,X,X,X,X,X,X,X,X,X,X,X,X,X,X,X,X,X,X,X,X,X,X,X,X,X,X,X,X,X,X,X,X,X,X,X,X,X,X,X,X,X,X,X,X,X,X,X,X,X,X,X,X,X,X,X,X,X,X,X,X,X,X,X,X2X9X0X0X0X0X0X0X0X0X0X0X0X0X0X0X0X0X0X0X0X0X0X0X0X0X0X0X0X0X0XjXjXjXjX9X9X9X0X0X0X0X0X0X0X0X0X0X0X0X0X0X0X0X0X0X0X0X0X0X0X0X0X0X0X0XjXbXbXbXbXbXbXbXbXbXbXbXbXbXbXbXbXbXbXbXcX0X0X0X0X0X0X0X0X0X0X0X0X0X0X0X0XO O : 9 9 9 9 9 9 # O = Y Y Y Y ` [ [ [ [ [ [ [ [ [ [ [ [ [ [ [ [ [ [ [ [ [ [ [ [ [ [ [ [ [ [ [ P n n F.F.F.l a a l N.V.V.V.F.H.H.H.H.H.H.H.H.j a a 0X0X0X0X0X0X0X0X0X0X0X0X0X0X0X0X0X0X0X0X0X0X0X0X0X0X0X0X0X0X0X0X0X0X0X0X0X0X0X0X0X0X0X0X0X0X0X0X0X0X0X0X0X0X0X0X0X0X0X0X0X0X0X0X0X0X0X0X0X0X0X0X0X0X0X0X0X0X0X0X0X0X0X0X0X0X0X0X0X0X0X0X0X0X0X0X0X0X0X0X0X0X0X0X0X0X0X0X0X0X0X0X0X0X0X0X0X0X0X0X0X0X0X0X0X0X0X0X0X0X0X0X0X0X0X0X0X0X0X0X0X0X0X0X0XjXbXbXbXbXbXbXbXbXbXbXbXbXbXbXbXbXbXbXbXbXbXbXbXbXbXbXbXbXbXbXbXbXbXbXjX0X0X0X0X0X0X0X0X0XjXbXbXbXbXbXbXbXbXbXbXbXbXbXa a G.|.|.).H.H.H.H.H.H.H.j a a a a F.F.F.F.F.w.n n Z L L L L L Y Y Y Y Y Y Y Y Y Y Y Y Y Y Y Y Y Y Y Y N n n [ [ [ [ [ [ [ [ [ [ [ [ [ [ [ [ [ [ [ [ [ [ [ [ [ [ [ [ [ [ [ [ [ [ [ [ [ [ [ [ [ [ [ [ [ [ [ [ [ [ Y Y Y Y ; O O 9 9 9 9 9 : O O 0X0X0X0X0X0X0X0X0X0X0X0X0X0X0X0X0X0X0X0X0X0X0X0X0X0X0X0X0X0X0X0X0X0X0X0X0X0X0X0X0X0X0X0X0X0X0X0X0X0X0X0X0X0X0X0X0X0X0X0X0X0X0X0X0X0X0X0X0X0X0X0X0X0X0X0X0X0X0X0X0X0X0X0X0X0X0X0X0X0X0X0X0X0X0X0X0X0X0X0X0X0X0X0X0X0X0X0X0X0X0X0X0X0XcXbXbXbXbXbXbXbXbXbXbXbXbXbXbXbXbXbXbXbXcXjX0X0X0X0X0X0X0X0X0X0X0X0X0X0X0X0X0X0X0X0X0X0X0X0X0X0X0X0X0X0X0X0X0X0XjXbXbXbXbXbXbXbXbXbXbXbXbXbXbXbXbXbXbXbXbXbXbXbXbXbXbX",
",X,X,X,X,X,X,X,X,X,X,X,X,X,X,X,X,X,X,X,X,X,X,X,X,X,X,X,X,X,X,X,X,X,X,X,X,X,X,X,X,X,X,X,X,X,X,X,X,X,X,X,X,X,X,X,X,X,X,X,X,X,X,X,X,X,X,X,X,X,X,X,X,X,X,X,X,X,X,X,X,X,X4X0X0X0X0X0X0X0X0X0X0X0X0X0X0X0X0X0X0X0X0XjXjXjXjXjXcXcXcXcXcXcXcXcXcX0X0X0X0X0X0X0X0X0X0X0X0X0X0X0X0X0X0X0X0X0X0X0X0X0X0X0X0X0X0X0XcXbXbXbXbXbXbXbXbXbXbXbXbXbXbXbXbXbXbXcXjX0X0X0X0X0X0X0X0X0X0X0X0X0X0X0X0XO O : 9 9 9 9 9 9 # O = Y Y Y Y ` [ [ [ [ [ [ [ [ [ [ [ [ [ [ [ [ [ [ [ [ [ [ [ [ [ [ [ [ [ [ [ P n n F.F.F.l a a N.N.V.V.V.H.H.H.H.H.H.H.H.H.j a a 0X0X0X0X0X0X0X0X0X0X0X0X0X0X0X0X0X0X0X0X0X0X0X0X0X0X0X0X0X0X0X0X0X0X0X0X0X0X0X0X0X0X0X0X0X0X0X0X0X0X0X0X0X0X0X0X0X0X0X0X0X0X0X0X0X0X0X0X0X0X0X0X0X0X0X0X0X0X0X0X0X0X0X0X0X0X0X0X0X0X0X0X0X0X0X0X0X0X0X0X0X0X0X0X0X0X0X0X0X0X0X0X0X0X0X0X0X0X0X0X0X0X0X0X0X0X0X0X0X0X0X0X0X0X0X0X0X0X0X0X0X0X0X0X0XbXbXbXbXbXbXbXbXbXbXbXbXbXbXbXbXbXbXbXbXbXbXbXbXbXbXbXbXbXbXbXbXbXbXcX0X0X0X0X0X0X0X0X0XjXbXbXbXbXbXbXbXbXbXbXbXbXbXbXa a G.|.|.).H.H.H.H.H.H.H.j a a a a F.F.F.F.F.o.n n Z L L L L L Y Y Y Y Y Y Y Y Y Y Y Y Y Y Y Y Y Y Y Y N n n [ [ [ [ [ [ [ [ [ [ [ [ [ [ [ [ [ [ [ [ [ [ [ [ [ [ [ [ [ [ [ [ [ [ [ [ [ [ [ [ [ [ [ [ [ [ [ [ [ [ Y Y Y Y ; O O 9 9 9 9 9 : O O 0X0X0X0X0X0X0X0X0X0X0X0X0X0X0X0X0X0X0X0X0X0X0X0X0X0X0X0X0X0X0X0X0X0X0X0X0X0X0X0X0X0X0X0X0X0X0X0X0X0X0X0X0X0X0X0X0X0X0X0X0X0X0X0X0X0X0X0X0X0X0X0X0X0X0X0X0X0X0X0X0X0X0X0X0X0X0X0X0X0X0X0X0X0X0X0X0X0X0X0X0X0X0X0X0X0X0X0X0X0X0X0X0XjXbXbXbXbXbXbXbXbXbXbXbXbXbXbXbXbXbXbXbXcXjX0X0X0X0X0X0X0X0X0X0X0X0X0X0X0X0X0X0X0X0X0X0X0X0X0X0X0X0X0X0X0X0X0X0XjXbXbXbXbXbXbXbXbXbXbXbXbXbXbXbXbXbXbXbXbXbXbXbXbXbXbXbX",
",X,X,X,X,X,X,X,X,X,X,X,X,X,X,X,X,X,X,X,X,X,X,X,X,X,X,X,X,X,X,X,X,X,X,X,X,X,X,X,X,X,X,X,X,X,X,X,X,X,X,X,X,X,X,X,X,X,X,X,X,X,X,X,X,X,X,X,X,X,X,X,X,X,X,X,X,X,X,X,X,X2X0X0X0X0X0X0X0X0X0X0X0X0XjXjXjXjXjXcXcXcXcXcXbXbXbXbXbXbXbXbXbXbXbXcXjX0X0X0X0X0X0X0X0X0X0X0X0X0X0X0X0X0X0X0X0X0X0X0X0X0X0X0X0X0X0XjXbXbXbXbXbXbXbXbXbXbXbXbXbXbXbXbXbXbXbXjX0X0X0X0X0X0X0X0X0X0X0X0X0X0X0X0X0XO O : 9 9 9 9 9 9 # O = Y Y Y Y ` [ [ [ [ [ [ [ [ [ [ [ [ [ [ [ [ [ [ [ [ [ [ [ [ [ [ [ [ [ [ [ P n n F.F.F.l a a l N.V.V.V.H.H.H.H.H.H.H.H.H.j a a 0X0X0X0X0X0X0X0X0X0X0X0X0X0X0X0X0X0X0X0X0X0X0X0X0X0X0X0X0X0X0X0X0X0X0X0X0X0X0X0X0X0X0X0X0X0X0X0X0X0X0X0X0X0X0X0X0X0X0X0X0X0X0X0X0X0X0X0X0X0X0X0X0X0X0X0X0X0X0X0X0X0X0X0X0X0X0X0X0X0X0X0X0X0X0X0X0X0X0X0X0X0X0X0X0X0X0X0X0X0X0X0X0X0X0X0X0X0X0X0X0X0X0X0X0X0X0X0X0X0X0X0X0X0X0X0X0X0X0X0X0X0X0X0XcXbXbXbXbXbXbXbXbXbXbXbXbXbXbXbXbXbXbXbXbXbXbXbXbXbXbXbXbXbXbXbXbXbXcXjX0X0X0X0X0X0X0X0X0XcXbXbXbXbXbXbXbXbXbXbXbXbXbXbXa a G.|.|.H.H.H.H.H.H.H.H.j a a a a F.F.F.F.F.o.n n K L L L L L Y Y Y Y Y Y Y Y Y Y Y Y Y Y Y Y Y Y Y Y N n n [ [ [ [ [ [ [ [ [ [ [ [ [ [ [ [ [ [ [ [ [ [ [ [ [ [ [ [ [ [ [ [ [ [ [ [ [ [ [ [ [ [ [ [ [ [ [ [ [ [ Y Y Y Y ; O O 9 9 9 9 9 : O O 0X0X0X0X0X0X0X0X0X0X0X0X0X0X0X0X0X0X0X0X0X0X0X0X0X0X0X0X0X0X0X0X0X0X0X0X0X0X0X0X0X0X0X0X0X0X0X0X0X0X0X0X0X0X0X0X0X0X0X0X0X0X0X0X0X0X0X0X0X0X0X0X0X0X0X0X0X0X0X0X0X0X0X0X0X0X0X0X0X0X0X0X0X0X0X0X0X0X0X0X0X0X0X0X0X0X0X0X0X0X0X0XjXbXbXbXbXbXbXbXbXbXbXbXbXbXbXbXbXbXbXbXcXjX0X0X0X0X0X0X0X0X0X0X0X0X0X0X0X0X0X0X0X0X0X0X0X0X0X0X0X0X0X0X0X0X0X0X0XcXbXbXbXbXbXbXbXbXbXbXbXbXbXbXbXbXbXbXbXbXbXbXbXbXbXbXbX",
",X,X,X,X,X,X,X,X,X,X,X,X,X,X,X,X,X,X,X,X,X,X,X,X,X,X,X,X,X,X,X,X,X,X,X,X,X,X,X,X,X,X,X,X,X,X,X,X,X,X,X,X,X,X,X,X,X,X,X,X,X,X,X,X,X,X,X,X,X,X,X,X,X,X,X,X,X,X,X,X2X0X0X0XjXjXjXjXjXcXcXcXcXcXcXbXbXbXcXbXbXbXbXbXbXbXbXbXbXbXbXbXbXbXbXcX0X0X0X0X0X0X0X0X0X0X0X0X0X0X0X0X0X0X0X0X0X0X0X0X0X0X0X0X0X0XjXbXbXbXbXbXbXbXbXbXbXbXbXbXbXbXbXbXbXbXcX0X0X0X0X0X0X0X0X0X0X0X0X0X0X0X0X0X0XO O : 9 9 9 9 9 9 # O = Y Y Y Y ` [ [ [ [ [ [ [ [ [ [ [ [ [ [ [ [ [ [ [ [ [ [ [ [ [ [ [ [ [ [ [ P n n F.F.F.l a a l N.N.V.V.H.H.H.H.H.H.H.H.H.j a a 0X0X0X0X0X0X0X0X0X0X0X0X0X0X0X0X0X0X0X0X0X0X0X0X0X0X0X0X0X0X0X0X0X0X0X0X0X0X0X0X0X0X0X0X0X0X0X0X0X0X0X0X0X0X0X0X0X0X0X0X0X0X0X0X0X0X0X0X0X0X0X0X0X0X0X0X0X0X0X0X0X0X0X0X0X0X0X0X0X0X0X0X0X0X0X0X0X0X0X0X0X0X0X0X0X0X0X0X0X0X0X0X0X0X0X0X0X0X0X0X0X0X0X0X0X0X0X0X0X0X0X0X0X0X0X0X0X0X0X0X0X0X0XjXbXbXbXbXbXbXbXbXbXbXbXbXbXbXbXbXbXbXbXbXbXbXbXbXbXbXbXbXbXbXbXbXbXbXjX0X0X0X0X0X0X0X0X0XjXbXbXbXbXbXbXbXbXbXbXbXbXbXbX1Xa a G.|.|.H.H.H.H.H.H.H.H.j a a a a F.F.F.F.F.o.n n K L L L L L Y Y Y Y Y Y Y Y Y Y Y Y Y Y Y Y Y Y Y Y N n n [ [ [ [ [ [ [ [ [ [ [ [ [ [ [ [ [ [ [ [ [ [ [ [ [ [ [ [ [ [ [ [ [ [ [ [ [ [ [ [ [ [ [ [ [ [ [ [ [ [ Y Y Y Y ; O O 9 9 9 9 9 : O O 0X0X0X0X0X0X0X0X0X0X0X0X0X0X0X0X0X0X0X0X0X0X0X0X0X0X0X0X0X0X0X0X0X0X0X0X0X0X0X0X0X0X0X0X0X0X0X0X0X0X0X0X0X0X0X0X0X0X0X0X0X0X0X0X0X0X0X0X0X0X0X0X0X0X0X0X0X0X0X0X0X0X0X0X0X0X0X0X0X0X0X0X0X0X0X0X0X0X0X0X0X0X0X0X0X0X0X0X0X0X0XjXbXbXbXbXbXbXbXbXbXbXbXbXbXbXbXbXbXbXbXcXjX0X0X0X0X0X0X0X0X0X0X0X0X0X0X0X0X0X0X0X0X0X0X0X0X0X0X0X0X0X0X0X0X0X0X0XjXbXbXbXbXbXbXbXbXbXbXbXbXbXbXbXbXbXbXbXbXbXbXbXbXbXbXbXbX",
",X,X,X,X,X,X,X,X,X,X,X,X,X,X,X,X,X,X,X,X,X,X,X,X,X,X,X,X,X,X,X,X,X,X,X,X,X,X,X,X,X,X,X,X,X,X,X,X,X,X,X,X,X,X,X,X,X,X,X,X,X,X,X,X,X,X,X,X,X,X,X,X,X,X,X2X4X4X4X4XjXcXcXcXbXbXbXbXbXbXbXbXbXbXbXbXbXbXbXbXbXbXbXbXbXbXbXbXbXbXbXbXbXbXcXjX0X0X0X0X0X0X0X0X0X0X0X0X0X0X0X0X0X0X0X0X0X0X0X0X0X0X0X0X0X0XbXbXbXbXbXbXbXbXbXbXbXbXbXbXbXbXbXbXbXcXjX0X0X0X0X0X0X0X0X0X0X0X0X0X0X0X0X0X0XO O : 9 9 9 9 9 9 # O = Y Y Y Y ` [ [ [ [ [ [ [ [ [ [ [ [ [ [ [ [ [ [ [ [ [ [ [ [ [ [ [ [ [ [ [ P n n F.F.F.l a a N.N.N.N.V.H.H.H.H.H.H.H.H.H.j a a 0X0X0X0X0X0X0X0X0X0X0X0X0X0X0X0X0XjXjX0X0X0X0X0X0X0X0XjXjX0X0X0X0X0X0X0X0X0X0X0X0X0X0X0X0X0X0X0X0X0X0X0X0X0X0X0X0X0X0X0X0X0X0X0X0X0X0X0X0X0X0X0X0X0X0X0X0X0X0X0X0X0X0X0X0X0X0X0X0X0X0X0X0X0X0X0X0X0X0X0X0X0X0X0X0X0X0X0X0X0X0X0X0X0X0X0X0X0X0X0X0X0X0X0X0X0X0X0X0X0X0X0X0X0X0X0X0X0X0X0X0X0XjXbXbXbXbXbXbXbXbXbXbXbXbXbXbXbXbXbXbXbXbXbXbXbXbXbXbXbXbXbXbXbXbXbXbXjX0X0X0X0X0X0X0X0X0XjXbXbXbXbXbXbXbXbXbXbXbXbXbXbXbX;Xa a G.|.|.H.H.H.H.H.H.H.H.j a a a a F.F.F.F.F.o.n n K L L L L L Y Y Y Y Y Y Y Y Y Y Y Y Y Y Y Y Y Y Y Y N n n [ [ [ [ [ [ [ [ [ [ [ [ [ [ [ [ [ [ [ [ [ [ [ [ [ [ [ [ [ [ [ [ [ [ [ [ [ [ [ [ [ [ [ [ [ [ [ [ [ [ Y Y Y Y ; O O 9 9 9 9 9 : O O 0X0X0X0X0X0X0X0X0X0X0X0X0X0X0X0X0X0X0X0X0X0X0X0X0X0X0X0X0X0X0X0X0X0X0X0X0X0X0X0X0X0X0X0X0X0X0X0X0X0X0X0X0X0X0X0X0X0X0X0X0X0X0X0X0X0X0X0X0X0X0X0X0X0X0X0X0X0X0X0X0X0X0X0X0X0X0X0X0X0X0X0X0X0X0X0X0X0X0X0X0X0X0X0X0X0X0X0X0X0XjXbXbXbXbXbXbXbXbXbXbXbXbXbXbXbXbXbXbXbXbXjX0X0X0X0X0X0X0X0X0X0X0X0X0X0X0X0X0X0X0X0X0X0X0X0X0X0X0X0X0X0X0X0X0X0X0XjXbXbXbXbXbXbXbXbXbXbXbXbXbXbXbXbXbXbXbXbXbXbXbXbXbXbXbXbXbX",
",X,X,X,X,X,X,X,X,X,X,X,X,X,X,X,X,X,X,X,X,X,X,X,X,X,X,X,X,X,X,X,X,X,X,X,X,X,X,X,X,X,X,X,X,X,X,X,X,X,X,X,X,X,X,X,X,X,X,X,X,X,X,X,X,X2X2X4X4X4X9X9X9X9X9X0X0X0X0XjXbXbXbXbXbXbXbXbXbXbXbXbXbXbXbXbXbXbXbXbXbXbXbXbXbXbXbXbXbXbXbXbXbXcXjX0X0X0X0X0X0X0X0X0X0X0X0X0X0X0X0X0X0X0X0X0X0X0X0X0X0X0X0X0X0XcXbXbXbXbXbXbXbXbXbXbXbXbXbXbXbXbXbXbXbXjX0X0X0X0X0X0X0X0X0X0X0X0X0X0X0X0X0X0X0XO O : 9 9 9 9 9 9 # O = Y Y Y Y ` [ [ [ [ [ [ [ [ [ [ [ [ [ [ [ [ [ [ [ [ [ [ [ [ [ [ [ [ [ [ [ P n n F.F.F.l a a N.N.V.V.V.H.H.H.H.H.H.H.H.H.j a a 0X0X0X0X0X0X0X0X0X0X0X0X0X0X0X0X0XjXjX0X0X0X0X0X0X0X0X0X0X0X0X0X0X0X0X0X0X0X0X0X0X0X0X0X0X0X0X0X0X0X0X0X0X0X0X0X0X0X0X0X0X0X0X0X0X0X0X0X0X0X0X0X0X0X0X0X0X0X0X0X0X0X0X0X0X0X0X0X0X0X0X0X0X0X0X0X0X0X0X0X0X0X0X0X0X0X0X0X0X0X0X0X0X0X0X0X0X0X0X0X0X0X0X0X0X0X0X0X0X0X0X0X0X0X0X0X0X0X0X0X0X0XcXbXbXbXbXbXbXbXbXbXbXbXbXbXbXbXbXbXbXbXbXbXbXbXbXbXbXbXbXbXbXbXbXbXcX0X0X0X0X0X0X0X0X0X0XcXbXbXbXbXbXbXbXbXbXbXbXbXbXbXbX;Xa a G.|.|.H.H.H.H.H.H.H.H.j a a a a F.F.F.F.F.o.n n K L L L L L Y Y Y Y Y Y Y Y Y Y Y Y Y Y Y Y Y Y Y Y N n n [ [ [ [ [ [ [ [ [ [ [ [ [ [ [ [ [ [ [ [ [ [ [ [ [ [ [ [ [ [ [ [ [ [ [ [ [ [ [ [ [ [ [ [ [ [ [ [ [ [ Y Y Y Y ; O O 9 9 9 9 9 : O O 0X0X0X0X0X0X0X0X0X0X0X0X0X0X0X0X0X0X0X0X0X0X0X0X0X0X0X0X0X0X0X0X0X0X0X0X0X0X0X0X0X0X0X0X0X0X0X0X0X0X0X0X0X0X0X0X0X0X0X0X0X0X0X0X0X0X0X0X0X0X0X0X0X0X0X0X0X0X0X0X0X0X0X0X0X0X0X0X0X0X0X0X0X0X0X0X0X0X0X0X0X0X0X0X0X0X0X0X0XjXbXbXbXbXbXbXbXbXbXbXbXbXbXbXbXbXbXbXbXbXjX0X0X0X0X0X0X0X0X0X0X0X0X0X0X0X0X0X0X0X0X0X0X0X0X0X0X0X0X0X0X0X0X0X0X0X0XbXbXbXbXbXbXbXbXbXbXbXbXbXbXbXbXbXbXbXbXbXbXbXbXbXbXbXbXbXbX",
",X,X,X,X,X,X,X,X,X,X,X,X,X,X,X,X,X,X,X,X,X,X,X,X,X,X,X,X,X,X,X,X,X,X,X,X,X,X,X,X,X,X,X,X,X,X,X,X,X,X,X,X,X,X,X2X2X4X4X4X9X9X9X9X9X0X0X0X0X0X0X0X0X0X0X0X0X0XjXbXbXbXbXbXbXbXbXbXbXbXbXbXbXbXbXbXbXbXbXbXbXbXbXbXbXbXbXbXbXbXbXbXbXjX0X0X0X0X0X0X0X0X0X0X0X0X0X0X0X0X0X0X0X0X0X0X0X0X0X0X0X0X0X0XjXbXbXbXbXbXbXbXbXbXbXbXbXbXbXbXbXbXbXbXjX0X0X0X0X0X0X0X0X0X0X0X0X0X0X0X0X0X0X0X0XO O : 9 9 9 9 9 9 # O = Y Y Y Y ` [ [ [ [ [ [ [ [ [ [ [ [ [ [ [ [ [ [ [ [ [ [ [ [ [ [ [ [ [ [ [ P n n F.F.F.l a a N.V.V.V.V.H.H.H.H.H.H.H.H.H.j a a 0X0X0X0X0X0X0X0X0X0X0X0X0X0X0X0X0XjXjX0X0X0X0X0X0X0X0XjXjX0X0X0X0X0XjX0X0X0X0X0X0X0X0X0X0X0X0X0X0X0X0X0X0X0X0X0X0X0X0X0X0X0X0X0X0X0X0X0X0X0X0X0X0X0X0X0X0X0X0X0X0X0X0X0X0X0X0X0X0X0X0X0X0X0X0X0X0X0X0X0X0X0X0X0X0X0X0X0X0X0X0X0X0X0X0X0X0X0X0X0X0X0X0X0X0X0X0X0X0X0X0X0X0X0X0X0X0X0X0X0X0XjXbXbXbXbXbXbXbXbXbXbXbXbXbXbXbXbXbXbXbXbXbXbXbXbXbXbXbXbXbXbXbXbXbXcXjX0X0X0X0X0X0X0X0X0XjXbXbXbXbXbXbXbXbXbXbXbXbXbXbXbXbX;Xa a G.|.|.H.H.H.H.H.H.H.H.j a a a a F.F.F.F.F.o.n n K L L L L L Y Y Y Y Y Y Y Y Y Y Y Y Y Y Y Y Y Y Y Y N n n [ [ [ [ [ [ [ [ [ [ [ [ [ [ [ [ [ [ [ [ [ [ [ [ [ [ [ [ [ [ [ [ [ [ [ [ [ [ [ [ [ [ [ [ [ [ [ [ [ [ Y Y Y Y ; O O 9 9 9 9 9 : O O 0X0X0X0X0X0X0X0X0X0X0X0X0X0X0X0X0X0X0X0X0X0X0X0X0X0X0X0X0X0X0X0X0X0X0X0X0X0X0X0X0X0X0X0X0X0X0X0X0X0X0X0X0X0X0X0X0X0X0X0X0X0X0X0X0X0X0X0X0X0X0X0X0X0X0X0X0X0X0X0X0X0X0X0X0X0X0X0X0X0X0X0X0X0X0X0X0X0X0X0X0X0X0X0X0X0X0X0XjXbXbXbXbXbXbXbXbXbXbXbXbXbXbXbXbXbXbXbXbXcX0X0X0X0X0X0X0X0X0X0X0X0X0X0X0X0X0X0X0X0X0X0X0X0X0X0X0X0X0X0X0X0X0X0X0X0XcXbXbXbXbXbXbXbXbXbXbXbXbXbXbXbXbXbXbXbXbXbXbXbXbXbXbXbXbXbXbX",
",X,X,X,X,X,X,X,X,X,X,X,X,X,X,X,X,X,X,X,X,X,X,X,X,X,X,X,X,X,X,X,X,X,X,X,X,X,X,X,X,X,X,X,X,X,X2X2X4X4X4X9X9X9X9X0X0X0X0X0X0X0X0X0X0X0X0X0X0X0X0X0X0X0X0X0X0X0XbXbXbXbXbXbXbXbXbXbXbXbXbXbXbXbXbXbXbXbXbXbXbXbXbXbXbXbXbXbXbXbXbXbXcX0X0X0X0X0X0X0X0X0X0X0X0X0X0X0X0X0X0X0X0X0X0X0X0X0X0X0X0X0X0XjXbXbXbXbXbXbXbXbXbXbXbXbXbXbXbXbXbXbXbXcX0X0X0X0X0X0X0X0X0X0X0X0X0X0X0X0X0X0X0X0X0XO O : 9 9 9 9 9 9 # O = Y Y Y Y ` [ [ [ [ [ [ [ [ [ [ [ [ [ [ [ [ [ [ [ [ [ [ [ [ [ [ [ [ [ [ [ P n n F.F.F.l a a N.V.V.V.V.H.H.H.H.H.H.H.H.H.j a a 0X0X0X0X0X0X0X0X0X0X0X0XjX;X}.}.0X0XjX0X0X0X0X0X0X0X0XjX0X0X0X0X0X0X0X0X0X0X0X0X0X0X0X0X0X0X0X0X0X0X0X0X0X0X0X0X0X0X0X0X0X0X0X0X0X0X0X0X0X0X0X0X0X0X0X0X0X0X0X0X0X0X0X0X0X0X0X0X0X0X0X0X0X0X0X0X0X0X0X0X0X0X0X0X0X0X0X0X0X0X0X0X0X0X0X0X0X0X0X0X0X0X0X0X0X0X0X0X0X0X0X0X0X0X0X0X0X0X0X0XjXbXbXbXbXbXbXbXbXbXbXbXbXbXbXbXbXbXbXbXbXbXbXbXbXbXbXbXbXbXbXbXbXbXbXjX0X0X0X0X0X0X0X0X0XjXbXbXbXbXbXbXbXbXbXbXbXbXbXbXbXbXbX;Xa a G.|.|.H.H.H.H.H.H.H.H.j a a a a F.F.F.F.F.o.n n K L L L L L Y Y Y Y Y Y Y Y Y Y Y Y Y Y Y Y Y Y Y Y N n n [ [ [ [ [ [ [ [ [ [ [ [ [ [ [ [ [ [ [ [ [ [ [ [ [ [ [ [ [ [ [ [ [ [ [ [ [ [ [ [ [ [ [ [ [ [ [ [ [ [ ` Y Y Y ; O O 9 9 9 9 9 : O O 0X0X0X0X0X0X0X0X0X0X0X0X0X0X0X0X0X0X0X0X0X0X0X0X0X0X0X0X0X0X0X0X0X0X0X0X0X0X0X0X0X0X0X0X0X0X0X0X0X0X0X0X0X0X0X0X0X0X0X0X0X0X0X0X0X0X0X0X0X0X0X0X0X0X0X0X0X0X0X0X0X0X0X0X0X0X0X0X0X0X0X0X0X0X0X0X0X0X0X0X0X0X0X0X0X0X0X0XcXbXbXbXbXbXbXbXbXbXbXbXbXbXbXbXbXbXbXbXcXjX0X0X0X0X0X0X0X0X0X0X0X0X0X0X0X0X0X0X0X0X0X0X0X0X0X0X0X0X0X0X0X0X0X0X0XjXbXbXbXbXbXbXbXbXbXbXbXbXbXbXbXbXbXbXbXbXbXbXbXbXbXbXbXbXbXbXbX",
",X,X,X,X,X,X,X,X,X,X,X,X,X,X,X,X,X,X,X,X,X,X,X,X,X,X,X,X,X,X,X,X,X,X,X,X2X2X4X4X4X9X9X9X9X9X0X0X0X0X0X0X0X0X0X0X0X0X0X0X0X0X0X0X0X0X0X0X0X0X0X0X0X0X0X0X0XcXbXbXbXbXbXbXbXbXbXbXbXbXbXbXbXbXbXbXbXbXbXbXbXbXbXbXbXbXbXbXbXbXbXcXjX0X0X0X0X0X0X0X0X0X0X0X0X0X0X0X0X0X0X0X0X0X0X0X0X0X0X0X0X0X0XcXbXbXbXbXbXbXbXbXbXbXbXbXbXbXbXbXbXbXcXjX0X0X0X0X0X0X0X0X0X0X0X0X0X0X0X0X0X0X0X0X0XO O : 9 9 9 9 9 9 # O 8 Y Y Y Y ` [ [ [ [ [ [ [ [ [ [ [ [ [ [ [ [ [ [ [ [ [ [ [ [ [ [ [ [ [ [ [ P n n F.F.F.l a a l V.V.V.V.H.H.H.H.H.H.H.H.H.j a a 0X0X0X0X0X0X0X0X0X0X0XW. .D D D W.*XR.R.E.x.x.4.4.4.4.4.4.4.4.4.4.x.x.x.E.*X0X0X0X0X0X0X0X0X0X0X0X0X0X0X0X0X0X0X0X0X0X0X0X0X0X0X0X0X0X0X0X0X0X0X0X0X0X0X0X0X0X0X0X0X0X0X0X0X0X0X0X0X0X0X0X0X0X0X0X0X0X0X0X0X0X0X0X0X0X0X0X0X0X0X0X0X0X0X0X0X0X0X0X0X0X0X0X0X0X0X0X0X0X0X0X0X0X0X0X0X0X0XcXbXbXbXbXbXbXbXbXbXbXbXbXbXbXbXbXbXbXbXbXbXbXbXbXbXbXbXbXbXbXbXbXbXcX0X0X0X0X0X0X0X0X0X0XbXbXbXbXbXbXbXbXbXbXbXbXbXbXbXbXbXbX1Xa a V.|.|.H.H.H.H.H.H.H.H.d a a a a F.F.F.F.F.o.n n K L L L L L Y Y Y Y Y Y Y Y Y Y Y Y Y Y Y Y Y Y Y Y N n n [ [ [ [ [ [ [ [ [ [ [ [ [ [ [ [ [ [ [ [ [ [ [ [ [ [ [ [ [ [ [ [ [ [ [ [ [ [ [ [ [ [ [ [ [ [ [ [ [ [ ` Y Y Y ; O O 9 9 9 9 9 : O O 0X0X0X0X0X0X0X0X0X0X0X0X0X0X0X0X0X0X0X0X0X0X0X0X0X0X0X0X0X0X0X0X0X0X0X0X0X0X0X0X0X0X0X0X0X0X0X0X0X0X0X0X0X0X0X0X0X0X0X0X0X0X0X0X0X0X0X0X0X0X0X0X0X0X0X0X0X0X0X0X0X0X0X0X0X0X0X0X0X0X0X0X0X0X0X0X0X0X0X0X0X0X0X0X0X0X0XcXbXbXbXbXbXbXbXbXbXbXbXbXbXbXbXbXbXbXbXcXjX0X0X0X0X0X0X0X0X0X0X0X0X0X0X0X0X0X0X0X0X0X0X0X0X0X0X0X0X0X0X0X0X0X0X0XjXbXbXbXbXbXbXbXbXbXbXbXbXbXbXbXbXbXbXbXbXbXbXbXbXbXbXbXbXbXbXbXbX",
",X,X,X,X,X,X,X,X,X,X,X,X,X,X,X,X,X,X,X,X,X,X,X,X,X,X,X2X2X4X4X4X9X9X9X9X0X0X0X0X0X0X0X0X0X0X0X0X0X0X0X0X0X0X0X0X0X0X0X0X0X0X0X0X0X0X0X0X0X0X0X0X0X0X0X0XjXbXbXbXbXbXbXbXbXbXbXbXbXbXbXbXbXbXbXbXbXbXbXbXbXbXbXbXbXbXbXbXbXbXbXjX0X0X0X0X0X0X0X0X0X0X0X0X0X0X0X0X0X0X0X0X0X0X0X0X0X0X0X0X0X0XcXbXbXbXbXbXbXbXbXbXbXbXbXbXbXbXbXbXbXbXjX0X0X0X0X0X0X0X0X0X0X0X0X0X0X0X0X0X0X0X0X0X0XO O : 9 9 9 9 9 9 # O q Y Y Y Y ` [ [ [ [ [ [ [ [ [ [ [ [ [ [ [ [ [ [ [ [ [ [ [ [ [ [ [ [ [ [ [ P n n F.F.F.l a a l V.V.V.V.H.H.H.H.H.H.H.H.H.j a a 0X0X0X0X0X0X0X0X0X0X}.A F F 6 6 p p p p p f.f.f.f.f.f.f.f.f.f.f.f.f.p p p p 4.x.x.*X0X0X0X0X0X0X0X0X0X0X0X0X0X0X0X0X0X0X0X0X0X0X0X0X0X0X0X0X0X0X0X0X0X0X0X0X0X0X0X0X0X0X0X0X0X0X0X0X0X0X0X0X0X0X0X0X0X0X0X0X0X0X0X0X0X0X0X0X0X0X0X0X0X0X0X0X0X0X0X0X0X0X0X0X0X0X0X0X0X0X0X0X0X0X0X0X0XcXbXbXbXbXbXbXbXbXbXbXbXbXbXbXbXbXbXbXbXbXbXbXbXbXbXbXbXbXbXbXbXbXbXcXjX0X0X0X0X0X0X0X0X0XcXbXbXbXbXbXbXbXbXbXbXbXbXbXbXbXbXbXbX1Xa a V.|.`.H.H.H.H.H.H.H.H.a a a a a F.F.F.F.F.o.n n K L L L L L Y Y Y Y Y Y Y Y Y Y Y Y Y Y Y Y Y Y Y Y N n n [ [ [ [ [ [ [ [ [ [ [ [ [ [ [ [ [ [ [ [ [ [ [ [ [ [ [ [ [ [ [ [ [ [ [ [ [ [ [ [ [ [ [ [ [ [ [ [ [ [ ` Y Y Y ; O O 9 9 9 9 9 : O O 0X0X0X0X0X0X0X0X0X0X0X0X0X0X0X0X0X0X0X0X0X0X0X0X0X0X0X0X0X0X0X0X0X0X0X0X0X0X0X0X0X0X0X0X0X0X0X0X0X0X0X0X0X0X0X0X0X0X0X0X0X0X0X0X0X0X0X0X0X0X0X0X0X0X0X0X0X0X0X0X0X0X0X0X0X0X0X0X0X0X0X0X0X0X0X0X0X0X0X0X0X0X0X0X0X0XjXbXbXbXbXbXbXbXbXbXbXbXbXbXbXbXbXbXbXbXcXjX0X0X0X0X0X0X0X0X0X0X0X0X0X0X0X0X0X0X0X0X0X0X0X0X0X0X0X0X0X0X0X0X0X0X0X0XcXbXbXbXbXbXbXbXbXbXbXbXbXbXbXbXbXbXbXbXbXbXbXbXbXbXbXbXbXbXbXbXbX",
",X,X,X,X,X,X,X,X,X,X,X,X,X,X,X,X,X2X2X4X4X4X9X9X9X9X9X0X0X0X0X0X0X0X0X0X0X0X0X0X0X0X0X0X0X0X0X0X0X0X0X0X0X0X0X0X0X0X0X0X0X0X0X0X0X0X0X0X0X0X0X0X0X0X0XjXbXbXbXbXbXbXbXbXbXbXbXbXbXbXbXbXbXbXbXbXbXbXbXbXbXbXbXbXbXbXbXbXbXbXcX0X0X0X0X0X0X0X0X0X0X0X0X0X0X0X0X0X0X0X0X0X0X0X0X0X0X0X0X0X0XjXbXbXbXbXbXbXbXbXbXbXbXbXbXbXbXbXbXbXbXcX0X0X0X0X0X0X0X0X0X0X0X0X0X0X0X0X0X0X0X0X0X0X0XO O : 9 9 9 9 9 9 # O q Y Y Y Y ` [ [ [ [ [ [ [ [ [ [ [ [ [ [ [ [ [ [ [ [ [ [ [ [ [ [ [ [ [ [ [ P n n F.F.F.l a a N.V.V.V.N.H.H.H.H.H.H.H.H.H.j a a 0X0X0X0X0X0X0X0X0X0XJ.7 7 u u p f.f.h.h.h.h.h.h.h.h.h.j.h.j.c.k.k.c.j.j.j.j.h.p p p x.*XjX0X0X0X0X0X0X0X0X0X0X0X0X0X0X0X0X0X0X0X0X0X0X0X0X0X0X0X0X0X0X0X0X0X0X0X0X0X0X0X0X0X0X0X0X0X0X0X0X0X0X0X0X0X0X0X0X0X0X0X0X0X0X0X0X0X0X0X0X0X0X0X0X0X0X0X0X0X0X0X0X0X0X0X0X0X0X0X0X0X0X0X0X0XjXbXbXbXbXbXbXbXbXbXbXbXbXbXbXbXbXbXbXbXbXbXbXbXbXbXbXbXbXbXbXbXbXbXbXjX0X0X0X0X0X0X0X0X0XjXbXbXbXbXbXbXbXbXbXbXbXbXbXbXbXbXbXbXbX[.a a V.|.`.H.H.H.H.H.H.H.H.a a a a a F.F.F.F.F.o.n n K L L L L L Y Y Y Y Y Y Y Y Y Y Y Y Y Y Y Y Y Y Y Y N n n [ [ [ [ [ [ [ [ [ [ [ [ [ [ [ [ [ [ [ [ [ [ [ [ [ [ [ [ [ [ [ [ [ [ [ [ [ [ [ [ [ [ [ [ [ [ [ [ [ [ ` Y Y Y ; O O 9 9 9 9 9 : O O 0X0X0X0X0X0X0X0X0X0X0X0X0X0X0X0X0X0X0X0X0X0X0X0X0X0X0X0X0X0X0X0X0X0X0X0X0X0X0X0X0X0X0X0X0X0X0X0X0X0X0X0X0X0X0X0X0X0X0X0X0X0X0X0X0X0X0X0X0X0X0X0X0X0X0X0X0X0X0X0X0X0X0X0X0X0X0X0X0X0X0X0X0X0X0X0X0X0X0X0X0X0X0X0X0XjXbXbXbXbXbXbXbXbXbXbXbXbXbXbXbXbXbXbXbXcXjX0X0X0X0X0X0X0X0X0X0X0X0X0X0X0X0X0X0X0X0X0X0X0X0X0X0X0X0X0X0X0X0X0X0X0X0XjXbXbXbXbXbXbXbXbXbXbXbXbXbXbXbXbXbXbXbXbXbXbXbXbXbXbXbXbXbXbXbXbXbX",
",X,X,X,X,X,X,X,X2X2X4X4X4X9X9X9X9X0X0X0X0X0X0X0X0X0X0X0X0X0X0X0X0X0X0X0X0X0X0X0X0X0X0X0X0X0X0X0X0X0X0X0X0X0X0X0X0X0X0X0X0X0X0X0X0X0X0X0X0X0X0X0X0X0X0XcXbXbXbXbXbXbXbXbXbXbXbXbXbXbXbXbXbXbXbXbXbXbXbXbXbXbXbXbXbXbXbXbXbXcXjX0X0X0X0X0X0X0X0X0X0X0X0X0X0X0X0X0X0X0X0X0X0X0X0X0X0X0X0X0XjXbXbXbXbXbXbXbXbXbXbXbXbXbXbXbXbXbXbXbXcXjX0X0X0X0X0X0X0X0X0X0X0X0X0X0X0X0X0X0X0X0X0X0X0XO O : 9 9 9 9 9 9 # O q Y Y Y Y Y [ [ [ [ [ [ [ [ [ [ [ [ [ [ [ [ [ [ [ [ [ [ [ [ [ [ [ [ [ [ [ P n n F.F.F.l a a N.V.V.V.N.H.H.H.H.H.H.H.H.H.j a a 0X0X0X0X0X0X0X0X0XE.p u p f.h.h.h.j.j.j.j.j.j.j.j.j.j.j.c.c.c.c.c.c.c.c.c.c.c.j.j.h.p p 4.E.0X0X0X0X0X0X0X0X0X0X0X0X0X0X0X0X0X0X0X0X0X0X0X0X0X0X0X0X0X0X0X0X0X0X0X0X0X0X0X0X0X0X0X0X0X0X0X0X0X0X0X0X0X0X0X0X0X0X0X0X0X0X0X0X0X0X0X0X0X0X0X0X0X0X0X0X0X0X0X0X0X0X0X0X0X0X0X0X0X0X0XjXbXbXbXbXbXbXbXbXbXbXbXbXbXbXbXbXbXbXbXbXbXbXbXbXbXbXbXbXbXbXbXbXbXbXcX0X0X0X0X0X0X0X0X0XjXbXbXbXbXbXbXbXbXbXbXbXbXbXbXbXbXbXbXbXcX[.a a ~.|.`.H.H.H.H.H.H.H.H.a a a a d F.F.F.F.F.o.n n K L L L L L Y Y Y Y Y Y Y Y Y Y Y Y Y Y Y Y Y Y Y Y N n n [ [ [ [ [ [ [ [ [ [ [ [ [ [ [ [ [ [ [ [ [ [ [ [ [ [ [ [ [ [ [ [ [ [ [ [ [ [ [ [ [ [ [ [ [ [ [ [ [ [ ` Y Y Y ; O O 9 9 9 9 9 : O O 0X0X0X0X0X0X0X0X0X0X0X0X0X0X0X0X0X0X0X0X0X0X0X0X0X0X0X0X0X0X0X0X0X0X0X0X0X0X0X0X0X0X0X0X0X0X0X0X0X0X0X0X0X0X0X0X0X0X0X0X0X0X0X0X0X0X0X0X0X0X0X0X0X0X0X0X0X0X0X0X0X0X0X0X0X0X0X0X0X0X0X0X0X0X0X0X0X0X0X0X0X0X0X0XjXbXbXbXbXbXbXbXbXbXbXbXbXbXbXbXbXbXbXbXbXjX0X0X0X0X0X0X0X0X0X0X0X0X0X0X0X0X0X0X0X0X0X0X0X0X0X0X0X0X0X0X0X0X0X0X0X0XjXbXbXbXbXbXbXbXbXbXbXbXbXbXbXbXbXbXbXbXbXbXbXbXbXbXbXbXbXbXbXbXbXbXbX",
"4X4X4X9X9X9X9X9X0X0X0X0X0X0X0X0X0X0X0X0X0X0X0X0X0X0X0X0X0X0X0X0X0X0X0X0X0X0X0X0X0X0X0X0X0X0X0X0X0X0X0X0X0X0X0X0X0X0X0X0X0X0X0X0X0X0X0X0X0X0X0X0X0X0XjXbXbXbXbXbXbXbXbXbXbXbXbXbXbXbXbXbXbXbXbXbXbXbXbXbXbXbXbXbXbXbXbXbXbXjX0X0X0X0X0X0X0X0X0X0X0X0X0X0X0X0X0X0X0X0X0X0X0X0X0X0X0X0X0X0XcXbXbXbXbXbXbXbXbXbXbXbXbXbXbXbXbXbXbXcXjX0X0X0X0X0X0X0X0X0X0X0X0X0X0X0X0X0X0X0X0X0X0X0X0XO O : 9 9 9 9 9 9 # O q Y Y Y Y Y [ [ [ [ [ [ [ [ [ [ [ [ [ [ [ [ [ [ [ [ [ [ [ [ [ [ [ [ [ [ [ P n n F.F.F.l a a V.N.V.V.V.H.H.H.H.H.H.H.H.H.j a k 0X0X0X0X0X0X0XE.4.p f.h.h.h.j.j.j.j.j.j.j.j.j.j.j.j.j.c.c.c.c.c.c.c.c.c.c.c.c.c.c.c.j.j.f.p x.*X0X0X0X0X0X0X0X0X0X0X0X0X0X0X0X0X0X0X0X0X0X0X0X0X0X0X0X0X0X0X0X0X0X0X0X0X0X0X0X0X0X0X0X0X0X0X0X0X0X0X0X0X0X0X0X0X0X0X0X0X0X0X0X0X0X0X0X0X0X0X0X0X0X0X0X0X0X0X0X0X0X0X0X0X0X0X0X0X0XcXbXbXbXbXbXbXbXbXbXbXbXbXbXbXbXbXbXbXbXbXbXbXbXbXbXbXbXbXbXbXbXbXbXcXjX0X0X0X0X0X0X0X0X0XcXbXbXbXbXbXbXbXbXbXbXbXbXbXbXbXbXbXbXcXjX[.a a _.|.`.H.H.H.H.H.H.H.H.a a a a j F.F.F.F.F.o.n n K L L L L L Y Y Y Y Y Y Y Y Y Y Y Y Y Y Y Y Y Y Y Y N n n [ [ [ [ [ [ [ [ [ [ [ [ [ [ [ [ [ [ [ [ [ [ [ [ [ [ [ [ [ [ [ [ [ [ [ [ [ [ [ [ [ [ [ [ [ [ [ [ [ [ ` Y Y Y ; O O 9 9 9 9 9 : O O 0X0X0X0X0X0X0X0X0X0X0X0X0X0X0X0X0X0X0X0X0X0X0X0X0X0X0X0X0X0X0X0X0X0X0X0X0X0X0X0X0X0X0X0X0X0X0X0X0X0X0X0X0X0X0X0X0X0X0X0X0X0X0X0X0X0X0X0X0X0X0X0X0X0X0X0X0X0X0X0X0X0X0X0X0X0X0X0X0X0X0X0X0X0X0X0X0X0X0X0X0X0X0XjXbXbXbXbXbXbXbXbXbXbXbXbXbXbXbXbXbXbXbXbXjX0X0X0X0X0X0X0X0X0X0X0X0X0X0X0X0X0X0X0X0X0X0X0X0X0X0X0X0X0X0X0X0X0X0X0X0X0XbXbXbXbXbXbXbXbXbXbXbXbXbXbXbXbXbXbXbXbXbXbXbXbXbXbXbXbXbXbXbXbXbXbXcX",
"0X0X0X0X0X0X0X0X0X0X0X0X0X0X0X0X0X0X0X0X0X0X0X0X0X0X0X0X0X0X0X0X0X0X0X0X0X0X0X0X0X0X0X0X0X0X0X0X0X0X0X0X0X0X0X0X0X0X0X0X0X0X0X0X0X0X0X0X0X0X0X0X0XjXbXbXbXbXbXbXbXbXbXbXbXbXbXbXbXbXbXbXbXbXbXbXbXbXbXbXbXbXbXbXbXbXbXbXjX0X0X0X0X0X0X0X0X0X0X0X0X0X0X0X0X0X0X0X0X0X0X0X0X0X0X0X0X0X0XjXbXbXbXbXbXbXbXbXbXbXbXbXbXbXbXbXbXbXbXjX0X0X0X0X0X0X0X0X0X0X0X0X0X0X0X0X0X0X0X0X0X0X0X0X0XO O : 9 9 9 9 9 9 # O q Y Y Y Y Y [ [ [ [ [ [ [ [ [ [ [ [ [ [ [ [ [ [ [ [ [ [ [ [ [ [ [ [ [ [ [ P n n F.F.F.l a a N.N.V.V.V.H.H.H.H.H.H.H.H.H.j a 5.0X0X0XjX0XE.4.p f.h.h.j.j.j.j.j.j.j.j.j.j.j.j.j.j.k.c.c.c.c.c.c.c.c.c.c.c.c.c.c.c.c.c.c.k.h.p p E.0X0X0X0X0X0X0X0X0X0X0X0X0X0X0X0X0X0X0X0X0X0X0X0X0X0X0X0X0X0X0X0X0X0X0X0X0X0X0X0X0X0X0X0X0X0X0X0X0X0X0X0X0X0X0X0X0X0X0X0X0X0X0X0X0X0X0X0X0X0X0X0X0X0X0X0X0X0X0X0X0X0X0X0X0X0X0XjXbXbXbXbXbXbXbXbXbXbXbXbXbXbXbXbXbXbXbXbXbXbXbXbXbXbXbXbXbXbXbXbXbXbXjX0X0X0X0X0X0X0X0X0XjXbXbXbXbXbXbXbXbXbXbXbXbXbXbXbXbXbXbXbXjX0X[.a a ).|.`.H.H.H.H.H.H.H.H.a a a a j F.F.F.F.F.o.n n K L L L L L Y Y Y Y Y Y Y Y Y Y Y Y Y Y Y Y Y Y Y Y N n n [ [ [ [ [ [ [ [ [ [ [ [ [ [ [ [ [ [ [ [ [ [ [ [ [ [ [ [ [ [ [ [ [ [ [ [ [ [ [ [ [ [ [ [ [ [ [ [ [ [ ` Y Y Y ; O O 9 9 9 9 9 : O O 0X0X0X0X0X0X0X0X0X0X0X0X0X0X0X0X0X0X0X0X0X0X0X0X0X0X0X0X0X0X0X0X0X0X0X0X0X0X0X0X0X0X0X0X0X0X0X0X0X0X0X0X0X0X0X0X0X0X0X0X0X0X0X0X0X0X0X0X0X0X0X0X0X0X0X0X0X0X0X0X0X0X0X0X0X0X0X0X0X0X0X0X0X0X0X0X0X0X0X0X0X0XjXbXbXbXbXbXbXbXbXbXbXbXbXbXbXbXbXbXbXbXbXjX0X0X0X0X0X0X0X0X0X0X0X0X0X0X0X0X0X0X0X0X0X0X0X0X0X0X0X0X0X0X0X0X0X0X0X0X0XcXbXbXbXbXbXbXbXbXbXbXbXbXbXbXbXbXbXbXbXbXbXbXbXbXbXbXbXbXbXbXbXbXbXcXjX",
"0X0X0X0X0X0X0X0X0X0X0X0X0X0X0X0X0X0X0X0X0X0X0X0X0X0X0X0X0X0X0X0X0X0X0X0X0X0X0X0X0X0X0X0X0X0X0X0X0X0X0X0X0X0X0X0X0X0X0X0X0X0X0X0X0X0X0X0X0X0X0X0X0XbXbXbXbXbXbXbXbXbXbXbXbXbXbXbXbXbXbXbXbXbXbXbXbXbXbXbXbXbXbXbXbXbXbXcX0X0X0X0X0X0X0X0X0X0X0X0X0X0X0X0X0X0X0X0X0X0X0X0X0X0X0X0X0X0XjXbXbXbXbXbXbXbXbXbXbXbXbXbXbXbXbXbXbXbXcX0X0X0X0X0X0X0X0X0X0X0X0X0X0X0X0X0X0X0X0X0X0X0X0X0X0XO O : 9 9 9 9 9 9 # O q Y Y Y Y Y [ [ [ [ [ [ [ [ [ [ [ [ [ [ [ [ [ [ [ [ [ [ [ [ [ [ [ [ [ [ [ P n n F.F.F.l a a V.V.V.V.V.H.H.H.H.H.H.H.H.H.j a 5.0X0X0XjXE.p f.h.h.j.j.j.j.j.j.j.j.j.j.j.j.j.j.j.j.c.c.c.c.c.c.c.c.c.c.c.c.c.c.c.c.c.c.c.c.c.j.f.p x.*XjXjXjX0X0X0X0X0X0X0X0X0X0X0X0X0X0X0X0X0X0X0X0X0X0X0X0X0X0X0X0X0X0X0X0X0X0X0X0X0X0X0X0X0X0X0X0X0X0X0X0X0X0X0X0X0X0X0X0X0X0X0X0X0X0X0X0X0X0X0X0X0X0X0X0X0X0X0X0X0X0X0X0X0XjXbXbXbXbXbXbXbXbXbXbXbXbXbXbXbXbXbXbXbXbXbXbXbXbXbXbXbXbXbXbXbXbXbXbXjX0X0X0X0X0X0X0X0X0XjXbXbXbXbXbXbXbXbXbXbXbXbXbXbXbXbXbXbXbXcX0X0X[.a a ).|.`.H.H.H.H.H.H.H.H.a a a a j F.F.F.F.F.o.n n K L L L L L Y Y Y Y Y Y Y Y Y Y Y Y Y Y Y Y Y Y Y Y N n n [ [ [ [ [ [ [ [ [ [ [ [ [ [ [ [ [ [ [ [ [ [ [ [ [ [ [ [ [ [ [ [ [ [ [ [ [ [ [ [ [ [ [ [ [ [ [ [ [ [ ` Y Y Y ; O O 9 9 9 9 9 : O O 0X0X0X0X0X0X0X0X0X0X0X0X0X0X0X0X0X0X0X0X0X0X0X0X0X0X0X0X0X0X0X0X0X0X0X0X0X0X0X0X0X0X0X0X0X0X0X0X0X0X0X0X0X0X0X0X0X0X0X0X0X0X0X0X0X0X0X0X0X0X0X0X0X0X0X0X0X0X0X0X0X0X0X0X0X0X0X0X0X0X0X0X0X0X0X0X0X0X0X0X0XjXbXbXbXbXbXbXbXbXbXbXbXbXbXbXbXbXbXbXbXbXcX0X0X0X0X0X0X0X0X0X0X0X0X0X0X0X0X0X0X0X0X0X0X0X0X0X0X0X0X0X0X0X0X0X0X0X0X0XjXbXbXbXbXbXbXbXbXbXbXbXbXbXbXbXbXbXbXbXbXbXbXbXbXbXbXbXbXbXbXbXbXbXbXjX0X",
"0X0X0X0X0X0X0X0X0X0X0X0X0X0X0X0X0X0X0X0X0X0X0X0X0X0X0X0X0X0X0X0X0X0X0X0X0X0X0X0X0X0X0X0X0X0X0X0X0X0X0X0X0X0X0X0X0X0X0X0X0X0X0X0X0X0X0X0X0X0X0X0XcXbXbXbXbXbXbXbXbXbXbXbXbXbXbXbXbXbXbXbXbXbXbXbXbXbXbXbXbXbXbXbXbXbXcXjX0X0X0X0X0X0X0X0X0X0X0X0X0X0X0X0X0X0X0X0X0X0X0X0X0X0X0X0X0X0XbXbXbXbXbXbXbXbXbXbXbXbXbXbXbXbXbXbXbXcXjX0X0X0X0X0X0X0X0X0X0X0X0X0X0X0X0X0X0X0X0X0X0X0X0X0X0XO O : 9 9 9 9 9 9 # O q | Y Y Y Y [ [ [ [ [ [ [ [ [ [ [ [ [ [ [ [ [ [ [ [ [ [ [ [ [ [ [ [ [ [ [ P n n F.F.F.l a a V.V.V.V.V.H.H.H.H.H.H.H.H.H.j a 5.0X0X0Xx.p f.h.j.j.j.j.j.j.j.j.j.j.j.j.j.j.j.j.j.c.c.c.c.c.c.c.b.aXaXb.aXaXb.sXaXb.sXc.aXsXb.c.j.f.p p *X0XjX0X0X0X0X0X0X0X0X0X0X0X0X0X0X0X0X0X0X0X0X0X0X0X0X0X0X0X0X0X0X0X0X0X0X0X0X0X0X0X0X0X0X0X0X0X0X0X0X0X0X0X0X0X0X0X0X0X0X0X0X0X0X0X0X0X0X0X0X0X0X0X0X0X0X0X0X0X0X0X0X0XcXbXbXbXbXbXbXbXbXbXbXbXbXbXbXbXbXbXbXbXbXbXbXbXbXbXbXbXbXbXbXbXbXbXcX0X0X0X0X0X0X0X0X0X0XcXbXbXbXbXbXbXbXbXbXbXbXbXbXbXbXbXbXbXcXjX0X0X[.a a ).|._.H.H.H.H.H.H.H.H.a a a a j F.F.F.F.F.o.n n K L L L L L Y Y Y Y Y Y Y Y Y Y Y Y Y Y Y Y Y Y Y Y N n n [ [ [ [ [ [ [ [ [ [ [ [ [ [ [ [ [ [ [ [ [ [ [ [ [ [ [ [ [ [ [ [ [ [ [ [ [ [ [ [ [ [ [ [ [ [ [ [ [ [ ` Y Y Y ; O O 9 9 9 9 9 : O O 0X0X0X0X0X0X0X0X0X0X0X0X0X0X0X0X0X0X0X0X0X0X0X0X0X0X0X0X0X0X0X0X0X0X0X0X0X0X0X0X0X0X0X0X0X0X0X0X0X0X0X0X0X0X0X0X0X0X0X0X0X0X0X0X0X0X0X0X0X0X0X0X0X0X0X0X0X0X0X0X0X0X0X0X0X0X0X0X0X0X0X0X0X0X0X0X0X0X0X0X0XcXbXbXbXbXbXbXbXbXbXbXbXbXbXbXbXbXbXbXbXcXjX0X0X0X0X0X0X0X0X0X0X0X0X0X0X0X0X0X0X0X0X0X0X0X0X0X0X0X0X0X0X0X0X0X0X0X0XjXbXbXbXbXbXbXbXbXbXbXbXbXbXbXbXbXbXbXbXbXbXbXbXbXbXbXbXbXbXbXbXbXbXbXcX0X0X",
"0X0X0X0X0X0X0X0X0X0X0X0X0X0X0X0X0X0X0X0X0X0X0X0X0X0X0X0X0X0X0X0X0X0X0X0X0X0X0X0X0X0X0X0X0X0X0X0X0X0X0X0X0X0X0X0X0X0X0X0X0X0X0X0X0X0X0X0X0X0X0XjXbXbXbXbXbXbXbXbXbXbXbXbXbXbXbXbXbXbXbXbXbXbXbXbXbXbXbXbXbXbXbXbXbXbXjX0X0X0X0X0X0X0X0X0X0X0X0X0X0X0X0X0X0X0X0X0X0X0X0X0X0X0X0X0X0XcXbXbXbXbXbXbXbXbXbXbXbXbXbXbXbXbXbXbXbXjX0X0X0X0X0X0X0X0X0X0X0X0X0X0X0X0X0X0X0X0X0X0X0X0X0X0X0XO O : 9 9 9 9 9 9 $ O q O.Y Y Y Y [ [ [ [ [ [ [ [ [ [ [ [ [ [ [ [ [ [ [ [ [ [ [ [ [ [ [ [ [ [ [ P n n F.F.F.l a a N.V.V.V.V.H.H.H.H.H.H.H.H.H.j a 5.0X*X4.p f.h.j.j.j.j.j.j.j.j.j.j.j.j.j.j.j.j.j.k.c.c.c.c.c.c.c.M.CXM.M.CXCXv.sXNXNXNXaXM.ZXM.c.c.j.h.p p *X0X0X0X0X0X0X0X0X0X0X0X0X0X0X0X0X0X0X0X0X0X0X0X0X0X0X0X0X0X0X0X0X0X0X0X0X0X0X0X0X0X0X0X0X0X0X0X0X0X0X0X0X0X0X0X0X0X0X0X0X0X0X0X0X0X0X0X0X0X0X0X0X0X0X0X0X0X0X0X0X0XjXbXbXbXbXbXbXbXbXbXbXbXbXbXbXbXbXbXbXbXbXbXbXbXbXbXbXbXbXbXbXbXbXbXcXjX0X0X0X0X0X0X0X0X0XjXbXbXbXbXbXbXbXbXbXbXbXbXbXbXbXbXbXbXbXjX0X0X0XT.a a ).|.).H.H.H.H.H.H.H.H.a a a a j F.V.F.F.F.o.n n K L L L L L Y Y Y Y Y Y Y Y Y Y Y Y Y Y Y Y Y Y Y Y N n n [ [ [ [ [ [ [ [ [ [ [ [ [ [ [ [ [ [ [ [ [ [ [ [ [ [ [ [ [ [ [ [ [ [ [ [ [ [ [ [ [ [ [ [ [ [ [ [ [ [ ` Y Y Y ; O O 9 9 9 9 9 : O O 0X0X0X0X0X0X0X0X0X0X0X0X0X0X0X0X0X0X0X0X0X0X0X0X0X0X0X0X0X0X0X0X0X0X0X0X0X0X0X0X0X0X0X0X0X0X0X0X0X0X0X0X0X0X0X0X0X0X0X0X0X0X0X0X0X0X0X0X0X0X0X0X0X0X0X0X0X0X0X0X0X0X0X0X0X0X0X0X0X0X0X0X0X0X0X0X0X0X0X0XcXbXbXbXbXbXbXbXbXbXbXbXbXbXbXbXbXbXbXbXcXjX0X0X0X0X0X0X0X0X0X0X0X0X0X0X0X0X0X0X0X0X0X0X0X0X0X0X0X0X0X0X0X0X0X0X0X0X0XcXbXbXbXbXbXbXbXbXbXbXbXbXbXbXbXbXbXbXbXbXbXbXbXbXbXbXbXbXbXbXbXbXbXcXjX0X0X",
"0X0X0X0X0X0X0X0X0X0X0X0X0X0X0X0X0X0X0X0X0X0X0X0X0X0X0X0X0X0X0X0X0X0X0X0X0X0X0X0X0X0X0X0X0X0X0X0X0X0X0X0X0X0X0X0X0X0X0X0X0X0X0X0X0X0X0X0X0X0XjXbXbXbXbXbXbXbXbXbXbXbXbXbXbXbXbXbXbXbXbXbXbXbXbXbXbXbXbXbXbXbXbXbXbXcX0X0X0X0X0X0X0X0X0X0X0X0X0X0X0X0X0X0X0X0X0X0X0X0X0X0X0X0X0X0XjXbXbXbXbXbXbXbXbXbXbXbXbXbXbXbXbXbXbXbXjX0X0X0X0X0X0X0X0X0X0X0X0X0X0X0X0X0X0X0X0X0X0X0X0X0X0X0X0XO O : 9 9 9 9 9 0 $ O q O.Y Y Y Y ` [ [ [ [ [ [ [ [ [ [ [ [ [ [ [ [ [ [ [ [ [ [ [ [ [ [ [ [ [ [ P n n F.F.F.l a a V.V.V.V.V.H.H.H.H.H.H.H.H.H.j a 5.*Xp p h.h.j.j.j.j.j.j.j.j.j.j.j.j.j.j.j.j.j.j.c.c.c.c.c.c.c.c.v.M.v.v.M.M.c.b.b.b.b.b.v.M.v.c.c.c.k.h.p p *X0X0X0X0X0X0X0X0X0X0X0X0X0X0X0X0X0X0X0X0X0X0X0X0X0X0X0X0X0X0X0X0X0X0X0X0X0X0X0X0X0X0X0X0X0X0X0X0X0X0X0X0X0X0X0X0X0X0X0X0X0X0X0X0X0X0X0X0X0X0X0X0X0X0X0X0X0X0X0XjXbXbXbXbXbXbXbXbXbXbXbXbXbXbXbXbXbXbXbXbXbXbXbXbXbXbXbXbXbXbXbXbXbXbXjX0X0X0X0X0X0X0X0X0XjXbXbXbXbXbXbXbXbXbXbXbXbXbXbXbXbXbXbXbXcX0X0X0X0XT.a a ).|.).H.H.H.H.H.H.H.H.a a a a j F.V.F.F.F.o.n n K L L L L L Y Y Y Y Y Y Y Y Y Y Y Y Y Y Y Y Y Y Y Y N n n [ [ [ [ [ [ [ [ [ [ [ [ [ [ [ [ [ [ [ [ [ [ [ [ [ [ [ [ [ [ [ [ [ [ [ [ [ [ [ [ [ [ [ [ [ [ [ [ [ [ ` Y Y Y ; O O 9 9 9 9 9 : O O 0X0X0X0X0X0X0X0X0X0X0X0X0X0X0X0X0X0X0X0X0X0X0X0X0X0X0X0X0X0X0X0X0X0X0X0X0X0X0X0X0X0X0X0X0X0X0X0X0X0X0X0X0X0X0X0X0X0X0X0X0X0X0X0X0X0X0X0X0X0X0X0X0X0X0X0X0X0X0X0X0X0X0X0X0X0X0X0X0X0X0X0X0X0X0X0X0X0X0XjXbXbXbXbXbXbXbXbXbXbXbXbXbXbXbXbXbXbXbXcXjX0X0X0X0X0X0X0X0X0X0X0X0X0X0X0X0X0X0X0X0X0X0X0X0X0X0X0X0X0X0X0X0X0X0X0X0X0XjXbXbXbXbXbXbXbXbXbXbXbXbXbXbXbXbXbXbXbXbXbXbXbXbXbXbXbXbXbXbXbXbXbXbXjX0X0X0X",
"0X0X0X0X0X0X0X0X0X0X0X0X0X0X0X0X0X0X0X0X0X0X0X0X0X0X0X0X0X0X0X0X0X0X0X0X0X0X0X0X0X0X0X0X0X0X0X0X0X0X0X0X0X0X0X0X0X0X0X0X0X0X0X0X0X0X0X0X0X0XcXbXbXbXbXbXbXbXbXbXbXbXbXbXbXbXbXbXbXbXbXbXbXbXbXbXbXbXbXbXbXbXbXbXcXjX0X0X0X0X0X0X0X0X0X0X0X0X0X0X0X0X0X0X0X0X0X0X0X0X0X0X0X0X0XjXbXbXbXbXbXbXbXbXbXbXbXbXbXbXbXbXbXbXbXcX0X0X0X0X0X0X0X0X0X0X0X0X0X0X0X0X0X0X0X0X0X0X0X0X0X0X0X0X0XO O : 9 9 9 9 9 9 # O q O.Y Y Y Y ` [ [ [ [ [ [ [ [ [ [ [ [ [ [ [ [ [ [ [ [ [ [ [ [ [ [ [ [ [ [ P n n F.F.F.l a a V.V.V.V.V.H.H.H.H.H.H.H.H.H.j a d p p h.j.j.j.j.j.j.j.j.j.j.j.j.j.j.j.j.j.j.j.c.c.c.c.c.c.c.c.c.c.c.c.c.aXaXsXsXsXaXb.c.c.c.c.c.c.c.c.j.h.p p 0X0X0X0X0X0X0X0X0X0X0X0X0X0X0X0X0X0X0X0X0X0X0X0X0X0X0X0X0X0X0X0X0X0X0X0X0X0X0X0X0X0X0X0X0X0X0X0X0XjX0X9X9X1X1X1X9X0X0X0X0X0X0X0X0X0X0X0X0X0X0X0X0X0X0X0X0X0X0XbXbXbXbXbXbXbXbXbXbXbXbXbXbXbXbXbXbXbXbXbXbXbXbXbXbXbXbXbXbXbXbXbXbXcX0X0X0X0X0X0X0X0X0X0XcXbXbXbXbXbXbXbXbXbXbXbXbXbXbXbXbXbXbXcXjX0X0X0X0XT.a a ).|.).H.H.H.H.H.H.H.V.a a a a j F.F.F.F.F...n n K L L L L L Y Y Y Y Y Y Y Y Y Y Y Y Y Y Y Y Y Y Y Y N n n [ [ [ [ [ [ [ [ [ [ [ [ [ [ [ [ [ [ [ [ [ [ [ [ [ [ [ [ [ [ [ [ [ [ [ [ [ [ [ [ [ [ [ [ [ [ [ [ [ [ ` Y Y Y ; O O 9 9 9 9 9 : O O 0X0X0X0X0X0X0X0X0X0X0X0X0X0X0X0X0X0X0X0X0X0X0X0X0X0X0X0X0X0X0X0X0X0X0X0X0X0X0X0X0X0X0X0X0X0X0X0X0X0X0X0X0X0X0X0X0X0X0X0X0X0X0X0X0X0X0X0X0X0X0X0X0X0X0X0X0X0X0X0X0X0X0X0X0X0X0X0X0X0X0X0X0X0X0X0X0X0XjXbXbXbXbXbXbXbXbXbXbXbXbXbXbXbXbXbXbXbXcXjX0X0X0X0X0X0X0X0X0X0X0X0X0X0X0X0X0X0X0X0X0X0X0X0X0X0X0X0X0X0X0X0X0X0X0X0X0XjXbXbXbXbXbXbXbXbXbXbXbXbXbXbXbXbXbXbXbXbXbXbXbXbXbXbXbXbXbXbXbXbXbXbXcX0X0X0X0X",
"0X0X0X0X0X0X0X0X0X0X0X0X0X0X0X0X0X0X0X0X0X0X0X0X0X0X0X0X0X0X0X0X0X0X0X0X0X0X0X0X0X0X0X0X0X0X0X0X0X0X0X0X0X0X0X0X0X0X0X0X0X0X0X0X0X0X0X0X0XjXbXbXbXbXbXbXbXbXbXbXbXbXbXbXbXbXbXbXbXbXbXbXbXbXbXbXbXbXbXbXbXbXbXbXjX0X0X0X0X0X0X0X0X0X0X0X0X0X0X0X0X0X0X0X0X0X0X0X0X0X0X0X0X0X0XcXbXbXbXbXbXbXbXbXbXbXbXbXbXbXbXbXbXbXcXjX0X0X0X0X0X0X0X0X0X0X0X0X0X0X0X0X0X0X0X0X0X0X0X0X0X0X0X0X0XO O : 9 9 9 9 9 9 # O q O.Y Y Y Y ` [ [ [ [ [ [ [ [ [ [ [ [ [ [ [ [ [ [ [ [ [ [ [ [ [ [ [ [ [ [ P n n F.F.F.l a a V.V.V.V.V.H.H.H.H.H.H.H.H.H.d a a p h.j.j.j.j.j.j.j.j.j.j.j.j.j.j.j.j.j.j.j.j.c.c.c.c.c.c.c.c.c.c.c.c.c.sXsXb.aXsXsXaXaXc.c.c.c.c.c.c.c.j.h.p x.0X0X0X0X0X0X0X0X0X0X0X0X0X0X0X0X0X0X0X0X0X0X0X0X0X0X0X0X0X0X0X0X0X0X0X0X0X0X0X0X0X0X0X0X0X0X0X0X9X X X X X X X X X1X0X0X0X0X0X0X0X0X0X0X0X0X0X0X0X0X0X0X0XcXbXbXbXbXbXbXbXbXbXbXbXbXbXbXbXbXbXbXbXbXbXbXbXbXbXbXbXbXbXbXbXbXbXcXjX0X0X0X0X0X0X0X0X0XjXbXbXbXbXbXbXbXbXbXbXbXbXbXbXbXbXbXbXbXjX0X0X0X0X0XT.a a ).|.).H.H.H.H.H.H.H.V.a a a a j F.F.F.F.F. .n n K L L L L L Y Y Y Y Y Y Y Y Y Y Y Y Y Y Y Y Y Y Y Y N n n [ [ [ [ [ [ [ [ [ [ [ [ [ [ [ [ [ [ [ [ [ [ [ [ [ [ [ [ [ [ [ [ [ [ [ [ [ [ [ [ [ [ [ [ [ [ [ [ [ [ ` Y Y Y ; O O 9 9 9 9 9 : O O 0X0X0X0X0X0X0X0X0X0X0X0X0X0X0X0X0X0X0X0X0X0X0X0X0X0X0X0X0X0X0X0X0X0X0X0X0X0X0X0X0X0X0X0X0X0X0X0X0X0X0X0X0X0X0X0X0X0X0X0X0X0X0X0X0X0X0X0X0X0X0X0X0X0X0X0X0X0X0X0X0X0X0X0X0X0X0X0X0X0X0X0X0X0X0X0X0XjXbXbXbXbXbXbXbXbXbXbXbXbXbXbXbXbXbXbXbXbXjX0X0X0X0X0X0X0X0X0X0X0X0X0X0X0X0X0X0X0X0X0X0X0X0X0X0X0X0X0X0X0X0X0X0X0X0X0X0XcXbXbXbXbXbXbXbXbXbXbXbXbXbXbXbXbXbXbXbXbXbXbXbXbXbXbXbXbXbXbXbXbXbXcXjX0X0X0X0X",
"0X0X0X0X0X0X0X0X0X0X0X0X0X0X0X0X0X0X0X0X0X0X0X0X0X0X0X0X0X0X0X0X0X0X0X0X0X0X0X0X0X0X0X0X0X0X0X0X0X0X0X0X0X0X0X0X0X0X0X0X0X0X0X0X0X0X0X0XjXbXbXbXbXbXbXbXbXbXbXbXbXbXbXbXbXbXbXbXbXbXbXbXbXbXbXbXbXbXbXbXbXbXbXjX0X0X0X0X0X0X0X0X0X0X0X0X0X0X0X0X0X0X0X0X0X0X0X0X0X0X0X0X0X0XjXbXbXbXbXbXbXbXbXbXbXbXbXbXbXbXbXbXbXbXjX0X0X0X0X0X0X0X0X0X0X0X0X0X0X0X0X0X0X0X0X0X0X0X0X0X0X0X0X0X0XO O : 9 9 9 9 9 9 # O q O.Y Y Y Y ` [ [ [ [ [ [ [ [ [ [ [ [ [ [ [ [ [ [ [ [ [ [ [ [ [ [ [ [ [ [ P n n F.F.F.l a a V.V.V.V.V.H.H.H.H.H.H.H.H.H.a a a f.j.j.j.j.j.j.j.j.j.j.j.j.j.j.j.j.j.j.j.j.k.c.c.c.c.c.c.c.c.c.c.c.c.c.b.M.aXM.M.M.M.CXaXc.c.c.c.c.c.c.c.j.f.p E.0X0X0X0X0X0X0X0X0X0X0X0X0X0X0X0X0X0X0X0X0X0X0X0X0X0X0X0X0X0X0X0X0X0X0X0X0X0X0X0X0X0X0X0X0X9X X X|.dXkXkXkXkXdX|.|. X9X0X0X0X0XjX0X0X0X0X0X0X0X0X0X0X0XjXbXbXbXbXbXbXbXbXbXbXbXbXbXbXbXbXbXbXbXbXbXbXbXbXbXbXbXbXbXbXbXbXbXbXjX0X0X0X0X0X0X0X0X0XjXbXbXbXbXbXbXbXbXbXbXbXbXbXbXbXbXbXbXbXcX0X0X0X0X0X0XT.a a ).|.).H.H.H.H.H.H.H.V.a a a a j F.F.F.F.F. .n n L L L L L L Y Y Y Y Y Y Y Y Y Y Y Y Y Y Y Y Y Y Y Y N n n [ [ [ [ [ [ [ [ [ [ [ [ [ [ [ [ [ [ [ [ [ [ [ [ [ [ [ [ [ [ [ [ [ [ [ [ [ [ [ [ [ [ [ [ [ [ [ [ [ [ ` Y Y Y ; O O 9 9 9 9 9 : O O 0X0X0X0X0X0X0X0X0X0X0X0X0X0X0X0X0X0X0X0X0X0X0X0X0X0X0X0X0X0X0X0X0X0X0X0X0X0X0X0X0X0X0X0X0X0X0X0X0X0X0X0X0X0X0X0X0X0X0X0X0X0X0X0X0X0X0X0X0X0X0X0X0X0X0X0X0X0X0X0X0X0X0X0X0X0X0X0X0X0X0X0X0X0X0X0XjXbXbXbXbXbXbXbXbXbXbXbXbXbXbXbXbXbXbXbXbXjX0X0X0X0X0X0X0X0X0X0X0X0X0X0X0X0X0X0X0X0X0X0X0X0X0X0X0X0X0X0X0X0X0X0X0X0X0X0XcXbXbXbXbXbXbXbXbXbXbXbXbXbXbXbXbXbXbXbXbXbXbXbXbXbXbXbXbXbXbXbXbXbXcXjX0X0X0X0X0X",
"0X0X0X0X0X0X0X0X0X0X0X0X0X0X0X0X0X0X0X0X0X0X0X0X0X0X0X0X0X0X0X0X0X0X0X0X0X0X0X0X0X0X0X0X0X0X0X0X0X0X0X0X0X0X0X0X0X0X0X0X0X0X0X0X0X0X0X0XcXbXbXbXbXbXbXbXbXbXbXbXbXbXbXbXbXbXbXbXbXbXbXbXbXbXbXbXbXbXbXbXbXbXcX0X0X0X0X0X0X0X0X0X0X0X0X0X0X0X0X0X0X0X0X0X0X0X0X0X0X0X0X0X0XjXbXbXbXbXbXbXbXbXbXbXbXbXbXbXbXbXbXbXbXcX0X0X0X0X0X0X0X0X0X0X0X0X0X0X0X0X0X0X0X0X0X0X0X0X0X0X0X0X0X0X0XO O : 9 9 9 9 9 9 # O q K.Y Y Y Y ` [ [ [ [ [ [ [ [ [ [ [ [ [ [ [ [ [ [ [ [ [ [ [ [ [ [ [ [ [ [ P n n F.F.F.l a a V.V.V.V.V.H.H.H.H.H.H.H.H.H.a a p h.j.j.j.j.j.j.j.j.j.j.j.j.j.j.j.j.j.j.j.j.c.c.c.c.c.c.c.c.c.c.c.c.c.c.b.aXsXaXaXv.aXsXsXc.c.c.c.c.c.c.c.c.h.f.p E.0X0X0X0X0X0X0X0X0X0X0X0X0X0X0X0X0X0X0X0X0X0X0X0X0X0X0X0X0X0X0X0X0X0X0X0X0X0X0X0X0X0X0X1X1X|.kXVXZXZXZXZXZXZXzXdX|. X1X0X0X0X0X0X0X0X0X0X0X0X0X0X0XjXbXbXbXbXbXbXbXbXbXbXbXbXbXbXbXbXbXbXbXbXbXbXbXbXbXbXbXbXbXbXbXbXbXbXjX0X0X0X0X0X0X0X0X0X0XbXbXbXbXbXbXbXbXbXbXbXbXbXbXbXbXbXbXbXcXjX0X0X0X0X0X0XT.a a ).|.).H.H.H.H.H.H.H.V.a a a a j F.F.F.F.F. .n n L L L L L L Y Y Y Y Y Y Y Y Y Y Y Y Y Y Y Y Y Y Y Y N n n [ [ [ [ [ [ [ [ [ [ [ [ [ [ [ [ [ [ [ [ [ [ [ [ [ [ [ [ [ [ [ [ [ [ [ [ [ [ [ [ [ [ [ [ [ [ [ [ [ [ ` Y Y Y ; O O 9 9 9 9 9 : O O 0X0X0X0X0X0X0X0X0X0X0X0X0X0X0X0X0X0X0X0X0X0X0X0X0X0X0X0X0X0X0X0X0X0X0X0X0X0X0X0X0X0X0X0X0X0X0X0X0X0X0X0X0X0X0X0X0X0X0X0X0X0X0X0X0X0X0X0X0X0X0X0X0X0X0X0X0X0X0X0X0X0X0X0X0X0X0X0X0X0X0X0X0X0X0XjXbXbXbXbXbXbXbXbXbXbXbXbXbXbXbXbXbXbXbXbXjX0X0X0X0X0X0X0X0X0X0X0X0X0X0X0X0X0X0X0X0X0X0X0X0X0X0X0X0X0X0X0X0X0X0X0X0X0X0XjXbXbXbXbXbXbXbXbXbXbXbXbXbXbXbXbXbXbXbXbXbXbXbXbXbXbXbXbXbXbXbXbXbXbXjX0X0X0X0X0X0X",
"0X0X0X0X0X0X0X0X0X0X0X0X0X0X0X0X0X0X0X0X0X0X0X0X0X0X0X0X0X0X0X0X0X0X0X0X0X0X0X0X0X0X0X0X0X0X0X0X0X0X0X0X0X0X0X0X0X0X0X0X0X0X0X0X0X0X0XcXbXbXbXbXbXbXbXbXbXbXbXbXbXbXbXbXbXbXbXbXbXbXbXbXbXbXbXbXbXbXbXbXbXcXjX0X0X0X0X0X0X0X0X0X0X0X0X0X0X0X0X0X0X0X0X0X0X0X0X0X0X0X0X0XjXbXbXbXbXbXbXbXbXbXbXbXbXbXbXbXbXbXbXbXcXjX0X0X0X0X0X0X0X0X0X0X0X0X0X0X0X0X0X0X0X0X0X0X0X0X0X0X0X0X0X0X0XO O : 9 9 9 9 9 9 # O q K.Y Y Y Y ` [ [ [ [ [ [ [ [ [ [ [ [ [ [ [ [ [ [ [ [ [ [ [ [ [ [ [ [ [ [ P n n F.F.F.j a a V.V.V.V.V.H.H.H.H.H.H.H.H.H.a a p j.j.j.j.j.j.j.j.j.j.j.j.j.j.j.j.j.j.j.j.j.c.c.c.c.c.c.c.c.c.c.c.c.c.c.sXsXsXsXsXc.sXNXM.c.c.c.c.c.c.c.c.c.j.h.f.p 0X0X0X0X0X0X0X0X0X0X0X0X0X0X0X0X0X0X0X0X0X0X0X0X0X0X0X0X0X0X0X0X0X0X0X0X0X0X0X0X0X0X1X X|.fXZXAXAXBXBXlXZXZXAXZXfX|. X9X0X0X0X0X0X0X0X0X0X0X0X0X0XcXbXbXbXbXbXbXbXbXbXbXbXbXbXbXbXbXbXbXbXbXbXbXbXbXbXbXbXbXbXbXbXbXbXcX0X0X0X0X0X0X0X0X0X0XcXbXbXbXbXbXbXbXbXbXbXbXbXbXbXbXbXbXbXbXjX0X0X0X0X0X0X0XT.a a ).|.).H.H.H.H.H.H.H.V.a a a a j F.F.F.F.F. .n n L L L L L L Y Y Y Y Y Y Y Y Y Y Y Y Y Y Y Y Y Y Y Y N n n [ [ [ [ [ [ [ [ [ [ [ [ [ [ [ [ [ [ [ [ [ [ [ [ [ [ [ [ [ [ [ [ [ [ [ [ [ [ [ [ [ [ [ [ [ [ [ [ [ [ ` Y Y Y ; O O 9 9 9 9 9 : O O 0X0X0X0X0X0X0X0X0X0X0X0X0X0X0X0X0X0X0X0X0X0X0X0X0X0X0X0X0X0X0X0X0X0X0X0X0X0X0X0X0X0X0X0X0X0X0X0X0X0X0X0X0X0X0X0X0X0X0X0X0X0X0X0X0X0X0X0X0X0X0X0X0X0X0X0X0X0X0X0X0X0X0X0X0X0X0X0X0X0X0X0X0X0XjXbXbXbXbXbXbXbXbXbXbXbXbXbXbXbXbXbXbXbXbXcX0X0X0X0X0X0X0X0X0X0X0X0X0X0X0X0X0X0X0X0X0X0X0X0X0X0X0X0X0X0X0X0X0X0X0X0X0X0XjXbXbXbXbXbXbXbXbXbXbXbXbXbXbXbXbXbXbXbXbXbXbXbXbXbXbXbXbXbXbXbXbXbXbXcX0X0X0X0X0X0X0X",
"0X0X0X0X0X0X0X0X0X0X0X0X0X0X0X0X0X0X0X0X0X0X0X0X0X0X0X0X0X0X0X0X0X0X0X0X0X0X0X0X0X0X0X0X0X0X0X0X0X0X0X0X0X0X0X0X0X0X0X0X0X0X0X0X0X0XjXbXbXbXbXbXbXbXbXbXbXbXbXbXbXbXbXbXbXbXbXbXbXbXbXbXbXbXbXbXbXbXbXbXbXjX0X0X0X0X0X0X0X0X0X0X0X0X0X0X0X0X0X0X0X0X0X0X0X0X0X0X0X0X0X0XcXbXbXbXbXbXbXbXbXbXbXbXbXbXbXbXbXbXbXbXjX0X0X0X0X0X0X0X0X0X0X0X0X0X0X0X0X0X0X0X0X0X0X0X0X0X0X0X0X0X0X0X0XO O : 9 9 9 9 9 9 # O q K.Y Y Y Y ` [ [ [ [ [ [ [ [ [ [ [ [ [ [ [ [ [ [ [ [ [ [ [ [ [ [ [ [ [ [ P n n F.F.F.j a a V.V.V.N.F.H.H.H.H.H.H.H.H.H.a a p j.j.j.j.j.j.j.j.j.j.j.j.j.j.j.j.j.j.j.j.j.c.c.c.c.c.c.c.c.c.c.c.c.c.c.b.M.sXsXsXaXsXb.v.c.c.c.c.c.c.c.c.c.c.j.h.p E.0X0X0X0X0X0X0X0X0X0X0X0X0X0X0X0X0X0X0X0X0X0X0X0X0X0X0X0X0X0X0X0X0X0X0X0X0X0X0X0X9X X|.fXZXAXBXdXfX X XdXdXBXAXZXfX|.1X0X0X0XjX0X0X0X0X0X0X0X0XjXbXbXbXbXbXbXbXbXbXbXbXbXbXbXbXbXbXbXbXbXbXbXbXbXbXbXbXbXbXbXbXbXbXcXjX0X0X0X0X0X0X0X0X0XjXbXbXbXbXbXbXbXbXbXbXbXbXbXbXbXbXbXbXbXjX0X0X0X0X0X0X0X0XT.a a |.|.).H.H.H.H.H.H.H.V.a a a a j F.F.F.F.F. .n n L L L L L L Y Y Y Y Y Y Y Y Y Y Y Y Y Y Y Y Y Y Y Y N n n [ [ [ [ [ [ [ [ [ [ [ [ [ [ [ [ [ [ [ [ [ [ [ [ [ [ [ [ [ [ [ [ [ [ [ [ [ [ [ [ [ [ [ [ [ [ [ [ [ [ ` Y Y Y ; O O 9 9 9 9 9 : O O 0X0X0X0X0X0X0X0X0X0X0X0X0X0X0X0X0X0X0X0X0X0X0X0X0X0X0X0X0X0X0X0X0X0X0X0X0X0X0X0X0X0X0X0X0X0X0X0X0X0X0X0X0X0X0X0X0X0X0X0X0X0X0X0X0X0X0X0X0X0X0X0X0X0X0X0X0X0X0X0X0X0X0X0X0X0X0X0X0X0X0X0X0X0XcXbXbXbXbXbXbXbXbXbXbXbXbXbXbXbXbXbXbXbXcXjX0X0X0X0X0X0X0X0X0X0X0X0X0X0X0X0X0X0X0X0X0X0X0X0X0X0X0X0X0X0X0X0X0X0X0X0X0X0XcXbXbXbXbXbXbXbXbXbXbXbXbXbXbXbXbXbXbXbXbXbXbXbXbXbXbXbXbXbXbXbXbXbXcXjX0X0X0X0X0X0X0X",
"0X0X0X0X0X0X0X0X0X0X0X0X0X0X0X0X0X0X0X0X0X0X0X0X0X0X0X0X0X0X0X0X0X0X0X0X0X0X0X0X0X0X0X0X0X0X0X0X0X0X0X0X0X0X0X0X0X0X0X0X0X0X0X0X0XjXbXbXbXbXbXbXbXbXbXbXbXbXbXbXbXbXbXbXbXbXbXbXbXbXbXbXbXbXbXbXbXbXbXbXcX0X0X0X0X0X0X0X0X0X0X0X0X0X0X0X0X0X0X0X0X0X0X0X0X0X0X0X0X0X0XjXbXbXbXbXbXbXbXbXbXbXbXbXbXbXbXbXbXbXbXjX0X0X0X0X0X0X0X0X0X0X0X0X0X0X0X0X0X0X0X0X0X0X0X0X0X0X0X0X0X0X0X0X0XO O : 9 9 9 9 9 9 # O q K.~ Y Y Y ` [ [ [ [ [ [ [ [ [ [ [ [ [ [ [ [ [ [ [ [ [ [ [ [ [ [ [ [ [ [ P n n F.F.F.j a a V.V.V.V.H.H.H.H.H.H.H.H.H.H.a a p j.j.j.j.j.j.j.j.j.j.j.j.j.j.j.j.j.j.j.j.j.c.c.c.c.c.c.c.c.c.c.c.c.c.c.c.v.b.b.b.b.b.c.c.c.c.c.c.c.c.c.c.c.c.c.j.f.p 0X0X0X0X0X0X0X0X0X0X0X0X0X0X0X0X0X0X0X0X0X0X0X0X0X0X0X0X0X0X0X0X0X0X0X0X0X0X0X0X1X|.dXZXAXBXfX|.lXfXzXfX|. XlXAXZXdX|.1X0X0X0X0X0X0X0X0X0X0XjXbXbXbXbXbXbXbXbXbXbXbXbXbXbXbXbXbXbXbXbXbXbXbXbXbXbXbXbXbXbXbXbXbXbXjX0X0X0X0X0X0X0X0X0XjXbXbXbXbXbXbXbXbXbXbXbXbXbXbXbXbXbXbXbXcX0X0X0X0X0X0X0X0X0XT.a a |.|.).H.H.H.H.H.H.H.V.a a a a j F.F.F.F.F. .n n L L L L L L Y Y Y Y Y Y Y Y Y Y Y Y Y Y Y Y Y Y Y Y N n n [ [ [ [ [ [ [ [ [ [ [ [ [ [ [ [ [ [ [ [ [ [ [ [ [ [ [ [ [ [ [ [ [ [ [ [ [ [ [ [ [ [ [ [ [ [ [ [ [ [ ` Y Y Y ; O O 9 9 9 9 9 : O O 0X0X0X0X0X0X0X0X0X0X0X0X0X0X0X0X0X0X0X0X0X0X0X0X0X0X0X0X0X0X0X0X0X0X0X0X0X0X0X0X0X0X0X0X0X0X0X0X0X0X0X0X0X0X0X0X0X0X0X0X0X0X0X0X0X0X0X0X0X0X0X0X0X0X0X0X0X0X0X0X0X0X0X0X0X0X0X0X0X0X0X0X0XcXbXbXbXbXbXbXbXbXbXbXbXbXbXbXbXbXbXbXbXcXjX0X0X0X0X0X0X0X0X0X0X0X0X0X0X0X0X0X0X0X0X0X0X0X0X0X0X0X0X0X0X0X0X0X0X0X0X0X0XjXbXbXbXbXbXbXbXbXbXbXbXbXbXbXbXbXbXbXbXbXbXbXbXbXbXbXbXbXbXbXbXbXbXbXjX0X0X0X0X0X0X0X0X",
"0X0X0X0X0X0X0X0X0X0X0X0X0X0X0X0X0X0X0X0X0X0X0X0X0X0X0X0X0X0X0X0X0X0X0X0X0X0X0X0X0X0X0X0X0X0X0X0X0X0X0X0X0X0X0X0X0X0X0X0X0X0X0X0X0XcXbXbXbXbXbXbXbXbXbXbXbXbXbXbXbXbXbXbXbXbXbXbXbXbXbXbXbXbXbXbXbXbXbXcXjX0X0X0X0X0X0X0X0X0X0X0X0X0X0X0X0X0X0X0X0X0X0X0X0X0X0X0X0X0XjXbXbXbXbXbXbXbXbXbXbXbXbXbXbXbXbXbXbXbXcX0X0X0X0X0X0X0X0X0X0X0X0X0X0X0X0X0X0X0X0X0X0X0X0X0X0X0X0X0X0X0X0X0X0XO O : 9 9 9 9 9 9 # O q K.Y Y Y Y ` [ [ [ [ [ [ [ [ [ [ [ [ [ [ [ [ [ [ [ [ [ [ [ [ [ [ [ [ [ [ P n n F.F.F.j a a V.V.V.V.H.H.H.H.H.H.H.H.H.H.a a p j.j.j.j.j.j.j.j.j.j.j.j.j.j.j.j.j.j.j.j.j.c.c.c.c.c.c.c.c.c.c.c.c.c.c.|.m.(.(.|.aXsXsXsXsXc.c.c.c.c.c.c.c.c.c.j.h.p E.0X0X0X0X0X0X0X0X0X0X0X0X0X0X0X0X0X0X0X0X0X0X0X0X0X0X0X0X0X0X0X0X0X0X0X0X0X0X0X|.|.BXAXZX X XfXZXZXAXZXVXdX XZXAXlX|. X0X0X0X0X0X0X0X0X0X0XbXbXbXbXbXbXbXbXbXbXbXbXbXbXbXbXbXbXbXbXbXbXbXbXbXbXbXbXbXbXbXbXbXbXcX0X0X0X0X0X0X0X0X0X0XcXbXbXbXbXbXbXbXbXbXbXbXbXbXbXbXbXbXbXcXjX0X0X0X0X0X0X0X0X0XT.a a |.|.).H.H.H.H.H.H.H.V.a a a a l F.F.F.F.F. .n n L L L L L L Y Y Y Y Y Y Y Y Y Y Y Y Y Y Y Y Y Y Y Y N n n [ [ [ [ [ [ [ [ [ [ [ [ [ [ [ [ [ [ [ [ [ [ [ [ [ [ [ [ [ [ [ [ [ [ [ [ [ [ [ [ [ [ [ [ [ [ [ [ [ [ ` Y Y Y ; O O 9 9 9 9 9 : O O 0X0X0X0X0X0X0X0X0X0X0X0X0X0X0X0X0X0X0X0X0X0X0X0X0X0X0X0X0X0X0X0X0X0X0X0X0X0X0X0X0X0X0X0X0X0X0X0X0X0X0X0X0X0X0X0X0X0X0X0X0X0X0X0X0X0X0X0X0X0X0X0X0X0X0X0X0X0X0X0X0X0X0X0X0X0X0X0X0X0X0X0XjXbXbXbXbXbXbXbXbXbXbXbXbXbXbXbXbXbXbXbXcXjX0X0X0X0X0X0X0X0X0X0X0X0X0X0X0X0X0X0X0X0X0X0X0X0X0X0X0X0X0X0X0X0X0X0X0X0X0X0XjXbXbXbXbXbXbXbXbXbXbXbXbXbXbXbXbXbXbXbXbXbXbXbXbXbXbXbXbXbXbXbXbXbXbXcX0X0X0X0X0X0X0X0X0X",
"0X0X0X0X0X0X0X0X0X0X0X0X0X0X0X0X0X0X0X0X0X0X0X0X0X0X0X0X0X0X0X0X0X0X0X0X0X0X0X0X0X0X0X0X0X0X0X0X0X0X0X0X0X0X0X0X0X0X0X0X0X0X0X0XjXbXbXbXbXbXbXbXbXbXbXbXbXbXbXbXbXbXbXbXbXbXbXbXbXbXbXbXbXbXbXbXbXbXbXjX0X0X0X0X0X0X0X0X0X0X0X0X0X0X0X0X0X0X0X0X0X0X0X0X0X0X0X0X0X0XcXbXbXbXbXbXbXbXbXbXbXbXbXbXbXbXbXbXbXcXjX0X0X0X0X0X0X0X0X0X0X0X0X0X0X0X0X0X0X0X0X0X0X0X0X0X0X0X0X0X0X0X0X0X0XO O : 9 9 9 9 9 9 # O q K.Y Y Y Y ` [ [ [ [ [ [ [ [ [ [ [ [ [ [ [ [ [ [ [ [ [ [ [ [ [ [ [ [ [ [ P n n V.V.F.j a a V.V.N.N.H.H.H.H.H.H.H.H.H.H.a a p j.j.j.j.j.j.j.j.j.j.j.j.j.j.j.j.j.j.j.j.j.c.c.c.c.c.c.c.c.c.c.c.x.x.x.H.F.F.H.H.H.|.aXaXsXc.c.c.c.c.c.c.c.c.c.c.j.f.p 0X0X0X0X0X0X0X0X0X0X0X0X0X0X0X0X0X0X0X0X0X0X0X0X0X0X0X0X0X0X0X0X0X0X0X0X0X0X9X|.dXAXAXkX|.dXZXAXAXAXAXAXZX|.dXAXZX|.|.0X0X0X0X0X0X0X0X0XcXbXbXbXbXbXbXbXbXbXbXbXbXbXbXbXbXbXbXbXbXbXbXbXbXbXbXbXbXbXbXbXbXbXcXjX0X0X0X0X0X0X0X0X0XjXbXbXbXbXbXbXbXbXbXbXbXbXbXbXbXbXbXbXbXjX0X0X0X0X0X0X0X0X0X0XT.a a |.|.).H.H.H.H.H.H.H.V.a a a a l F.F.V.F.F. .n n L L L L L L Y Y Y Y Y Y Y Y Y Y Y Y Y Y Y Y Y Y Y Y N n n [ [ [ [ [ [ [ [ [ [ [ [ [ [ [ [ [ [ [ [ [ [ [ [ [ [ [ [ [ [ [ [ [ [ [ [ [ [ [ [ [ [ [ [ [ [ [ [ [ [ ` Y Y Y ; O O 9 9 9 9 9 : O O 0X0X0X0X0X0X0X0X0X0X0X0X0X0X0X0X0X0X0X0X0X0X0X0X0X0X0X0X0X0X0X0X0X0X0X0X0X0X0X0X0X0X0X0X0X0X0X0X0X0X0X0X0X0X0X0X0X0X0X0X0X0X0X0X0X0X0X0X0X0X0X0X0X0X0X0X0X0X0X0X0X0X0X0X0X0X0X0X0X0X0XjXbXbXbXbXbXbXbXbXbXbXbXbXbXbXbXbXbXbXbXcXjX0X0X0X0X0X0X0X0X0X0X0X0X0X0X0X0X0X0X0X0X0X0X0X0X0X0X0X0X0X0X0X0X0X0X0X0X0X0X0XcXbXbXbXbXbXbXbXbXbXbXbXbXbXbXbXbXbXbXbXbXbXbXbXbXbXbXbXbXbXbXbXbXbXcXjX0X0X0X0X0X0X0X0X0X",
"0X0X0X0X0X0X0X0X0X0X0X0X0X0X0X0X0X0X0X0X0X0X0X0X0X0X0X0X0X0X0X0X0X0X0X0X0X0X0X0X0X0X0X0X0X0X0X0X0X0X0X0X0X0X0X0X0X0X0X0X0X0X0XjXbXbXbXbXbXbXbXbXbXbXbXbXbXbXbXbXbXbXbXbXbXbXbXbXbXbXbXbXbXbXbXbXbXbXcX0X0X0X0X0X0X0X0X0X0X0X0X0X0X0X0X0X0X0X0X0X0X0X0X0X0X0X0X0X0XcXbXbXbXbXbXbXbXbXbXbXbXbXbXbXbXbXbXbXbXjX0X0X0X0X0X0X0X0X0X0X0X0X0X0X0X0X0X0X0X0X0X0X0X0X0X0X0X0X0X0X0X0X0X0X0XO O : 9 9 9 9 9 9 # O q K.~ Y Y Y ` [ [ [ [ [ [ [ [ [ [ [ [ [ [ [ [ [ [ [ [ [ [ [ [ [ [ [ [ [ [ P n n F.V.F.j a a N.N.N.V.H.H.H.H.H.H.H.H.H.H.a a p j.j.j.j.j.j.j.j.j.j.j.j.j.j.j.j.j.j.j.j.k.c.c.c.c.c.c.c.c.c.c.x.D.D.V.l f j l V.V.F.F.x.b.c.c.c.c.c.c.c.c.c.c.c.j.h.p E.0X0X0X0X0X0X0X0X0X0X0X0X0X0X0X0X0X0X0X0X0X0X0X0X0X0X0X0X0X0X0X0X0X0X0X0X0X1X|.dXAXAXdX|.BXAXAXAXAXAXAXAXfX|.ZXAXdX|.9X0X0X0X0X0X0X0XjXbXbXbXbXbXbXbXbXbXbXbXbXbXbXbXbXbXbXbXbXbXbXbXbXbXbXbXbXbXbXbXbXbXbXjX0X0X0X0X0X0X0X0X0XjXbXbXbXbXbXbXbXbXbXbXbXbXbXbXbXbXbXbXbXcX0X0X0X0X0X0X0X0X0X0X0XZ.a a |.|.H.H.H.H.H.H.H.H.V.a a a a l F.F.V.F.F. .n n L L L L L L Y Y Y Y Y Y Y Y Y Y Y Y Y Y Y Y Y Y Y Y N n n [ [ [ [ [ [ [ [ [ [ [ [ [ [ [ [ [ [ [ [ [ [ [ [ [ [ [ [ [ [ [ [ [ [ [ [ [ [ [ [ [ [ [ [ [ [ [ [ [ [ ` Y Y Y ; O O 9 9 9 9 9 : O O 0X0X0X0X0X0X0X0X0X0X0X0X0X0X0X0X0X0X0X0X0X0X0X0X0X0X0X0X0X0X0X0X0X0X0X0X0X0X0X0X0X0X0X0X0X0X0X0X0X0X0X0X0X0X0X0X0X0X0X0X0X0X0X0X0X0X0X0X0X0X0X0X0X0X0X0X0X0X0X0X0X0X0X0X0X0X0X0X0X0XjXbXbXbXbXbXbXbXbXbXbXbXbXbXbXbXbXbXbXbXbXjX0X0X0X0X0X0X0X0X0X0X0X0X0X0X0X0X0X0X0X0X0X0X0X0X0X0X0X0X0X0X0X0X0X0X0X0X0X0X0XjXbXbXbXbXbXbXbXbXbXbXbXbXbXbXbXbXbXbXbXbXbXbXbXbXbXbXbXbXbXbXbXbXbXbXjX0X0X0X0X0X0X0X0X0X0X",
"0X0X0X0X0X0X0X0X0X0X0X0X0X0X0X0X0X0X0X0X0X0X0X0X0X0X0X0X0X0X0X0X0X0X0X0X0X0X0X0X0X0X0X0X0X0X0X0X0X0X0X0X0X0X0X0X0X0X0X0X0X0X0XcXbXbXbXbXbXbXbXbXbXbXbXbXbXbXbXbXbXbXbXbXbXbXbXbXbXbXbXbXbXbXbXbXbXcXjX0X0X0X0X0X0X0X0X0X0X0X0X0X0X0X0X0X0X0X0X0X0X0X0X0X0X0X0X0XjXbXbXbXbXbXbXbXbXbXbXbXbXbXbXbXbXbXbXbXcX0X0X0X0X0X0X0X0X0X0X0X0X0X0X0X0X0X0X0X0X0X0X0X0X0X0X0X0X0X0X0X0X0X0X0X0XO O : 9 9 9 9 9 9 # O q oXY Y Y Y ` [ [ [ [ [ [ [ [ [ [ [ [ [ [ [ [ [ [ [ [ [ [ [ [ [ [ [ [ [ [ P n n V.F.F.j a a V.V.V.V.H.H.H.H.H.H.H.H.H.H.a a p j.j.j.j.j.j.j.j.j.j.j.j.j.j.j.j.j.j.j.j.k.c.c.c.c.c.c.c.c.v.x.D.V.j 4 4 4 k V.V.V.V.V.D.i i i i i i i i i i i i f.f.p p 0XjXjX0X0X0X0X0X0X0X0X0X0X0X0X0X0X0X0X0X0X0X0X0X0X0X0X0X0X0X0X0X0XjX0X0X0X1X XlXAXAX X|.AXAXAXAXAXAXAXAXzX|.zXAXlX|.9X0X0X0X0X0X0XjXbXbXbXbXbXbXbXbXbXbXbXbXbXbXbXbXbXbXbXbXbXbXbXbXbXbXbXbXbXbXbXbXbXbXcX0X0X0X0X0X0X0X0X0X0XcXbXbXbXbXbXbXbXbXbXbXbXbXbXbXbXbXbXbXcXjX0X0X0X0X0X0X0X0X0X0X0X5.a a |.|.H.H.H.H.H.H.H.H.V.a a a a l F.F.F.F.F. .n n L L L L L L Y Y Y Y Y Y Y Y Y Y Y Y Y Y Y Y Y Y Y Y N n n [ [ [ [ [ [ [ [ [ [ [ [ [ [ [ [ [ [ [ [ [ [ [ [ [ [ [ [ [ [ [ [ [ [ [ [ [ [ [ [ [ [ [ [ [ [ [ [ [ [ ` Y Y Y ; O O 9 9 9 9 9 : O O 0X0X0X0X0X0X0X0X0X0X0X0X0X0X0X0X0X0X0X0X0X0X0X0X0X0X0X0X0X0X0X0X0X0X0X0X0X0X0X0X0X0X0X0X0X0X0X0X0X0X0X0X0X0X0X0X0X0X0X0X0X0X0X0X0X0X0X0X0X0X0X0X0X0X0X0X0X0X0X0X0X0X0X0X0X0X0X0X0XjXbXbXbXbXbXbXbXbXbXbXbXbXbXbXbXbXbXbXbXbXjX0X0X0X0X0X0X0X0X0X0X0X0X0X0X0X0X0X0X0X0X0X0X0X0X0X0X0X0X0X0X0X0X0X0X0X0X0X0X0XjXbXbXbXbXbXbXbXbXbXbXbXbXbXbXbXbXbXbXbXbXbXbXbXbXbXbXbXbXbXbXbXbXbXbXjX0X0X0X0X0X0X0X0X0X0X0X",
"0X0X0X0X0X0X0X0X0X0X0X0X0X0X0X0X0X0X0X0X0X0X0X0X0X0X0X0X0X0X0X0X0X0X0X0X0X0X0X0X0X0X0X0X0X0X0X0X0X0X0X0X0X0X0X0X0X0X0X0X0X0XjXbXbXbXbXbXbXbXbXbXbXbXbXbXbXbXbXbXbXbXbXbXbXbXbXbXbXbXbXbXbXbXbXbXbXjX0X0X0X0X0X0X0X0X0X0X0X0X0X0X0X0X0X0X0X0X0X0X0X0X0X0X0X0X0XjXbXbXbXbXbXbXbXbXbXbXbXbXbXbXbXbXbXbXbXcXjX0X0X0X0X0X0X0X0X0X0X0X0X0X0X0X0X0X0X0X0X0X0X0X0X0X0X0X0X0X0X0X0X0X0X0X0XO O : 9 9 9 9 9 9 # O q +XY Y Y Y ` [ [ [ [ [ [ [ [ [ [ [ [ [ [ [ [ [ [ [ [ [ [ [ [ [ [ [ [ [ [ P n n F.F.F.j a a V.V.V.V.H.H.H.H.H.H.H.H.H.H.a a p j.j.j.j.j.j.j.j.j.j.j.j.j.j.j.j.j.j.j.j.k.c.c.c.c.c.c.f.g.x.V.V.j 3 2 3 l V.V.O.O.O.o.O.F C C C C C C C C V V V 7 7 6 5 e.e.;X;X0X0X0X0X0X0X0X0X0X0X0X0X0X0X0X0X0X0X0X0X0X0X0X0X0X0X0X0X0XjX0X0X0X1X|.zXAXAXdX|.ZXAXAXAXAXAXAXAXfX|.BXAXfX|.1X0X0X0X0X0X0XcXbXbXbXbXbXbXbXbXbXbXbXbXbXbXbXbXbXbXbXbXbXbXbXbXbXbXbXbXbXbXbXbXbXcXjX0X0X0X0X0X0X0X0X0XjXbXbXbXbXbXbXbXbXbXbXbXbXbXbXbXbXbXbXbXjX0X0X0X0X0X0X0X0X0X0XjXjX5.a a |.|.H.H.H.H.H.H.H.H.V.a a a a l F.F.F.F.F. .n n L L L L L L Y Y Y Y Y Y Y Y Y Y Y Y Y Y Y Y Y Y Y Y N n n [ [ [ [ [ [ [ [ [ [ [ [ [ [ [ [ [ [ [ [ [ [ [ [ [ [ [ [ [ [ [ [ [ [ [ [ [ [ [ [ [ [ [ [ [ [ [ [ [ [ ' Y Y Y ; O O 9 9 9 9 9 : O O 0X0X0X0X0X0X0X0X0X0X0X0X0X0X0X0X0X0X0X0X0X0X0X0X0X0X0X0X0X0X0X0X0X0X0X0X0X0X0X0X0X0X0X0X0X0X0X0X0X0X0X0X0X0X0X0X0X0X0X0X0X0X0X0X0X0X0X0X0X0X0X0X0X0X0X0X0X0X0X0X0X0X0X0X0X0X0X0XjXbXbXbXbXbXbXbXbXbXbXbXbXbXbXbXbXbXbXbXbXjX0X0X0X0X0X0X0X0X0X0X0X0X0X0X0X0X0X0X0X0X0X0X0X0X0X0X0X0X0X0X0X0X0X0X0X0X0X0X0XjXbXbXbXbXbXbXbXbXbXbXbXbXbXbXbXbXbXbXbXbXbXbXbXbXbXbXbXbXbXbXbXbXbXbXcX0X0X0X0X0X0X0X0X0X0X0X0X",
"0X0X0X0X0X0X0X0X0X0X0X0X0X0X0X0X0X0X0X0X0X0X0X0X0X0X0X0X0X0X0X0X0X0X0X0X0X0X0X0X0X0X0X0X0X0X0X0X0X0X0X0X0X0X0X0X0X0X0X0X0XjXbXbXbXbXbXbXbXbXbXbXbXbXbXbXbXbXbXbXbXbXbXbXbXbXbXbXbXbXbXbXbXbXbXbXjX0X0X0X0X0X0X0X0X0X0X0X0X0X0X0X0X0X0X0X0X0X0X0X0X0X0X0X0X0X0XcXbXbXbXbXbXbXbXbXbXbXbXbXbXbXbXbXbXbXcXjX0X0X0X0X0X0X0X0X0X0X0X0X0X0X0X0X0X0X0X0X0X0X0X0X0X0X0X0X0X0X0X0X0X0X0X0X0XO O : 9 9 9 9 9 9 # O q +XY Y Y Y ` [ [ [ [ [ [ [ [ [ [ [ [ [ [ [ [ [ [ [ [ [ [ [ [ [ [ [ [ [ [ P n n F.F.F.j a a V.V.V.V.H.H.H.H.H.H.H.H.H.H.a a p j.j.j.j.j.j.j.j.j.j.j.j.j.j.j.j.j.j.j.j.k.c.c.k.f.i i 7 D.V.l 4 3 2 3 l V.o.$.@.@.@.$.@.+.+.+.+.+.+.+.+.J T T ....P P F C V D D e.e.;X0X0X0X0X0X0X0X0X0X0X0X0X0X0X0X0X0X0X0X0X0X0X0X0X0X0X0X0X0X0X1X|.zXAXAXlX|.zXAXAXAXAXAXAXAX X|.VXAXdX|.9X0X0X0X0X0XjXbXbXbXbXbXbXbXbXbXbXbXbXbXbXbXbXbXbXbXbXbXbXbXbXbXbXbXbXbXbXbXbXbXcXjX0X0X0X0X0X0X0X0X0XjXbXbXbXbXbXbXbXbXbXbXbXbXbXbXbXbXbXbXbXcX0X0X0X0X0X0X0X0X0X0X0XjXjX5.a a |.|.H.H.H.H.H.H.H.H.N.a a a a l F.F.F.F.F. .n n L L L L L L Y Y Y Y Y Y Y Y Y Y Y Y Y Y Y Y Y Y Y Y N n n [ [ [ [ [ [ [ [ [ [ [ [ [ [ [ [ [ [ [ [ [ [ [ [ [ [ [ [ [ [ [ [ [ [ [ [ [ [ [ [ [ [ [ [ [ [ [ [ [ [ [ Y Y Y ; O O 9 9 9 9 9 : O O 0X0X0X0X0X0X0X0X0X0X0X0X0X0X0X0X0X0X0X0X0X0X0X0X0X0X0X0X0X0X0X0X0X0X0X0X0X0X0X0X0X0X0X0X0X0X0X0X0X0X0X0X0X0X0X0X0X0X0X0X0X0X0X0X0X0X0X0X0X0X0X0X0X0X0X0X0X0X0X0X0X0X0X0X0X0X0XjXbXbXbXbXbXbXbXbXbXbXbXbXbXbXbXbXbXbXbXbXcX0X0X0X0X0X0X0X0X0X0X0X0X0X0X0X0X0X0X0X0X0X0X0X0X0X0X0X0X0X0X0X0X0X0X0X0X0X0X0X0XcXbXbXbXbXbXbXbXbXbXbXbXbXbXbXbXbXbXbXbXbXbXbXbXbXbXbXbXbXbXbXbXbXbXcXjX0X0X0X0X0X0X0X0X0X0X0X0X",
"0X0X0X0X0X0X0X0X0X0X0X0X0X0X0X0X0X0X0X0X0X0X0X0X0X0X0X0X0X0X0X0X0X0X0X0X0X0X0X0X0X0X0X0X0X0X0X0X0X0X0X0X0X0X0X0X0X0X0X0XjXbXbXbXbXbXbXbXbXbXbXbXbXbXbXbXbXbXbXbXbXbXbXbXbXbXbXbXbXbXbXbXbXbXbXcX0X0X0X0X0X0X0X0X0X0X0X0X0X0X0X0X0X0X0X0X0X0X0X0X0X0X0X0X0X0XjXbXbXbXbXbXbXbXbXbXbXbXbXbXbXbXbXbXbXbXjX0X0X0X0X0X0X0X0X0X0X0X0X0X0X0X0X0X0X0X0X0X0X0X0X0X0X0X0X0X0X0X0X0X0X0X0X0X0XO O : 9 9 9 9 9 9 # O q +XY Y Y Y ` [ [ [ [ [ [ [ [ [ [ [ [ [ [ [ [ [ [ [ [ [ [ [ [ [ [ [ [ [ [ P n n F.F.F.j a a V.V.V.F.H.H.H.H.H.H.H.H.H.H.a a p j.j.j.j.j.j.j.j.j.j.j.j.j.j.j.j.j.j.j.j.k.f.i 7 7 V A o.V.l 3 2 2 2 j V.o.$.#.#.#.#.#.#.#.#.#.#.#.#.#.E o.B.C.C.C.o.o.O.J +.+.G C V D  .e.;X0X0X0X0X0X0X0X0X0X0X0X0X0X0X0X0X0X0X0X0X0X0X0X0X0X0X0X9X|. XAXAXzX|. XBXAXAXAXAXAXlXdXfXAXAX X X9X0X0X0X0XjXbXbXbXbXbXbXbXbXbXbXbXbXbXbXbXbXbXbXbXbXbXbXbXbXbXbXbXbXbXbXbXbXbXbXjX0X0X0X0X0X0X0X0X0X0XcXbXbXbXbXbXbXbXbXbXbXbXbXbXbXbXbXbXbXcXjX0X0X0X0X0X0X0X0X0X0X0X0X0X5.a a |.|.H.H.H.H.H.H.H.H.N.a a a a l F.F.F.F.F. .n n L L L L L L Y Y Y Y Y Y Y Y Y Y Y Y Y Y Y Y Y Y Y Y N n n [ [ [ [ [ [ [ [ [ [ [ [ [ [ [ [ [ [ [ [ [ [ [ [ [ [ [ [ [ [ [ [ [ [ [ [ [ [ [ [ [ [ [ [ [ [ [ [ [ [ [ Y Y Y ; O O 9 9 9 9 9 : O O 0X0X0X0X0X0X0X0X0X0X0X0X0X0X0X0X0X0X0X0X0X0X0X0X0X0X0X0X0X0X0X0X0X0X0X0X0X0X0X0X0X0X0X0X0X0X0X0X0X0X0X0X0X0X0X0X0X0X0X0X0X0X0X0X0X0X0X0X0X0X0X0X0X0X0X0X0X0X0X0X0X0X0X0X0X0X0XcXbXbXbXbXbXbXbXbXbXbXbXbXbXbXbXbXbXbXbXcXjX0X0X0X0X0X0X0X0X0X0X0X0X0X0X0X0X0X0X0X0X0X0X0X0X0X0X0X0X0X0X0X0X0X0X0X0X0X0X0XjXbXbXbXbXbXbXbXbXbXbXbXbXbXbXbXbXbXbXbXbXbXbXbXbXbXbXbXbXbXbXbXbXbXbXjX0X0X0X0X0X0X0X0X0X0X0X0X0X",
"0X0X0X0X0X0X0X0X0X0X0X0X0X0X0X0X0X0X0X0X0X0X0X0X0X0X0X0X0X0X0X0X0X0X0X0X0X0X0X0X0X0X0X0X0X0X0X0X0X0X0X0X0X0X0X0X0X0X0X0XcXbXbXbXbXbXbXbXbXbXbXbXbXbXbXbXbXbXbXbXbXbXbXbXbXbXbXbXbXbXbXbXbXbXcXjX0X0X0X0X0X0X0X0X0X0X0X0X0X0X0X0X0X0X0X0X0X0X0X0X0X0X0X0X0XjXbXbXbXbXbXbXbXbXbXbXbXbXbXbXbXbXbXbXbXcX0X0X0X0X0X0X0X0X0X0X0X0X0X0X0X0X0X0X0X0X0X0X0X0X0X0X0X0X0X0X0X0X0X0X0X0X0X0X0XO O : 9 9 9 9 9 9 # O q +XY Y Y Y ` [ [ [ [ [ [ [ [ [ [ [ [ [ [ [ [ [ [ [ [ [ [ [ [ [ [ [ [ [ [ P n n F.F.F.j a a V.V.V.H.H.H.H.H.H.H.H.H.H.H.a a p j.j.j.j.j.j.j.j.j.j.j.j.j.j.j.j.j.j.f.f.i 6 C C F G ..V.l 3 @ @ 2 3 N.V.E #.#.#.#.#.#.#.#.#.#.#.#.#.o.B.V.V.V.g.g.l V.B.o.E #.@.+.H F V V D e.;X0X0X0X0X0X0X0X0X0X0X0X0X0X0X0X0X0X0X0X0X0X0X0X0X0X0X X|.BXAXZXfX|. XlXZXZXBXdX XdXBXAXZX|.1X0X0X0X0X0XbXbXbXbXbXbXbXbXbXbXbXbXbXbXbXbXbXbXbXbXbXbXbXbXbXbXbXbXbXbXbXbXbXbXcX0X0X0X0X0X0X0X0X0X0XjXbXbXbXbXbXbXbXbXbXbXbXbXbXbXbXbXbXbXbXjX0X0X0X0X0X0X0X0X0X0X0X0X0X0X5.a a |.|.H.H.H.H.H.H.H.H.N.a a a a l F.F.F.F.F. .n n L L L L L L Y Y Y Y Y Y Y Y Y Y Y Y Y Y Y Y Y Y Y Y N n n [ [ [ [ [ [ [ [ [ [ [ [ [ [ [ [ [ [ [ [ [ [ [ [ [ [ [ [ [ [ [ [ [ [ [ [ [ [ [ [ [ [ [ [ [ [ [ [ [ [ [ Y Y Y ; O O 9 9 9 9 9 : O O 0X0X0X0X0X0X0X0X0X0X0X0X0X0X0X0X0X0X0X0X0X0X0X0X0X0X0X0X0X0X0X0X0X0X0X0X0X0X0X0X0X0X0X0X0X0X0X0X0X0X0X0X0X0X0X0X0X0X0X0X0X0X0X0X0X0X0X0X0X0X0X0X0X0X0X0X0X0X0X0X0X0X0X0X0X0XcXbXbXbXbXbXbXbXbXbXbXbXbXbXbXbXbXbXbXbXcXjX0X0X0X0X0X0X0X0X0X0X0X0X0X0X0X0X0X0X0X0X0X0X0X0X0X0X0X0X0X0X0X0X0X0X0X0X0X0X0XjXbXbXbXbXbXbXbXbXbXbXbXbXbXbXbXbXbXbXbXbXbXbXbXbXbXbXbXbXbXbXbXbXbXbXcX0X0X0X0X0X0X0X0X0X0X0X0X0X0X",
"0X0X0X0X0X0X0X0X0X0X0X0X0X0X0X0X0X0X0X0X0X0X0X0X0X0X0X0X0X0X0X0X0X0X0X0X0X0X0X0X0X0X0X0X0X0X0X0X0X0X0X0X0X0X0X0X0X0X0XjXbXbXbXbXbXbXbXbXbXbXbXbXbXbXbXbXbXbXbXbXbXbXbXbXbXbXbXbXbXbXbXbXbXbXjX0X0X0X0X0X0X0X0X0X0X0X0X0X0X0X0X0X0X0X0X0X0X0X0X0X0X0X0X0X0XbXbXbXbXbXbXbXbXbXbXbXbXbXbXbXbXbXbXbXcXjX0X0X0X0X0X0X0X0X0X0X0X0X0X0X0X0X0X0X0X0X0X0X0X0X0X0X0X0X0X0X0X0X0X0X0X0X0X0X0XO O : 9 9 9 9 9 9 # O q 9XY Y Y Y ` [ [ [ [ [ [ [ [ [ [ [ [ [ [ [ [ [ [ [ [ [ [ [ [ [ [ [ [ [ [ P n n F.F.F.j a a V.V.V.H.H.H.H.H.H.H.H.H.H.H.a a p j.j.j.j.j.j.j.j.j.j.j.j.j.j.j.j.f.i 6 V C F G G G T B.V.u 2 @ @ @ d V.o.@.#.#.#.#.#.#.#.#.#.#.#.#.#.V.V.V.V.V.V.l 3 a l V.B.O.+.#.#.+.H G C V D e.;X0X0X0X0X0X0X0X0X0X0X0X0X0X0X0X0X0X0X0X0X0X0X0X0X1X|.fXAXAXZXzX|. XdXdXfX|.dXBXAXZXdX|.9X0X0X0X0XcXbXbXbXbXbXbXbXbXbXbXbXbXbXbXbXbXbXbXbXbXbXbXbXbXbXbXbXbXbXbXbXbXbXcXjX0X0X0X0X0X0X0X0X0XjXbXbXbXbXbXbXbXbXbXbXbXbXbXbXbXbXbXbXbXcX0X0X0X0X0X0X0X0X0X0X0X0X0X0X0X5.a a |.|.H.H.H.H.H.H.H.H.N.a a a a l F.F.F.F.F. .n n L L L L L L Y Y Y Y Y Y Y Y Y Y Y Y Y Y Y Y Y Y Y Y N n n [ [ [ [ [ [ [ [ [ [ [ [ [ [ [ [ [ [ [ [ [ [ [ [ [ [ [ [ [ [ [ [ [ [ [ [ [ [ [ [ [ [ [ [ [ [ [ [ [ [ [ Y Y Y ; O O 9 9 9 9 9 : O O 0X0X0X0X0X0X0X0X0X0X0X0X0X0X0X0X0X0X0X0X0X0X0X0X0X0X0X0X0X0X0X0X0X0X0X0X0X0X0X0X0X0X0X0X0X0X0X0X0X0X0X0X0X0X0X0X0X0X0X0X0X0X0X0X0X0X0X0X0X0X0X0X0X0X0X0X0X0X0X0X0X0X0X0X0XjXbXbXbXbXbXbXbXbXbXbXbXbXbXbXbXbXbXbXbXcXjX0X0X0X0X0X0X0X0X0X0X0X0X0X0X0X0X0X0X0X0X0X0X0X0X0X0X0X0X0X0X0X0X0X0X0X0X0X0X0X0XcXbXbXbXbXbXbXbXbXbXbXbXbXbXbXbXbXbXbXbXbXbXbXbXbXbXbXbXbXbXbXbXbXbXcXjX0X0X0X0X0X0X0X0X0X0X0X0X0X0X",
"0X0X0X0X0X0X0X0X0X0X0X0X0X0X0X0X0X0X0X0X0X0X0X0X0X0X0X0X0X0X0X0X0X0X0X0X0X0X0X0X0X0X0X0X0X0X0X0X0X0X0X0X0X0X0X0X0X0XjXbXbXbXbXbXbXbXbXbXbXbXbXbXbXbXbXbXbXbXbXbXbXbXbXbXbXbXbXbXbXbXbXbXbXcX0X0X0X0X0X0X0X0X0X0X0X0X0X0X0X0X0X0X0X0X0X0X0X0X0X0X0X0X0X0XcXbXbXbXbXbXbXbXbXbXbXbXbXbXbXbXbXbXbXbXjX0X0X0X0X0X0X0X0X0X0X0X0X0X0X0X0X0X0X0X0X0X0X0X0X0X0X0X0X0X0X0X0X0X0X0X0X0X0X0X0XO O : 9 9 9 9 9 9 # O q 0XY Y Y Y ` [ [ [ [ [ [ [ [ [ [ [ [ [ [ [ [ [ [ [ [ [ [ [ [ [ [ [ [ [ [ P n n F.F.F.j a a V.V.V.H.H.H.H.H.H.H.H.H.H.H.a a p j.j.j.j.j.j.j.j.j.j.j.j.j.j.f.i 6 C F F F G G G L B.V.j 2 2 2 2 3 N.V.T H +.+.+.+.+.+.@.@.@.@.G G C D D D  .o.V.V.d 2 3 j V.C...C F F G +.+.G C V D e.;X0X0X0X0X0X0X0X0X0X0X0X0X0X0X0X0X0X0X0X0X0XjX0X X XBXAXAXAXzXzXfXdXkXzXVXAXAXkX|.|.1X0X0X0XjXbXbXbXbXbXbXbXbXbXbXbXbXbXbXbXbXbXbXbXbXbXbXbXbXbXbXbXbXbXbXbXbXbXbXjX0X0X0X0X0X0X0X0X0X0XcXbXbXbXbXbXbXbXbXbXbXbXbXbXbXbXbXbXbXcXjX0X0X0X0X0X0X0X0X0X0X0X0X0X0X0X5.a a |.`.H.H.H.H.H.H.H.H.N.a a a a l F.F.F.F.F. .n n L L L L L L Y Y Y Y Y Y Y Y Y Y Y Y Y Y Y Y Y Y Y Y N n n [ [ [ [ [ [ [ [ [ [ [ [ [ [ [ [ [ [ [ [ [ [ [ [ [ [ [ [ [ [ [ [ [ [ [ [ [ [ [ [ [ [ [ [ [ [ [ [ [ [ [ Y Y Y ; O O 9 9 9 9 9 : O O 0X0X0X0X0X0X0X0X0X0X0X0X0X0X0X0X0X0X0X0X0X0X0X0X0X0X0X0X0X0X0X0X0X0X0X0X0X0X0X0X0X0X0X0X0X0X0X0X0X0X0X0X0X0X0X0X0X0X0X0X0X0X0X0X0X0X0X0X0X0X0X0X0X0X0X0X0X0X0X0X0X0X0X0XjXbXbXbXbXbXbXbXbXbXbXbXbXbXbXbXbXbXbXbXcXjX0X0X0X0X0X0X0X0X0X0X0X0X0X0X0X0X0X0X0X0X0X0X0X0X0X0X0X0X0X0X0X0X0X0X0X0X0X0X0X0XjXbXbXbXbXbXbXbXbXbXbXbXbXbXbXbXbXbXbXbXbXbXbXbXbXbXbXbXbXbXbXbXbXbXbXjX0X0X0X0X0X0X0X0X0X0X0X0X0X0X0X",
"0X0X0X0X0X0X0X0X0X0X0X0X0X0X0X0X0X0X0X0X0X0X0X0X0X0X0X0X0X0X0X0X0X0X0X0X0X0X0X0X0X0X0X0X0X0X0X0X0X0X0X0X0X0X0X0X0X0XcXbXbXbXbXbXbXbXbXbXbXbXbXbXbXbXbXbXbXbXbXbXbXbXbXbXbXbXbXbXbXbXbXbXcXjX0X0X0X0X0X0X0X0X0X0X0X0X0X0X0X0X0X0X0X0X0X0X0X0X0X0X0X0X0XjXbXbXbXbXbXbXbXbXbXbXbXbXbXbXbXbXbXbXbXjX0X0X0X0X0X0X0X0X0X0X0X0X0X0X0X0X0X0X0X0X0X0X0X0X0X0X0X0X0X0X0X0X0X0X0X0X0X0X0X0X0XO O : 9 9 9 9 9 9 # O q 0XY Y Y Y ` [ [ [ [ [ [ [ [ [ [ [ [ [ [ [ [ [ [ [ [ [ [ [ [ [ [ [ [ [ [ P n n F.F.F.j a a V.V.N.H.H.H.H.H.H.H.H.H.H.H.a a p j.j.j.j.j.j.j.j.j.j.j.j.j.f.6 V C G G G G G G G ..V.g.3 2 2 2 2 d V.o.G G G G G H H H H F G C V V 6 6 ; 6 V A  .V.V.u 2 3 a V.V.D C V V C C F G G C V D ;X0X0X0X0X0X0X0X0X0X0X0X0X0X0X0X0X0X0X0X0XjXjX1X|. XBXAXAXAXAXZXZXZXAXAXAXlX X X_.`.0X0XjXbXbXbXbXbXbXbXbXbXbXbXbXbXbXbXbXbXbXbXbXbXbXbXbXbXbXbXbXbXbXbXbXbXbXcX0X0X0X0X0X0X0X0X0X0XcXbXbXbXbXbXbXbXbXbXbXbXbXbXbXbXbXbXbXbXjX0X0X0X0X0X0X0X0X0X0X0X0X0X0X0X0X5.a k |.`.H.H.H.H.H.H.H.H.N.a a a a l F.F.F.F.F.D n n L L L L L L Y Y Y Y Y Y Y Y Y Y Y Y Y Y Y Y Y Y Y Y N n n [ [ [ [ [ [ [ [ [ [ [ [ [ [ [ [ [ [ [ [ [ [ [ [ [ [ [ [ [ [ [ [ [ [ [ [ [ [ [ [ [ [ [ [ [ [ [ [ [ [ [ Y Y Y ; O O 9 9 9 9 9 : O O 0X0X0X0X0X0X0X0X0X0X0X0X0X0X0X0X0X0X0X0X0X0X0X0X0X0X0X0X0X0X0X0X0X0X0X0X0X0X0X0X0X0X0X0X0X0X0X0X0X0X0X0X0X0X0X0X0X0X0X0X0X0X0X0X0X0X0X0X0X0X0X0X0X0X0X0X0X0X0X0X0X0X0XjXbXbXbXbXbXbXbXbXbXbXbXbXbXbXbXbXbXbXbXbXjX0X0X0X0X0X0X0X0X0X0X0X0X0X0X0X0X0X0X0X0X0X0X0X0X0X0X0X0X0X0X0X0X0X0X0X0X0X0X0X0XjXbXbXbXbXbXbXbXbXbXbXbXbXbXbXbXbXbXbXbXbXbXbXbXbXbXbXbXbXbXbXbXbXbXbXjX0X0X0X0X0X0X0X0X0X0X0X0X0X0X0X0X",
"0X0X0X0X0X0X0X0X0X0X0X0X0X0X0X0X0X0X0X0X0X0X0X0X0X0X0X0X0X0X0X0X0X0X0X0X0X0X0X0X0X0X0X0X0X0X0X0X0X0X0X0X0X0X0X0X0XjXbXbXbXbXbXbXbXbXbXbXbXbXbXbXbXbXbXbXbXbXbXbXbXbXbXbXbXbXbXbXbXbXbXbXjX0X0X0X0X0X0X0X0X0X0X0X0X0X0X0X0X0X0X0X0X0X0X0X0X0X0X0X0X0XjXbXbXbXbXbXbXbXbXbXbXbXbXbXbXbXbXbXbXbXcX0X0X0X0X0X0X0X0X0X0X0X0X0X0X0X0X0X0X0X0X0X0X0X0X0X0X0X0X0X0X0X0X0X0X0X0X0X0X0X0X0X0XO O : 9 9 9 9 9 9 # O q 0XY Y Y Y ` [ [ [ [ [ [ [ [ [ [ [ [ [ [ [ [ [ [ [ [ [ [ [ [ [ [ [ [ [ [ P n n F.F.F.j a a V.V.V.H.H.H.H.H.H.H.H.H.H.H.a a p j.j.j.j.j.j.j.j.j.j.j.f.i 6 C F G G G G G G G L B.V.u 2 2 2 2 2 N.V.T G G G G G G G C V V O.O.s.D D 6 6 6 6 o 6 ..V.N.2 2 2 f V.B.T F F C C V V C G F C D ~.0X0X0X0X0X0X0X0X0X0X0X0X0X0X0X0X0X0X0X0X0X9X_.|. XlXZXAXAXAXAXAXAXBXfX X|.1X|._.1XjXcXbXbXbXbXbXbXbXbXbXbXbXbXbXbXbXbXbXbXbXbXbXbXbXbXbXbXbXbXbXbXbXbXbXcXjX0X0X0X0X0X0X0X0X0XjXbXbXbXbXbXbXbXbXbXbXbXbXbXbXbXbXbXbXbXjX0X0X0X0X0X0X0X0X0X0X0X0X0XjX0X0X0X5.a l |.`.H.H.H.H.H.H.H.H.N.a a a a l F.F.F.F.F.A n n L L L L L U Y Y Y Y Y Y Y Y Y Y Y Y Y Y Y Y Y Y Y Y N n n [ [ [ [ [ [ [ [ [ [ [ [ [ [ [ [ [ [ [ [ [ [ [ [ [ [ [ [ [ [ [ [ [ [ [ [ [ [ [ [ [ [ [ [ [ [ [ [ [ [ [ Y Y Y ; O O 9 9 9 9 9 : O O 0X0X0X0X0X0X0X0X0X0X0X0X0X0X0X0X0X0X0X0X0X0X0X0X0X0X0X0X0X0X0X0X0X0X0X0X0X0X0X0X0X0X0X0X0X0X0X0X0X0X0X0X0X0X0X0X0X0X0X0X0X0X0X0X0X0X0X0X0X0X0X0X0X0X0X0X0X0X0X0X0X0XjXbXbXbXbXbXbXbXbXbXbXbXbXbXbXbXbXbXbXbXbXjX0X0X0X0X0X0X0X0X0X0X0X0X0X0X0X0X0X0X0X0X0X0X0X0X0X0X0X0X0X0X0X0X0X0X0X0X0X0X0X0X0XbXbXbXbXbXbXbXbXbXbXbXbXbXbXbXbXbXbXbXbXbXbXbXbXbXbXbXbXbXbXbXbXbXbXcX0X0X0X0X0X0X0X0X0X0X0X0X0X0X0X0X0X",
"0X0X0X0X0X0X0X0X0X0X0X0X0X0X0X0X0X0X0X0X0X0X0X0X0X0X0X0X0X0X0X0X0X0X0X0X0X0X0X0X0X0X0X0X0X0X0X0X0X0X0X0X0X0X0X0XjXbXbXbXbXbXbXbXbXbXbXbXbXbXbXbXbXbXbXbXbXbXbXbXbXbXbXbXbXbXbXbXbXbXbXjX0X0X0X0X0X0X0X0X0X0X0X0X0X0X0X0X0X0X0X0X0X0X0X0X0X0X0X0X0X0XcXbXbXbXbXbXbXbXbXbXbXbXbXbXbXbXbXbXbXcXjX0X0X0X0X0X0X0X0X0X0X0X0X0X0X0X0X0X0X0X0X0X0X0X0X0X0X0X0X0X0X0X0X0X0X0X0X0X0X0X0X0X0XO O : 9 9 9 9 9 9 # O q 0XY Y Y Y _ [ [ [ [ [ [ [ [ [ [ [ [ [ [ [ [ [ [ [ [ [ [ [ [ [ [ [ [ [ [ P n n F.F.F.j a a V.V.V.H.H.H.H.H.H.H.H.H.H.H.a a f.j.j.j.j.j.j.j.j.j.f.f.6 V C G G G G G G G G G ..V.j 2 2 2 2 2 3 V.V.G G G G G G F V V O.XXrXrXuXOXOXs.D 6 6 6 o V V.V.u 2 2 3 f V.B.L G G G F C V V C G C A ~.0X0X0X0X0X0X0X0X0X0X0X0X0X0X0X0X0X0X0X0X|.).|. X XdXfXlXlXlXlXfX X|.1X9X0X9X_.`.jXbXbXbXbXbXbXbXbXbXbXbXbXbXbXbXbXbXbXbXbXbXbXbXbXbXbXbXbXbXbXbXbXbXbXjX0X0X0X0X0X0X0X0X0X0XbXbXbXbXbXbXbXbXbXbXbXbXbXbXbXbXbXbXbXcX0X0X0X0X0X0X0X0X0X0X0X0X0X0X0X0X0X0X5.a l |.`.H.H.H.H.H.H.H.H.N.a a a a N.F.F.F.F.F.A n m L L L L L U Y Y Y Y Y Y Y Y Y Y Y Y Y Y Y Y Y Y Y Y N n n [ [ [ [ [ [ [ [ [ [ [ [ [ [ [ [ [ [ [ [ [ [ [ [ [ [ [ [ [ [ [ [ [ [ [ [ [ [ [ [ [ [ [ [ [ [ [ [ [ [ [ ` Y Y ; O O 9 9 9 9 9 : O O 0X0X0X0X0X0X0X0X0X0X0X0X0X0X0X0X0X0X0X0X0X0X0X0X0X0X0X0X0X0X0X0X0X0X0X0X0X0X0X0X0X0X0X0X0X0X0X0X0X0X0X0X0X0X0X0X0X0X0X0X0X0X0X0X0X0X0X0X0X0X0X0X0X0X0X0X0X0X0X0X0XjXbXbXbXbXbXbXbXbXbXbXbXbXbXbXbXbXbXbXbXbXcX0X0X0X0X0X0X0X0X0X0X0X0X0X0X0X0X0X0X0X0X0X0X0X0X0X0X0X0X0X0X0X0X0X0X0X0X0X0X0X0X0XcXbXbXbXbXbXbXbXbXbXbXbXbXbXbXbXbXbXbXbXbXbXbXbXbXbXbXbXbXbXbXbXbXbXcXjX0X0X0X0X0X0X0X0X0X0X0X0X0X0X0X0X0X",
"0X0X0X0X0X0X0X0X0X0X0X0X0X0X0X0X0X0X0X0X0X0X0X0X0X0X0X0X0X0X0X0X0X0X0X0X0X0X0X0X0X0X0X0X0X0X0X0X0X0X0X0X0X0X0X0XbXbXbXbXbXbXbXbXbXbXbXbXbXbXbXbXbXbXbXbXbXbXbXbXbXbXbXbXbXbXbXbXbXbXcX0X0X0X0X0X0X0X0X0X0X0X0X0X0X0X0X0X0X0X0X0X0X0X0X0X0X0X0X0X0XjXbXbXbXbXbXbXbXbXbXbXbXbXbXbXbXbXbXbXbXjX0X0X0X0X0X0X0X0X0X0X0X0X0X0X0X0X0X0X0X0X0X0X0X0X0X0X0X0X0X0X0X0X0X0X0X0X0X0X0X0X0X0X0XO O : 9 9 9 9 9 9 # O q 0XY Y Y Y Y [ [ [ [ [ [ [ [ [ [ [ [ [ [ [ [ [ [ [ [ [ [ [ [ [ [ [ [ [ [ P n n V.V.F.j a a V.V.V.H.H.H.H.H.H.H.H.H.H.H.a a f.j.j.j.j.j.j.j.f.p u 7 V F b G G G G G G G G L B.V.3 2 2 2 2 2 d V.o.G G G G C V V O.XXrXpXpXpXpXpXpXuXOXO.6 6 6 6 ..V.N.2 2 2 3 j V.) G G G G G F C V V F C A ~.jX0X0X0X0X0X0X0X0X0X0X0X0X0X0X0X0X0X0X_.).1X9X1X X|. X X X X|.1X1X9XjXjXjX|._.hXbXbXbXbXbXbXbXbXbXbXbXbXbXbXbXbXbXbXbXbXbXbXbXbXbXbXbXbXbXbXbXbXbXjX0X0X0X0X0X0X0X0X0X0XcXbXbXbXbXbXbXbXbXbXbXbXbXbXbXbXbXbXbXcXjX0X0X0X0X0X0X0X0X0X0X0X0X0X0XjX0X0X0X5.a l |.`.H.H.H.H.H.H.H.H.N.a a a a N.F.F.F.F.F.A n M L L L L L U Y Y Y Y Y Y Y Y Y Y Y Y Y Y Y Y Y Y Y Y N n n [ [ [ [ [ [ [ [ [ [ [ [ [ [ [ [ [ [ [ [ [ [ [ [ [ [ [ [ [ [ [ [ [ [ [ [ [ [ [ [ [ [ [ [ [ [ [ [ [ [ [ ` Y Y ; O O 9 9 9 9 9 : O O 0X0X0X0X0X0X0X0X0X0X0X0X0X0X0X0X0X0X0X0X0X0X0X0X0X0X0X0X0X0X0X0X0X0X0X0X0X0X0X0X0X0X0X0X0X0X0X0X0X0X0X0X0X0X0X0X0X0X0X0X0X0X0X0X0X0X0X0X0X0X0X0X0X0X0X0X0X0X0X0X0XbXbXbXbXbXbXbXbXbXbXbXbXbXbXbXbXbXbXbXbXcXjX0X0X0X0X0X0X0X0X0X0X0X0X0X0X0X0X0X0X0X0X0X0X0X0X0X0X0X0X0X0X0X0X0X0X0X0X0X0X0X0XjXbXbXbXbXbXbXbXbXbXbXbXbXbXbXbXbXbXbXbXbXbXbXbXbXbXbXbXbXbXbXbXbXbXbXjX0X0X0X0X0X0X0X0X0X0X0X0X0X0X0X0X0X0X",
"0X0X0X0X0X0X0X0X0X0X0X0X0X0X0X0X0X0X0X0X0X0X0X0X0X0X0X0X0X0X0X0X0X0X0X0X0X0X0X0X0X0X0X0X0X0X0X0X0X0X0X0X0X0X0XcXbXbXbXbXbXbXbXbXbXbXbXbXbXbXbXbXbXbXbXbXbXbXbXbXbXbXbXbXbXbXbXbXbXcXjX0X0X0X0X0X0X0X0X0X0X0X0X0X0X0X0X0X0X0X0X0X0X0X0X0X0X0X0X0XjXbXbXbXbXbXbXbXbXbXbXbXbXbXbXbXbXbXbXbXcX0X0X0X0X0X0X0X0X0X0X0X0X0X0X0X0X0X0X0X0X0X0X0X0X0X0X0X0X0X0X0X0X0X0X0X0X0X0X0X0X0X0X0X0XO O : 9 9 9 9 9 9 # O q 0XY Y Y Y Y [ [ [ [ [ [ [ [ [ [ [ [ [ [ [ [ [ [ [ [ [ [ [ [ [ [ [ [ [ [ P n n F.V.F.j a a V.V.F.H.H.H.H.H.H.H.H.H.H.H.a a f.j.j.j.j.j.f.p p 4 6 V F G G G G G G G G G G ..V.l 2 2 2 2 2 2 l V.T G C C V V O.XXrXpXpXpXpXpXpXpXpXpXpXrXs.6 6 6 V V.V.3 2 2 2 3 V.B.T G G G G G G F C c C V A ~.0X0X0X0X0X0X0X0X0X0X0X0X0X0X0X0X0X9X).`.0X0X0X9X9X1X1X1X1X9X9X9X0X0XjXjX9X|. XbXbXbXbXbXbXbXbXbXbXbXbXbXbXbXbXbXbXbXbXbXbXbXbXbXbXbXbXbXbXbXbXcX0X0X0X0X0X0X0X0X0X0XjXbXbXbXbXbXbXbXbXbXbXbXbXbXbXbXbXbXbXbXjX0X0X0X0X0X0X0X0X0X0X0X0X0X0X0X0X0X0X0Xd a l |.`.H.H.H.H.H.H.H.H.N.a a a a N.F.F.F.F.F.A n M L L L L L U Y Y Y Y Y Y Y Y Y Y Y Y Y Y Y Y Y Y Y Y N n n [ [ [ [ [ [ [ [ [ [ [ [ [ [ [ [ [ [ [ [ [ [ [ [ [ [ [ [ [ [ [ [ [ [ [ [ [ [ [ [ [ [ [ [ [ [ [ [ [ [ [ ` Y Y ; O O 9 9 9 9 9 : O O 0X0X0X0X0X0X0X0X0X0X0X0X0X0X0X0X0X0X0X0X0X0X0X0X0X0X0X0X0X0X0X0X0X0X0X0X0X0X0X0X0X0X0X0X0X0X0X0X0X0X0X0X0X0X0X0X0X0X0X0X0X0X0X0X0X0X0X0X0X0X0X0X0X0X0X0X0X0X0X0XcXbXbXbXbXbXbXbXbXbXbXbXbXbXbXbXbXbXbXbXcXjX0X0X0X0X0X0X0X0X0X0X0X0X0X0X0X0X0X0X0X0X0X0X0X0X0X0X0X0X0X0X0X0X0X0X0X0X0X0X0X0XjXbXbXbXbXbXbXbXbXbXbXbXbXbXbXbXbXbXbXbXbXbXbXbXbXbXbXbXbXbXbXbXbXbXbXcX0X0X0X0X0X0X0X0X0X0X0X0X0X0X0X0X0X0X0X",
"0X0X0X0X0X0X0X0X0X0X0X0X0X0X0X0X0X0X0X0X0X0X0X0X0X0X0X0X0X0X0X0X0X0X0X0X0X0X0X0X0X0X0X0X0X0X0X0X0X0X0X0X0X0XjXbXbXbXbXbXbXbXbXbXbXbXbXbXbXbXbXbXbXbXbXbXbXbXbXbXbXbXbXbXbXbXbXbXbXjX0X0X0X0X0X0X0X0X0X0X0X0X0X0X0X0X0X0X0X0X0X0X0X0X0X0X0X0X0XjXbXbXbXbXbXbXbXbXbXbXbXbXbXbXbXbXbXbXbXcXjX0X0X0X0X0X0X0X0X0X0X0X0X0X0X0X0X0X0X0X0X0X0X0X0X0X0X0X0X0X0X0X0X0X0X0X0X0X0X0X0X0X0X0X0XO O : 9 9 9 9 9 9 # O q 0X~ Y Y Y Y [ [ [ [ [ [ [ [ [ [ [ [ [ [ [ [ [ [ [ [ [ [ [ [ [ [ [ [ [ [ P n n V.F.F.j a a V.V.F.H.H.H.H.H.H.H.H.H.H.H.a a f.j.j.j.f.p p u 5 6 V F G G G G G G G G G G G o.V.u 2 2 2 2 2 3 B.V.C C V O.O.XXrXpXpXpXpXpXpXpXpXpXpXpXpXpXuXs.6 6 V o.V.a 2 2 2 2 j V.B.G G G G G G G F C V C c A 0X0XjX0X0X0X0X0X0X0X0X0X0X0X0X0X0X|.).1X0X0X0X0X0X0X0X0X0X0X0X0X0X0X0X0XjX9X XhXbXbXbXbXbXbXbXbXbXbXbXbXbXbXbXbXbXbXbXbXbXbXbXbXbXbXbXbXbXbXcXjX0X0X0X0X0X0X0X0X0XjXbXbXbXbXbXbXbXbXbXbXbXbXbXbXbXbXbXbXbXcX0X0X0X0X0X0X0X0X0X0X0X0X0X0X0X0X0X0X0X0Xa a l |._.H.H.H.H.H.H.H.H.k a a a a N.F.F.F.F.F.A n M L L L L L U Y Y Y Y Y Y Y Y Y Y Y Y Y Y Y Y Y Y Y Y N n n [ [ [ [ [ [ [ [ [ [ [ [ [ [ [ [ [ [ [ [ [ [ [ [ [ [ [ [ [ [ [ [ [ [ [ [ [ [ [ [ [ [ [ [ [ [ [ [ [ [ [ ` Y Y ; O O 9 9 9 9 9 : O O 0X0X0X0X0X0X0X0X0X0X0X0X0X0X0X0X0X0X0X0X0X0X0X0X0X0X0X0X0X0X0X0X0X0X0X0X0X0X0X0X0X0X0X0X0X0X0X0X0X0X0X0X0X0X0X0X0X0X0X0X0X0X0X0X0X0X0X0X0X0X0X0X0X0X0X0X0X0X0XcXbXbXbXbXbXbXbXbXbXbXbXbXbXbXbXbXbXbXbXcXjX0X0X0X0X0X0X0X0X0X0X0X0X0X0X0X0X0X0X0X0X0X0X0X0X0X0X0X0X0X0X0X0X0X0X0X0X0X0X0X0X0XcXbXbXbXbXbXbXbXbXbXbXbXbXbXbXbXbXbXbXbXbXbXbXbXbXbXbXbXbXbXbXbXbXbXcXjX0X0X0X0X0X0X0X0X0X0X0X0X0X0X0X0X0X0X0X",
"0X0X0X0X0X0X0X0X0X0X0X0X0X0X0X0X0X0X0X0X0X0X0X0X0X0X0X0X0X0X0X0X0X0X0X0X0X0X0X0X0X0X0X0X0X0X0X0X0X0X0X0X0XjXbXbXbXbXbXbXbXbXbXbXbXbXbXbXbXbXbXbXbXbXbXbXbXbXbXbXbXbXbXbXbXbXbXbXcX0X0X0X0X0X0X0X0X0X0X0X0X0X0X0X0X0X0X0X0X0X0X0X0X0X0X0X0X0X0XcXbXbXbXbXbXbXbXbXbXbXbXbXbXbXbXbXbXbXbXjX0X0X0X0X0X0X0X0X0X0X0X0X0X0X0X0X0X0X0X0X0X0X0X0X0X0X0X0X0X0X0X0X0X0X0X0X0X0X0X0X0X0X0X0X0XO O : 9 9 9 9 9 9 # O q 0XY Y Y Y Y [ [ [ [ [ [ [ [ [ [ [ [ [ [ [ [ [ [ [ [ [ [ [ [ [ [ [ [ [ [ P n n F.F.F.j a a V.V.H.H.H.H.H.H.H.H.H.H.H.H.a a f.j.j.f.p p u 5 o o V C F G G G G G G G G G G B.V.4 2 2 2 2 2 a V.o.V O.O.rXrXpXpXpXpXpXpXpXpXpXpXpXpXpXpXpXpXuXs.6 V ..V.a 2 2 2 2 3 V.V.T G G G G G G G F C V C 6 ~.0XjXjX0X0X0X0X0X0X0X0X0X0X0X0X9X_.).0XjX0X0X0X0X0X0X0X0X0X0X0X0X0X0XjXbXjX X XbXbXbXbXbXbXbXbXbXbXbXbXbXbXbXbXbXbXbXbXbXbXbXbXbXbXbXbXbXbXjX0X0X0X0X0X0X0X0X0X0XcXbXbXbXbXbXbXbXbXbXbXbXbXbXbXbXbXbXbXcXjX0X0X0X0X0X0X0X0X0X0X0X0X0X0X0X0X0X0X0X0Xa a l |.).H.H.H.H.H.H.H.H.j a a a a N.F.F.F.F.F.A n M L L L L L U Y Y Y Y Y Y Y Y Y Y Y Y Y Y Y Y Y Y Y Y N n n [ [ [ [ [ [ [ [ [ [ [ [ [ [ [ [ [ [ [ [ [ [ [ [ [ [ [ [ [ [ [ [ [ [ [ [ [ [ [ [ [ [ [ [ [ [ [ [ [ [ [ ` Y Y ; O O 9 9 9 9 9 : O O 0X0X0X0X0X0X0X0X0X0X0X0X0X0X0X0X0X0X0X0X0X0X0X0X0X0X0X0X0X0X0X0X0X0X0X0X0X0X0X0X0X0X0X0X0X0X0X0X0X0X0X0X0X0X0X0X0X0X0X0X0X0X0X0X0X0X0X0X0X0X0X0X0X0X0X0X0X0XjXbXbXbXbXbXbXbXbXbXbXbXbXbXbXbXbXbXbXbXcXjX0X0X0X0X0X0X0X0X0X0X0X0X0X0X0X0X0X0X0X0X0X0X0X0X0X0X0X0X0X0X0X0X0X0X0X0X0X0X0X0X0XjXbXbXbXbXbXbXbXbXbXbXbXbXbXbXbXbXbXbXbXbXbXbXbXbXbXbXbXbXbXbXbXbXbXbXjX0X0X0X0X0X0X0X0X0X0X0X0X0X0X0X0X0X0X0X0X",
"0X0X0X0X0X0X0X0X0X0X0X0X0X0X0X0X0X0X0X0X0X0X0X0X0X0X0X0X0X0X0X0X0X0X0X0X0X0X0X0X0X0X0X0X0X0X0X0X0X0X0X0X0XcXbXbXbXbXbXbXbXbXbXbXbXbXbXbXbXbXbXbXbXbXbXbXbXbXbXbXbXbXbXbXbXbXbXcXjX0X0X0X0X0X0X0X0X0X0X0X0X0X0X0X0X0X0X0X0X0X0X0X0X0X0X0X0X0XjXbXbXbXbXbXbXbXbXbXbXbXbXbXbXbXbXbXbXbXjX0X0X0X0X0X0X0X0X0X0X0X0X0X0X0X0X0X0X0X0X0X0X0X0X0X0X0X0X0X0X0X0X0X0X0X0X0X0X0X0X0X0X0X0X0X0XO O : 9 9 9 9 9 9 # O q 0XY Y Y Y Y [ [ [ [ [ [ [ [ [ [ [ [ [ [ [ [ [ [ [ [ [ [ [ [ [ [ [ [ [ [ P n n F.F.F.j a a V.V.H.H.H.H.H.H.H.H.H.H.H.H.a a f.h.p p p p 4 o 6 6 6 V n C F G G G G G G G L V.V.2 2 2 2 2 2 k V.K.XXrXrXpXpXpXpXpXpXpXpXpXpXpXpXpXpXpXpXpXpXpXuXO.V  .V.N.2 2 2 2 2 j V.Q G G G G G G G G G C V 6 A ~.0XjX0X0X0X0X0X0X0X0XjXjX0X0X1X).`.0X0X0X0X0X0X0X0X0X0X0X0X0X0X0XjXbXbXbX9X XhXbXbXbXbXbXbXbXbXbXbXbXbXbXbXbXbXbXbXbXbXbXbXbXbXbXbXbXbXcX0X0X0X0X0X0X0X0X0X0XjXbXbXbXbXbXbXbXbXbXbXbXbXbXbXbXbXbXbXbXjX0X0X0X0X0X0X0X0X0X0X0X0X0X0X0X0X0X0X0X0X0Xa a l |.).H.H.H.H.H.H.H.H.j a a a a N.F.F.F.F.F.A n M L L L L L U Y Y Y Y Y Y Y Y Y Y Y Y Y Y Y Y Y Y Y Y N n n [ [ [ [ [ [ [ [ [ [ [ [ [ [ [ [ [ [ [ [ [ [ [ [ [ [ [ [ [ [ [ [ [ [ [ [ [ [ [ [ [ [ [ [ [ [ [ [ [ [ [ ` Y Y ; O O 9 9 9 9 9 : O O 0X0X0X0X0X0X0X0X0X0X0X0X0X0X0X0X0X0X0X0X0X0X0X0X0X0X0X0X0X0X0X0X0X0X0X0X0X0X0X0X0X0X0X0X0X0X0X0X0X0X0X0X0X0X0X0X0X0X0X0X0X0X0X0X0X0X0X0X0X0X0X0X0X0X0X0X0XjXbXbXbXbXbXbXbXbXbXbXbXbXbXbXbXbXbXbXbXcXjX0X0X0X0X0X0X0X0X0X0X0X0X0X0X0X0X0X0X0X0X0X0X0X0X0X0X0X0X0X0X0X0X0X0X0X0X0X0X0X0X0XjXbXbXbXbXbXbXbXbXbXbXbXbXbXbXbXbXbXbXbXbXbXbXbXbXbXbXbXbXbXbXbXbXbXbXcX0X0X0X0X0X0X0X0X0X0X0X0X0X0X0X0X0X0X0X0X0X",
"0X0X0X0X0X0X0X0X0X0X0X0X0X0X0X0X0X0X0X0X0X0X0X0X0X0X0X0X0X0X0X0X0X0X0X0X0X0X0X0X0X0X0X0X0X0X0X0X0X0X0X0XjXbXbXbXbXbXbXbXbXbXbXbXbXbXbXbXbXbXbXbXbXbXbXbXbXbXbXbXbXbXbXbXbXbXbXjX0X0X0X0X0X0X0X0X0X0X0X0X0X0X0X0X0X0X0X0X0X0X0X0X0X0X0X0X0XjXbXbXbXbXbXbXbXbXbXbXbXbXbXbXbXbXbXbXbXcX0X0X0X0X0X0X0X0X0X0X0X0X0X0X0X0X0X0X0X0X0X0X0X0X0X0X0X0X0X0X0X0X0X0X0X0X0X0X0X0X0X0X0X0X0X0X0XO O : 9 9 9 9 9 9 # O q 0X~ Y Y Y Y [ [ [ [ [ [ [ [ [ [ [ [ [ [ [ [ [ [ [ [ [ [ [ [ [ [ [ [ [ [ P n n F.F.F.j a a V.V.H.H.H.H.H.H.H.H.H.H.H.F.a a p p p p p g oXXXt.D D 6 ; V V V C F F G G G T V.V.2 2 2 2 2 3 N.V.@XpXpXpXpXpXpXpXpXpXpXpXpXpXpXpXpXpXpXpXpXpXpXpXrXO.D V.V.2 2 2 2 2 3 V.B.G G G G G G G G G F V 6 6 J.0X0X0X0X0X0X0X0X0X0XjX0X0X0X X).1XjX0X0X0X0X0X0X0X0X0X0X0X0X0X0XcXbXbXbXjX X XbXbXbXbXbXbXbXbXbXbXbXbXbXbXbXbXbXbXbXbXbXbXbXbXbXbXbXcXjX0X0X0X0X0X0X0X0X0XjXbXbXbXbXbXbXbXbXbXbXbXbXbXbXbXbXbXbXbXcX0X0X0X0X0X0X0X0X0X0X0X0X0X0X0X0X0X0X0X0X0X0Xa a l |.).H.H.H.H.H.H.H.H.j a a a a N.F.F.F.F.F.A n M L L L L L U Y Y Y Y Y Y Y Y Y Y Y Y Y Y Y Y Y Y Y Y N n n [ [ [ [ [ [ [ [ [ [ [ [ [ [ [ [ [ [ [ [ [ [ [ [ [ [ [ [ [ [ [ [ [ [ [ [ [ [ [ [ [ [ [ [ [ [ [ [ [ [ [ ` Y Y ; O O 9 9 9 9 9 : O O 0X0X0X0X0X0X0X0X0X0X0X0X0X0X0X0X0X0X0X0X0X0X0X0X0X0X0X0X0X0X0X0X0X0X0X0X0X0X0X0X0X0X0X0X0X0X0X0X0X0X0X0X0X0X0X0X0X0X0X0X0X0X0X0X0X0X0X0X0X0X0X0X0X0X0X0XjXbXbXbXbXbXbXbXbXbXbXbXbXbXbXbXbXbXbXbXbXjX0X0X0X0X0X0X0X0X0X0X0X0X0X0X0X0X0X0X0X0X0X0X0X0X0X0X0X0X0X0X0X0X0X0X0X0X0X0X0X0X0X0XbXbXbXbXbXbXbXbXbXbXbXbXbXbXbXbXbXbXbXbXbXbXbXbXbXbXbXbXbXbXbXbXbXbXcXjX0X0X0X0X0X0X0X0X0X0X0X0X0X0X0X0X0X0X0X0X0X",
"0X0X0X0X0X0X0X0X0X0X0X0X0X0X0X0X0X0X0X0X0X0X0X0X0X0X0X0X0X0X0X0X0X0X0X0X0X0X0X0X0X0X0X0X0X0X0X0X0X0X0XjXbXbXbXbXbXbXbXbXbXbXbXbXbXbXbXbXbXbXbXbXbXbXbXbXbXbXbXbXbXbXbXbXbXbXcX0X0X0X0X0X0X0X0X0X0X0X0X0X0X0X0X0X0X0X0X0X0X0X0X0X0X0X0X0X0XbXbXbXbXbXbXbXbXbXbXbXbXbXbXbXbXbXbXbXcXjX0X0X0X0X0X0X0X0X0X0X0X0X0X0X0X0X0X0X0X0X0X0X0X0X0X0X0X0X0X0X0X0X0X0X0X0X0X0X0X0X0X0X0X0X0X0X0XO O : 9 9 9 9 9 9 # O q 6XY Y Y Y Y [ [ [ [ [ [ [ [ [ [ [ [ [ [ [ [ [ [ [ [ [ [ [ [ [ [ [ [ [ [ P n n F.F.F.j a a V.V.H.H.H.H.H.H.H.H.H.H.H.V.a a p p p p 5.oXyXyXOXXXXXXXt.O.D D V V V V V C C V.V.3 2 2 2 @ 4 V.H.iXpXpXpXpXpXpXpXpXpXpXpXpXpXpXpXpXpXpXpXpXpXpXpXpXrXO.V.V.3 2 2 2 2 2 l V.T G G G G G G G G G G C ; A 0X0X0X0X0X0X0X0X0X0X0X0X0X9X_.).0XjX0X0X0X0X0X0X0X0X0X0X0X0X0XjXbXbXbXbXbX9X XhXbXbXbXbXbXbXbXbXbXbXbXbXbXbXbXbXbXbXbXbXbXbXbXbXbXbXjX0X0X0X0X0X0X0X0X0X0XcXbXbXbXbXbXbXbXbXbXbXbXbXbXbXbXbXbXbXcXjX0X0X0X0X0X0X0X0X0X0X0X0X0X0X0X0X0X0X0X0X0X0Xa a l |.).H.H.H.H.H.H.H.H.j a a a a N.F.F.F.F.F.A n M L L L L L U Y Y Y Y Y Y Y Y Y Y Y Y Y Y Y Y Y Y Y Y N n n [ [ [ [ [ [ [ [ [ [ [ [ [ [ [ [ [ [ [ [ [ [ [ [ [ [ [ [ [ [ [ [ [ [ [ [ [ [ [ [ [ [ [ [ [ [ [ [ [ [ [ ` Y Y ; O O 9 9 9 9 9 : O O 0X0X0X0X0X0X0X0X0X0X0X0X0X0X0X0X0X0X0X0X0X0X0X0X0X0X0X0X0X0X0X0X0X0X0X0X0X0X0X0X0X0X0X0X0X0X0X0X0X0X0X0X0X0X0X0X0X0X0X0X0X0X0X0X0X0X0X0X0X0X0X0X0X0X0XjXbXbXbXbXbXbXbXbXbXbXbXbXbXbXbXbXbXbXbXbXjX0X0X0X0X0X0X0X0X0X0X0X0X0X0X0X0X0X0X0X0X0X0X0X0X0X0X0X0X0X0X0X0X0X0X0X0X0X0X0X0X0X0XcXbXbXbXbXbXbXbXbXbXbXbXbXbXbXbXbXbXbXbXbXbXbXbXbXbXbXbXbXbXbXbXbXbXbXjX0X0X0X0X0X0X0X0X0X0X0X0X0X0X0X0X0X0X0X0X0X0X",
"0X0X0X0X0X0X0X0X0X0X0X0X0X0X0X0X0X0X0X0X0X0X0X0X0X0X0X0X0X0X0X0X0X0X0X0X0X0X0X0X0X0X0X0X0X0X0X0X0X0X0XbXbXbXbXbXbXbXbXbXbXbXbXbXbXbXbXbXbXbXbXbXbXbXbXbXbXbXbXbXbXbXbXbXbXcXjX0X0X0X0X0X0X0X0X0X0X0X0X0X0X0X0X0X0X0X0X0X0X0X0X0X0X0X0X0XcXbXbXbXbXbXbXbXbXbXbXbXbXbXbXbXbXbXbXbXjX0X0X0X0X0X0X0X0X0X0X0X0X0X0X0X0X0X0X0X0X0X0X0X0X0X0X0X0X0X0X0X0X0X0X0X0X0X0X0X0X0X0X0X0X0X0X0X0XO O : 9 9 9 9 9 9 # O q +XY Y Y Y Y [ [ [ [ [ [ [ [ [ [ [ [ [ [ [ [ [ [ [ [ [ [ [ [ [ [ [ [ [ [ P n n F.F.F.j a a V.V.H.H.H.H.H.H.H.H.H.H.H.V.a a u p p 5.oXrXyXyXyXyXyXyXrXOXOXOXXXs.s.s.O.O.O.V.V.a 2 2 2 2 d V.~.pXpXpXpXpXpXpXpXpXpXpXpXpXpXpXpXpXpXpXpXpXpXpXpXpXpXrXV.V.4 2 2 2 2 2 d V.Q G G G G G G G G G G G o ; ~.0X0X0X0X0X0X0X0X0X0X0XjX X).`.0X0X0X0X0X0X0X0X0X0X0X0X0X0XjXbXbXbXbXbXbXjX X XbXbXbXbXbXbXbXbXbXbXbXbXbXbXbXbXbXbXbXbXbXbXbXbXbXjX0X0X0X0X0X0X0X0X0X0XjXbXbXbXbXbXbXbXbXbXbXbXbXbXbXbXbXbXbXbXjX0X0X0X0X0X0X0X0X0X0X0X0X0X0X0X0X0X0X0X0X0X0X0Xa a l |.).H.H.H.H.H.H.H.H.j a a a a N.F.F.F.F.F.A n M L L L L L U Y Y Y Y Y Y Y Y Y Y Y Y Y Y Y Y Y Y Y Y N n n [ [ [ [ [ [ [ [ [ [ [ [ [ [ [ [ [ [ [ [ [ [ [ [ [ [ [ [ [ [ [ [ [ [ [ [ [ [ [ [ [ [ [ [ [ [ [ [ [ [ [ ` Y Y ; O O 9 9 9 9 9 : O O 0X0X0X0X0X0X0X0X0X0X0X0X0X0X0X0X0X0X0X0X0X0X0X0X0X0X0X0X0X0X0X0X0X0X0X0X0X0X0X0X0X0X0X0X0X0X0X0X0X0X0X0X0X0X0X0X0X0X0X0X0X0X0X0X0X0X0X0X0X0X0X0X0X0XjXbXbXbXbXbXbXbXbXbXbXbXbXbXbXbXbXbXbXbXbXcX0X0X0X0X0X0X0X0X0X0X0X0X0X0X0X0X0X0X0X0X0X0X0X0X0X0X0X0X0X0X0X0X0X0X0X0X0X0X0X0X0X0XjXbXbXbXbXbXbXbXbXbXbXbXbXbXbXbXbXbXbXbXbXbXbXbXbXbXbXbXbXbXbXbXbXbXbXjX0X0X0X0X0X0X0X0X0X0X0X0X0X0X0X0X0X0X0X0X0X0X0X",
"0X0X0X0X0X0X0X0X0X0X0X0X0X0X0X0X0X0X0X0X0X0X0X0X0X0X0X0X0X0X0X0X0X0X0X0X0X0X0X0X0X0X0X0X0X0X0X0X0X0XcXbXbXbXbXbXbXbXbXbXbXbXbXbXbXbXbXbXbXbXbXbXbXbXbXbXbXbXbXbXbXbXbXbXcXjX0X0X0X0X0X0X0X0X0X0X0X0X0X0X0X0X0X0X0X0X0X0X0X0X0X0X0X0X0XjXbXbXbXbXbXbXbXbXbXbXbXbXbXbXbXbXbXbXbXcX0X0X0X0X0X0X0X0X0X0X0X0X0X0X0X0X0X0X0X0X0X0X0X0X0X0X0X0X0X0X0X0X0X0X0X0X0X0X0X0X0X0X0X0X0X0X0X0X0XO O : 9 9 9 9 9 9 # O q +XY Y Y Y Y ` [ [ [ [ [ [ [ [ [ [ [ [ [ [ [ [ [ [ [ [ [ [ [ [ [ [ [ [ [ P n n F.F.F.j a a V.V.H.H.H.H.H.H.H.H.H.H.H.V.a a u p 5.oXOXyXyXyXyXyXyXyXuXpXpXpXpXuXuXuXrXrXrX'.V.a 2 2 2 3 N.V.@XpXpXpXpXpXpXpXpXpXpXpXpXpXpXpXpXpXpXpXpXpXpXpXpXpXpXpXH.V.a 2 2 2 2 2 a V.B.G G G G G G G G G G G M 6 J.0X0X0X0X0X0X0X0X0X0X0X0X`.).1X0X0X0X0X0X0X0X0X0X0X0X0X0X0XcXbXbXbXbXbXbXbXdX XhXbXbXbXbXbXbXbXbXbXbXbXbXbXbXbXbXbXbXbXbXbXbXbXcX0X0X0X0X0X0X0X0X0X0XjXbXbXbXbXbXbXbXbXbXbXbXbXbXbXbXbXbXbXbXcX0X0X0X0X0X0X0X0X0X0X0X0X0X0X0X0X0X0X0X0X0X0X0X0Xa a l |.).H.H.H.H.H.H.H.H.j a a a a N.F.F.F.F.F.A n M L L L L L U Y Y Y Y Y Y Y Y Y Y Y Y Y Y Y Y Y Y Y Y N n n [ [ [ [ [ [ [ [ [ [ [ [ [ [ [ [ [ [ [ [ [ [ [ [ [ [ [ [ [ [ [ [ [ [ [ [ [ [ [ [ [ [ [ [ [ [ [ [ [ [ [ ` Y Y ; O O 9 9 9 9 9 : O O 0X0X0X0X0X0X0X0X0X0X0X0X0X0X0X0X0X0X0X0X0X0X0X0X0X0X0X0X0X0X0X0X0X0X0X0X0X0X0X0X0X0X0X0X0X0X0X0X0X0X0X0X0X0X0X0X0X0X0X0X0X0X0X0X0X0X0X0X0X0X0X0X0X0XbXbXbXbXbXbXbXbXbXbXbXbXbXbXbXbXbXbXbXbXcXjX0X0X0X0X0X0X0X0X0X0X0X0X0X0X0X0X0X0X0X0X0X0X0X0X0X0X0X0X0X0X0X0X0X0X0X0X0X0X0X0X0XjXbXbXbXbXbXbXbXbXbXbXbXbXbXbXbXbXbXbXbXbXbXbXbXbXbXbXbXbXbXbXbXbXbXbXcX0X0X0X0X0X0X0X0X0X0X0X0X0X0X0X0X0X0X0X0X0X0X0X0X",
"0X0X0X0X0X0X0X0X0X0X0X0X0X0X0X0X0X0X0X0X0X0X0X0X0X0X0X0X0X0X0X0X0X0X0X0X0X0X0X0X0X0X0X0X0X0X0X0X0XjXbXbXbXbXbXbXbXbXbXbXbXbXbXbXbXbXbXbXbXbXbXbXbXbXbXbXbXbXbXbXbXbXbXbXjX0X0X0X0X0X0X0X0X0X0X0X0X0X0X0X0X0X0X0X0X0X0X0X0X0X0X0X0X0XjXbXbXbXbXbXbXbXbXbXbXbXbXbXbXbXbXbXbXbXcXjX0X0X0X0X0X0X0X0X0X0X0X0X0X0X0X0X0X0X0X0X0X0X0X0X0X0X0X0X0X0X0X0X0X0X0X0X0X0X0X0X0X0X0X0X0X0X0X0X0XO O : 9 9 9 9 9 9 # O q +XY Y Y Y Y ` [ [ [ [ [ [ [ [ [ [ [ [ [ [ [ [ [ [ [ [ [ [ [ [ [ [ [ [ [ P n n F.F.F.j a a V.V.H.H.H.H.H.H.H.H.H.H.H.V.a a u 5.oXOXyXyXyXyXyXyXyXyXpXpXpXpXpXpXpXpXpXpXpX+XV.N.2 2 2 d V.H.iXpXpXpXpXpXpXpXpXpXpXpXpXpXpXpXpXpXpXpXpXpXpXpXpXpXpXpX].V.a 2 2 2 2 2 4 V.V.G G G G G G G G G G G F V ..0X0X0X0X0X0X0X0X0X0X0X9X).`.0X0X0X0X0X0X0X0X0X0X0X0X0X0XjXbXbXbXbXbXbXbXbXjX X XbXbXbXbXbXbXbXbXbXbXbXbXbXbXbXbXbXbXbXbXbXbXcXjX0X0X0X0X0X0X0X0X0X0XcXbXbXbXbXbXbXbXbXbXbXbXbXbXbXbXbXbXbXcXjX0X0X0X0X0X0X0X0X0X0X0X0X0X0X0X0X0X0X0X0X0X0X0X0Xa a N.|.).H.H.H.H.H.H.H.H.j a a a a N.F.F.F.F.F.A n M L L L L L U Y Y Y Y Y Y Y Y Y Y Y Y Y Y Y Y Y Y Y Y N n n [ [ [ [ [ [ [ [ [ [ [ [ [ [ [ [ [ [ [ [ [ [ [ [ [ [ [ [ [ [ [ [ [ [ [ [ [ [ [ [ [ [ [ [ [ [ [ [ [ [ [ ` Y Y ; O O 9 9 9 9 9 : O O 0X0X0X0X0X0X0X0X0X0X0X0X0X0X0X0X0X0X0X0X0X0X0X0X0X0X0X0X0X0X0X0X0X0X0X0X0X0X0X0X0X0X0X0X0X0X0X0X0X0X0X0X0X0X0X0X0X0X0X0X0X0X0X0X0X0X0X0X0X0X0X0X0XcXbXbXbXbXbXbXbXbXbXbXbXbXbXbXbXbXbXbXbXcXjX0X0X0X0X0X0X0X0X0X0X0X0X0X0X0X0X0X0X0X0X0X0X0X0X0X0X0X0X0X0X0X0X0X0X0X0X0X0X0X0X0X0XcXbXbXbXbXbXbXbXbXbXbXbXbXbXbXbXbXbXbXbXbXbXbXbXbXbXbXbXbXbXbXbXbXbXcXjX0X0X0X0X0X0X0X0X0X0X0X0X0X0X0X0X0X0X0X0X0X0X0X0X",
"0X0X0X0X0X0X0X0X0X0X0X0X0X0X0X0X0X0X0X0X0X0X0X0X0X0X0X0X0X0X0X0X0X0X0X0X0X0X0X0X0X0X0X0X0X0X0X0XjXbXbXbXbXbXbXbXbXbXbXbXbXbXbXbXbXbXbXbXbXbXbXbXbXbXbXbXbXbXbXbXbXbXbXcX0X0X0X0X0X0X0X0X0X0X0X0X0X0X0X0X0X0X0X0X0X0X0X0X0X0X0X0X0X0XcXbXbXbXbXbXbXbXbXbXbXbXbXbXbXbXbXbXbXcXjX0X0X0X0X0X0X0X0X0X0X0X0X0X0X0X0X0X0X0X0X0X0X0X0X0X0X0X0X0X0X0X0X0X0X0X0X0X0X0X0X0X0X0X0X0X0X0X0X0X0XO O : 9 9 9 9 9 9 # O q +XY Y Y Y Y ` [ [ [ [ [ [ [ [ [ [ [ [ [ [ [ [ [ [ [ [ [ [ [ [ [ [ [ [ [ P n n F.F.F.j a a V.V.H.H.H.H.H.H.H.H.H.H.H.V.a a w.oXOXOXyXyXyXyXyXyXyXuXpXpXpXpXpXpXpXpXpXpXpXtXH.V.k a a N.V.@XpXpXpXpXpXpXpXpXpXpXpXpXpXpXpXpXpXpXpXpXpXpXpXpXpXpXpXpXoXV.j 2 2 2 2 2 4 V.V.G G G G G G G G G G G G V  .0X0X0X0X0X0X0X0X0X0X0X X).1X0X0X0X0X0X0X0X0X0X0X0X0X0XjXbXbXbXbXbXbXbXbXbXbX9X XhXbXbXbXbXbXbXbXbXbXbXbXbXbXbXbXbXbXbXbXbXbXjX0X0X0X0X0X0X0X0X0X0XjXbXbXbXbXbXbXbXbXbXbXbXbXbXbXbXbXbXbXbXjX0X0X0X0X0X0X0X0X0X0X0X0X0X0X0X0X0X0X0X0X0X0X0XjX0Xa a V.|.).H.H.H.H.H.H.H.H.j a a a a N.F.F.F.F.F.A n M L L L L L U Y Y Y Y Y Y Y Y Y Y Y Y Y Y Y Y Y Y Y Y N n n [ [ [ [ [ [ [ [ [ [ [ [ [ [ [ [ [ [ [ [ [ [ [ [ [ [ [ [ [ [ [ [ [ [ [ [ [ [ [ [ [ [ [ [ [ [ [ [ [ [ [ ` Y Y ; O O 9 9 9 9 9 : O O 0X0X0X0X0X0X0X0X0X0X0X0X0X0X0X0X0X0X0X0X0X0X0X0X0X0X0X0X0X0X0X0X0X0X0X0X0X0X0X0X0X0X0X0X0X0X0X0X0X0X0X0X0X0X0X0X0X0X0X0X0X0X0X0X0X0X0X0X0X0X0X0XcXbXbXbXbXbXbXbXbXbXbXbXbXbXbXbXbXbXbXbXcXjX0X0X0X0X0X0X0X0X0X0X0X0X0X0X0X0X0X0X0X0X0X0X0X0X0X0X0X0X0X0X0X0X0X0X0X0X0X0X0X0X0X0XjXbXbXbXbXbXbXbXbXbXbXbXbXbXbXbXbXbXbXbXbXbXbXbXbXbXbXbXbXbXbXbXbXbXbXjX0X0X0X0X0X0X0X0X0X0X0X0X0X0X0X0X0X0X0X0X0X0X0X0X0X",
"0X0X0X0X0X0X0X0X0X0X0X0X0X0X0X0X0X0X0X0X0X0X0X0X0X0X0X0X0X0X0X0X0X0X0X0X0X0X0X0X0X0X0X0X0X0X0X0XcXbXbXbXbXbXbXbXbXbXbXbXbXbXbXbXbXbXbXbXbXbXbXbXbXbXbXbXbXbXbXbXbXbXcXjX0X0X0X0X0X0X0X0X0X0X0X0X0X0X0X0X0X0X0X0X0X0X0X0X0X0X0X0X0XjXbXbXbXbXbXbXbXbXbXbXbXbXbXbXbXbXbXbXbXjX0X0X0X0X0X0X0X0X0X0X0X0X0X0X0X0X0X0X0X0X0X0X0X0X0X0X0X0X0X0X0X0X0X0X0X0X0X0X0X0X0X0X0X0X0X0X0X0X0X0X0XO O : 9 9 9 9 9 9 # O q +XY Y Y Y Y ` [ [ [ [ [ [ [ [ [ [ [ [ [ [ [ [ [ [ [ [ [ [ [ [ [ [ [ [ [ P n n F.F.F.j a a V.V.H.H.H.H.H.H.H.H.H.H.H.V.a a y.OXOXrXyXyXyXyXyXyXyXpXpXpXpXpXpXpXpXpXpXpXpXpXrXH.V.N.N.V.'.iXpXpXpXpXpXpXpXpXpXpXpXpXpXpXpXpXpXpXpXpXpXpXpXpXpXpXpXpXoXV.N.2 2 2 2 2 4 V.V.G G G G G G G G G G G G V  .0X0X0X0X0X0X0X0X0X0X9X_.).0X0X0X0X0X0X0X0X0X0X0X0X0X0XbXbXbXbXbXbXbXbXbXbXbXjX X XbXbXbXbXbXbXbXbXbXbXbXbXbXbXbXbXbXbXbXbXcX0X0X0X0X0X0X0X0X0X0XjXbXbXbXbXbXbXbXbXbXbXbXbXbXbXbXbXbXbXbXcX0X0X0X0X0X0X0X0X0X0X0X0X0X0X0X0X0X0X0X0X0X0XjX0X0X0Xa a V.|.).H.H.H.H.H.H.H.H.j a a a a N.F.F.F.F.F.A n M L L L L L U Y Y Y Y Y Y Y Y Y Y Y Y Y Y Y Y Y Y Y Y N n n [ [ [ [ [ [ [ [ [ [ [ [ [ [ [ [ [ [ [ [ [ [ [ [ [ [ [ [ [ [ [ [ [ [ [ [ [ [ [ [ [ [ [ [ [ [ [ [ [ [ [ ` Y Y ; O O 9 9 9 9 9 : O O 0X0X0X0X0X0X0X0X0X0X0X0X0X0X0X0X0X0X0X0X0X0X0X0X0X0X0X0X0X0X0X0X0X0X0X0X0X0X0X0X0X0X0X0X0X0X0X0X0X0X0X0X0X0X0X0X0X0X0X0X0X0X0X0X0X0X0X0X0X0X0XjXbXbXbXbXbXbXbXbXbXbXbXbXbXbXbXbXbXbXbXcXjX0X0X0X0X0X0X0X0X0X0X0X0X0X0X0X0X0X0X0X0X0X0X0X0X0X0X0X0X0X0X0X0X0X0X0X0X0X0X0X0X0X0XjXbXbXbXbXbXbXbXbXbXbXbXbXbXbXbXbXbXbXbXbXbXbXbXbXbXbXbXbXbXbXbXbXbXbXcX0X0X0X0X0X0X0X0X0X0X0X0X0X0X0X0X0X0X0X0X0X0X0X0X0X0X",
"0X0X0X0X0X0X0X0X0X0X0X0X0X0X0X0X0X0X0X0X0X0X0X0X0X0X0X0X0X0X0X0X0X0X0X0X0X0X0X0X0X0X0X0X0X0X0XjXbXbXbXbXbXbXbXbXbXbXbXbXbXbXbXbXbXbXbXbXbXbXbXbXbXbXbXbXbXbXbXbXbXbXjX0X0X0X0X0X0X0X0X0X0X0X0X0X0X0X0X0X0X0X0X0X0X0X0X0X0X0X0X0XjXbXbXbXbXbXbXbXbXbXbXbXbXbXbXbXbXbXbXbXcX0X0X0X0X0X0X0X0X0X0X0X0X0X0X0X0X0X0X0X0X0X0X0X0X0X0X0X0X0X0X0X0X0X0X0X0X0X0X0X0X0X0X0X0X0X0X0X0X0X0X0X0XO O : 9 9 9 9 9 9 # O q +XY Y Y Y Y ` [ [ [ [ [ [ [ [ [ [ [ [ [ [ [ [ [ [ [ [ [ [ [ [ [ [ [ [ [ P n n F.F.F.j a a V.V.H.H.H.H.H.H.H.H.H.H.H.V.a a y.OXOXyXyXyXyXyXyXyXuXpXpXpXpXpXpXpXpXpXpXpXpXpXpXtX+X'.'.'.tXpXpXpXpXpXpXpXpXpXpXpXpXpXpXpXpXpXpXpXpXpXpXpXpXpXpXpXpXpX7XV.V.2 2 2 2 2 4 V.o.G G G G G G G G G G G G V J.0X0X0X0X0X0X0X0X0X0X1X).`.0X0X0X0X0X0X0X0X0X0X0X0X0XcXbXbXbXbXbXbXbXbXbXbXbXbX9X XhXbXbXbXbXbXbXbXbXbXbXbXbXbXbXbXbXbXbXcXjX0X0X0X0X0X0X0X0X0X0XbXbXbXbXbXbXbXbXbXbXbXbXbXbXbXbXbXbXbXcXjX0X0X0X0X0X0X0X0X0X0X0X0X0X0X0X0X0X0X0X0X0X0X0X0X0X;Xa a V.|.).H.H.H.H.H.H.H.H.j a a a a V.F.F.F.F.F.A n M L L L L L U Y Y Y Y Y Y Y Y Y Y Y Y Y Y Y Y Y Y Y Y N n n [ [ [ [ [ [ [ [ [ [ [ [ [ [ [ [ [ [ [ [ [ [ [ [ [ [ [ [ [ [ [ [ [ [ [ [ [ [ [ [ [ [ [ [ [ [ [ [ [ [ [ ` Y Y ; O O 9 9 9 9 9 : O O 0X0X0X0X0X0X0X0X0X0X0X0X0X0X0X0X0X0X0X0X0X0X0X0X0X0X0X0X0X0X0X0X0X0X0X0X0X0X0X0X0X0X0X0X0X0X0X0X0X0X0X0X0X0X0X0X0X0X0X0X0X0X0X0X0X0X0X0X0X0XjXbXbXbXbXbXbXbXbXbXbXbXbXbXbXbXbXbXbXbXcXjX0X0X0X0X0X0X0X0X0X0X0X0X0X0X0X0X0X0X0X0X0X0X0X0X0X0X0X0X0X0X0X0X0X0X0X0X0X0X0X0X0X0X0XcXbXbXbXbXbXbXbXbXbXbXbXbXbXbXbXbXbXbXbXbXbXbXbXbXbXbXbXbXbXbXbXbXbXcXjX0X0X0X0X0X0X0X0X0X0X0X0X0X0X0X0X0X0X0X0X0X0X0X0X0X0X",
"0X0X0X0X0X0X0X0X0X0X0X0X0X0X0X0X0X0X0X0X0X0X0X0X0X0X0X0X0X0X0X0X0X0X0X0X0X0X0X0X0X0X0X0X0X0XjXbXbXbXbXbXbXbXbXbXbXbXbXbXbXbXbXbXbXbXbXbXbXbXbXbXbXbXbXbXbXbXbXbXbXcX0X0X0X0X0X0X0X0X0X0X0X0X0X0X0X0X0X0X0X0X0X0X0X0X0X0X0X0X0XjXbXbXbXbXbXbXbXbXbXbXbXbXbXbXbXbXbXbXbXcXjX0X0X0X0X0X0X0X0X0X0X0X0X0X0X0X0X0X0X0X0X0X0X0X0X0X0X0X0X0X0X0X0X0X0X0X0X0X0X0X0X0X0X0X0X0X0X0X0X0X0X0X0XO O : 9 9 9 9 9 9 # O q +XY Y Y Y Y ` [ [ [ [ [ [ [ [ [ [ [ [ [ [ [ [ [ [ [ [ [ [ [ [ [ [ [ [ [ P n n F.F.F.j a a V.V.H.H.H.H.H.H.H.H.H.H.H.V.a a y.OXrXyXyXyXyXyXyXyXpXpXpXpXpXpXpXpXpXpXpXpXpXpXpXpXiXtXtXtXpXpXpXpXpXpXpXpXpXpXpXpXpXpXpXpXpXpXpXpXpXpXpXpXpXpXpXpXpXpXiXV.V.3 2 2 2 2 d V.o.G G G G G G G G G G G F 6 /.0X0X0X0X0X0X0X0X0X0X X).1X0X0X0X0X0X0X0X0X0X0X0X0XjXbXbXbXbXbXbXbXbXbXbXbXbXbXjX X XbXbXbXbXbXbXbXbXbXbXbXbXbXbXbXbXbXbXjX0X0X0X0X0X0X0X0X0X0XcXbXbXbXbXbXbXbXbXbXbXbXbXbXbXbXbXbXbXbXjX0X0X0X0X0X0X0X0X0X0X0X0X0X0X0X0X0X0X0X0X0X0X0X0X0X0X[.a a V.|.).H.H.H.H.H.H.H.H.d a a a a F.F.F.F.F.F.A n M L L L L L Y Y Y Y Y Y Y Y Y Y Y Y Y Y Y Y Y Y Y Y Y N n n [ [ [ [ [ [ [ [ [ [ [ [ [ [ [ [ [ [ [ [ [ [ [ [ [ [ [ [ [ [ [ [ [ [ [ [ [ [ [ [ [ [ [ [ [ [ [ [ [ [ [ ` Y Y ; O O 9 9 9 9 9 : O O 0X0X0X0X0X0X0X0X0X0X0X0X0X0X0X0X0X0X0X0X0X0X0X0X0X0X0X0X0X0X0X0X0X0X0X0X0X0X0X0X0X0X0X0X0X0X0X0X0X0X0X0X0X0X0X0X0X0X0X0X0X0X0X0X0X0X0X0X0XjXbXbXbXbXbXbXbXbXbXbXbXbXbXbXbXbXbXbXbXbXjX0X0X0X0X0X0X0X0X0X0X0X0X0X0X0X0X0X0X0X0X0X0X0X0X0X0X0X0X0X0X0X0X0X0X0X0X0X0X0X0X0X0X0XcXbXbXbXbXbXbXbXbXbXbXbXbXbXbXbXbXbXbXbXbXbXbXbXbXbXbXbXbXbXbXbXbXbXbXjX0X0X0X0X0X0X0X0X0X0X0X0X0X0X0X0X0X0X0X0X0X0X0X0X0X0X0X",
"0X0X0X0X0X0X0X0X0X0X0X0X0X0X0X0X0X0X0X0X0X0X0X0X0X0X0X0X0X0X0X0X0X0X0X0X0X0X0X0X0X0X0X0X0X0XcXbXbXbXbXbXbXbXbXbXbXbXbXbXbXbXbXbXbXbXbXbXbXbXbXbXbXbXbXbXbXbXbXbXcXjX0X0X0X0X0X0X0X0X0X0X0X0X0X0X0X0X0X0X0X0X0X0X0X0X0X0X0X0X0XcXbXbXbXbXbXbXbXbXbXbXbXbXbXbXbXbXbXbXbXjX0X0X0X0X0X0X0X0X0X0X0X0X0X0X0X0X0X0X0X0X0X0X0X0X0X0X0X0X0X0X0X0X0X0X0X0X0X0X0X0X0X0X0X0X0X0X0X0X0X0X0X0X0XO O : 9 9 9 9 9 9 # O q +XY Y Y Y Y ` [ [ [ [ [ [ [ [ [ [ [ [ [ [ [ [ [ [ [ [ [ [ [ [ [ [ [ [ [ P n n F.F.F.j a a V.V.H.H.H.H.H.H.H.H.H.H.H.V.a a y.OXrXyXyXyXyXyXyXuXpXpXpXpXpXpXpXpXpXpXpXpXpXpXpXpXpXpXpXpXpXpXpXpXpXpXpXpXpXpXpXpXpXpXpXpXpXpXpXpXpXpXpXpXpXpXpXpXpXpXpXV.V.a 2 2 2 2 l V.T G G G G G G G G G G G C D 9X0X0X0X0X0X0X0X0X0X9X_.).0X0X0X0X0X0X0X0X0X0X0X0XjXbXbXbXbXbXbXbXbXbXbXbXbXbXbXbX9X XhXbXbXbXbXbXbXbXbXbXbXbXbXbXbXbXbXcX0X0X0X0X0X0X0X0X0X0XjXbXbXbXbXbXbXbXbXbXbXbXbXbXbXbXbXbXbXbXjX0X0X0X0X0X0X0X0X0X0X0X0X0X0X0X0X0X0X0X0X0X0X0X0X0X0X0X[.a a V.|.H.H.H.H.H.H.H.H.H.a a a a a F.F.F.F.F.F.A n M L L L L L Y Y Y Y Y Y Y Y Y Y Y Y Y Y Y Y Y Y Y Y Y N n n [ [ [ [ [ [ [ [ [ [ [ [ [ [ [ [ [ [ [ [ [ [ [ [ [ [ [ [ [ [ [ [ [ [ [ [ [ [ [ [ [ [ [ [ [ [ [ [ [ [ [ ` Y Y ; O O 9 9 9 9 9 : O O 0X0X0X0X0X0X0X0X0X0X0X0X0X0X0X0X0X0X0X0X0X0X0X0X0X0X0X0X0X0X0X0X0X0X0X0X0X0X0X0X0X0X0X0X0X0X0X0X0X0X0X0X0X0X0X0X0X0X0X0X0X0X0X0X0X0X0X0XjXbXbXbXbXbXbXbXbXbXbXbXbXbXbXbXbXbXbXbXbXjX0X0X0X0X0X0X0X0X0X0X0X0X0X0X0X0X0X0X0X0X0X0X0X0X0X0X0X0X0X0X0X0X0X0X0X0X0X0X0X0X0X0X0XjXbXbXbXbXbXbXbXbXbXbXbXbXbXbXbXbXbXbXbXbXbXbXbXbXbXbXbXbXbXbXbXbXbXbXjX0X0X0X0X0X0X0X0X0X0X0X0X0X0X0X0X0X0X0X0X0X0X0X0X0X0X0X0X",
"0X0X0X0X0X0X0X0X0X0X0X0X0X0X0X0X0X0X0X0X0X0X0X0X0X0X0X0X0X0X0X0X0X0X0X0X0X0X0X0X0X0X0X0X0XcXbXbXbXbXbXbXbXbXbXbXbXbXbXbXbXbXbXbXbXbXbXbXbXbXbXbXbXbXbXbXbXbXbXbXjX0X0X0X0X0X0X0X0X0X0X0X0X0X0X0X0X0X0X0X0X0X0X0X0X0X0X0X0X0XjXbXbXbXbXbXbXbXbXbXbXbXbXbXbXbXbXbXbXbXjX0X0X0X0X0X0X0X0X0X0X0X0X0X0X0X0X0X0X0X0X0X0X0X0X0X0X0X0X0X0X0X0X0X0X0X0X0X0X0X0X0X0X0X0X0X0X0X0X0X0X0X0X0X0XO O : 9 9 9 9 9 9 # O q +XY Y ~ Y Y ` [ [ [ [ [ [ [ [ [ [ [ [ [ [ [ [ [ [ [ [ [ [ [ [ [ [ [ [ [ P n n F.F.F.j a a V.V.H.H.H.H.H.H.H.H.H.H.H.V.a a y.OXyXyXyXyXyXyXyXpXpXpXpXpXpXpXpXpXpXpXpXpXpXpXpXpXpXpXpXpXpXpXpXpXpXpXpXpXpXpXpXpXpXpXpXpXpXpXpXpXpXpXpXpXpXpXpXpXpXpXpX'.V.a 2 2 2 3 N.V.G G G G G G G G G F F C V J.0X0X0X0X0X0X0X0X0X0X X).`.0XjX0X0X0X0X0X0X0X0X0X0XcXbXbXbXbXbXbXbXbXbXbXbXbXbXbXbXjX X XbXbXbXbXbXbXbXbXbXbXbXbXbXbXbXcXjX0X0X0X0X0X0X0X0X0XjXcXbXbXbXbXbXbXbXbXbXbXbXbXbXbXbXbXbXbXcX0X0X0X0X0X0X0X0X0X0X0X0X0X0X0X0X0X0X0X0X0X0X0X0X0X0X0X0X[.a a V.|.H.H.H.H.H.H.H.H.H.a a a a a F.F.F.F.F.F.m n M L L L L L Y Y Y Y Y Y Y Y Y Y Y Y Y Y Y Y Y Y Y Y Y N n n [ [ [ [ [ [ [ [ [ [ [ [ [ [ [ [ [ [ [ [ [ [ [ [ [ [ [ [ [ [ [ [ [ [ [ [ [ [ [ [ [ [ [ [ [ [ [ [ [ [ [ ` Y Y ; O O 9 9 9 9 9 : O O 0X0X0X0X0X0X0X0X0X0X0X0X0X0X0X0X0X0X0X0X0X0X0X0X0X0X0X0X0X0X0X0X0X0X0X0X0X0X0X0X0X0X0X0X0X0X0X0X0X0X0X0X0X0X0X0X0X0X0X0X0X0X0X0X0X0X0XjXbXbXbXbXbXbXbXbXbXbXbXbXbXbXbXbXbXbXbXbXcX0X0X0X0X0X0X0X0X0X0X0X0X0X0X0X0X0X0X0X0X0X0X0X0X0X0X0X0X0X0X0X0X0X0X0X0X0X0X0X0X0X0X0XjXbXbXbXbXbXbXbXbXbXbXbXbXbXbXbXbXbXbXbXbXbXbXbXbXbXbXbXbXbXbXbXbXbXbXcX0X0X0X0X0X0X0X0X0X0X0X0X0X0X0X0X0X0X0X0X0X0X0X0X0X0X0X0X0X",
"0X0X0X0X0X0X0X0X0X0X0X0X0X0X0X0X0X0X0X0X0X0X0X0X0X0X0X0X0X0X0X0X0X0X0X0X0X0X0X0X0X0X0X0XjXbXbXbXbXbXbXbXbXbXbXbXbXbXbXbXbXbXbXbXbXbXbXbXbXbXbXbXbXbXbXbXbXbXbXjX0X0X0X0X0X0X0X0X0X0X0X0X0X0X0X0X0X0X0X0X0X0X0X0X0X0X0X0X0XjXbXbXbXbXbXbXbXbXbXbXbXbXbXbXbXbXbXbXbXcX0X0X0X0X0X0X0X0X0X0X0X0X0X0X0X0X0X0X0X0X0X0X0X0X0X0X0X0X0X0X0X0X0X0X0X0X0X0X0X0X0X0X0X0X0X0X0X0X0X0X0X0X0X0X0XO O : 9 9 9 9 9 9 # O q +XY Y Y Y Y ` [ [ [ [ [ [ [ [ [ [ [ [ [ [ [ [ [ [ [ [ [ [ [ [ [ [ [ [ [ P n n F.F.F.j a a V.V.H.H.H.H.H.H.H.H.H.H.H.V.a a y.OXyXyXyXyXyXyXyXpXpXpXpXpXpXpXpXpXpXpXpXpXpXpXpXpXpXpXpXpXpXpXpXpXpXpXpXpXpXQ.e.Q.pXpXpXpXpXpXpXpXpXpXpXpXpXpXpXpXpXpXpXoXV.N.4 3 4 l V...F F F F F C F C V V V V X.9X0X0X0X0X0X0X0X0X0X0X_.).1X0XjXjX0XjX0X0X0X0X0X0XjXbXbXbXbXbXbXbXbXbXbXbXbXbXbXbXbXbX9X XhXbXbXbXbXbXbXbXbXbXbXbXbXbXbXjX0X0X0X0X0X0X0X0XjXjXcXbXbXbXbXbXbXbXbXbXbXbXbXbXbXbXbXbXbXcXjX3X3X;X;X;X;X[.0X0X0X0X0X0X0X0X0X0X0X0X0X0X0X0X0X0X0X0X0X[.a a V.|.H.H.H.H.H.H.H.H.H.a a a a a F.F.F.F.F.F.n n M L L L L L Y Y Y Y Y Y Y Y Y Y Y Y Y Y Y Y Y Y Y Y Y N n n [ [ [ [ [ [ [ [ [ [ [ [ [ [ [ [ [ [ [ [ [ [ [ [ [ [ [ [ [ [ [ [ [ [ [ [ [ [ [ [ [ [ [ [ [ [ [ [ [ [ [ ` Y Y ; O O 9 9 9 9 9 : O O 0X0X0X0X0X0X0X0X0X0X0X0X0X0X0X0X0X0X0X0X0X0X0X0X0X0X0X0X0X0X0X0X0X0X0X0X0X0X0X0X0X0X0X0X0X0X0X0X0X0X0X0X0X0X0X0X0X0X0X0X0X0X0X0X0X0X0XbXbXbXbXbXbXbXbXbXbXbXbXbXbXbXbXbXbXbXbXcXjX0X0X0X0X0X0X0X0X0X0X0X0X0X0X0X0X0X0X0X0X0X0X0X0X0X0X0X0X0X0X0X0X0X0X0X0X0X0X0X0X0X0X0XcXbXbXbXbXbXbXbXbXbXbXbXbXbXbXbXbXbXbXbXbXbXbXbXbXbXbXbXbXbXbXbXbXbXcXjX0X0X0X0X0X0X0X0X0X0X0X0X0X0X0X0X0X0X0X0X0X0X0X0X0X0X0X0X0X",
"0X0X0X0X0X0X0X0X0X0X0X0X0X0X0X0X0X0X0X0X0X0X0X0X0X0X0X0X0X0X0X0X0X0X0X0X0X0X0X0X0X0X0XjXbXbXbXbXbXbXbXbXbXbXbXbXbXbXbXbXbXbXbXbXbXbXbXbXbXbXbXbXbXbXbXbXbXbXcX0X0X0X0X0X0X0X0X0X0X0X0X0X0X0X0X0X0X0X0X0X0X0X0X0X0X0X0X0X0XcXbXbXbXbXbXbXbXbXbXbXbXbXbXbXbXbXbXbXcXjX0X0X0X0X0X0X0X0X0X0X0X0X0X0X0X0X0X0X0X0X0X0X0X0X0X0X0X0X0X0X0X0X0X0X0X0X0X0X0X0X0X0X0X0X0X0X0X0X0X0X0X0X0X0X0XO O : 9 9 9 9 9 9 # O q +XY Y Y Y Y ` [ [ [ [ [ [ [ [ [ [ [ [ [ [ [ [ [ [ [ [ [ [ [ [ [ [ [ [ [ P n n F.F.F.j a a V.V.H.H.H.H.H.H.H.H.H.H.H.V.a a y.OXyXyXyXyXyXyXuXpXpXpXpXpXpXpXpXpXpXpXpXpXpXpXpXpXpXpXpXpXpXpXpXpXpXpXpXQ.f 4 3 4 Q.pXpXpXpXpXpXpXpXpXpXpXpXpXpXpXpXpXpXtX'.V.N.l N.V.o.6 V V V V n n V D X.X.J.~.;X0X0X0X0X0X0X0X0X0X0X9X).`.0X0XjXjX0X0X0X0X0X0X0XjXbXbXbXbXbXbXbXbXbXbXbXbXbXbXbXbXbXbXjX X XbXbXbXbXbXbXbXbXbXbXbXbXbXjX0X0X0X0X0X0X0XjXjXjXjXbXbXbXbXbXbXbXbXbXbXbXhXhX4X4X4X1X1X[.E.E.R.R.R.R.R.R.I.E.0X0X0X0X0X0X0X0X0X0X0X0X0X0X0X0X0X0X0X0X[.a a V.|.H.H.H.H.H.H.H.H.H.a a a a a F.F.F.F.F.F.n n N L L L L L Y Y Y Y Y Y Y Y Y Y Y Y Y Y Y Y Y Y Y Y Y N n n [ [ [ [ [ [ [ [ [ [ [ [ [ [ [ [ [ [ [ [ [ [ [ [ [ [ [ [ [ [ [ [ [ [ [ [ [ [ [ [ [ [ [ [ [ [ [ [ [ [ [ ` Y Y ; O O 9 9 9 9 9 : O O 0X0X0X0X0X0X0X0X0X0X0X0X0X0X0X0X0X0X0X0X0X0X0X0X0X0X0X0X0X0X0X0X0X0X0X0X0X0X0X0X0X0X0X0X0X0X0X0X0X0X0X0X0X0X0X0X0X0X0X0X0X0X0X0X0X0XcXbXbXbXbXbXbXbXbXbXbXbXbXbXbXbXbXbXbXbXcXjX0X0X0X0X0X0X0X0X0X0X0X0X0X0X0X0X0X0X0X0X0X0X0X0X0X0X0X0X0X0X0X0X0X0X0X0X0X0X0X0X0X0X0XjXbXbXbXbXbXbXbXbXbXbXbXbXbXbXbXbXbXbXbXbXbXbXbXbXbXbXbXbXbXbXbXbXbXbXjX0X0X0X0X0X0X0X0X0X0X0X0X0X0X0X0X0X0X0X0X0X0X0X0X0X0X0X0X0X0X",
"0X0X0X0X0X0X0X0X0X0X0X0X0X0X0X0X0X0X0X0X0X0X0X0X0X0X0X0X0X0X0X0X0X0X0X0X0X0X0X0X0X0X0XcXbXbXbXbXbXbXbXbXbXbXbXbXbXbXbXbXbXbXbXbXbXbXbXbXbXbXbXbXbXbXbXbXbXcXjX0X0X0X0X0X0X0X0X0X0X0X0X0X0X0X0X0X0X0X0X0X0X0X0X0X0X0X0X0XcXbXbXbXbXbXbXbXbXbXbXbXbXbXbXbXbXbXbXbXjX0X0X0X0X0X0X0X0X0X0X0X0X0X0X0X0X0X0X0X0X0X0X0X0X0X0X0X0X0X0X0X0X0X0X0X0X0X0X0X0X0X0X0X0X0X0X0X0X0X0X0X0X0X0X0X0XO O : 9 9 9 9 9 9 # O q +XY Y Y Y Y ` [ [ [ [ [ [ [ [ [ [ [ [ [ [ [ [ [ [ [ [ [ [ [ [ [ [ [ [ [ P n n F.F.F.j a a V.V.H.H.H.H.H.H.H.H.H.H.H.V.a a y.rXyXyXyXyXyXyXuXpXpXpXpXpXpXpXpXpXpXpXpXpXpXpXpXpXpXpXpXpXpXpXpXpXpXQ.f 4 2 2 @ @ 4 pXpXpXpXQ.f e.pXpXpXpXpXpXpXpXpXpXpXpXtXV.V.V.V.~.}.~.~.~.~.~.~.~.~.}.;X;X9XjX0X0X0X0X0X0XjX0X0X0X0X X).1X0X0X0X0X0X0X0X0X0X0X0XcXbXbXbXbXbXbXbXbXbXbXbXbXbXbXbXbXbXbXbXdX XhXbXbXbXbXbXbXbXbXbXbXbXcX0X0X0X0X0X0X0X0XjXjXjXcXbXhXhX9X4X4X1X1X*X*X*X[.[.[.[.[.[.[.E.E.E.E.E.*X*X*X*XR.I.0X0X0X0X0X0X0X0X0X0X0X0X0X0X0X0X0X0X0X0X[.a a V.|.H.H.H.H.H.H.H.H.H.a a a a a F.F.F.F.F.F.n n Z L L L L L Y Y Y Y Y Y Y Y Y Y Y Y Y Y Y Y Y Y Y Y Y N n n [ [ [ [ [ [ [ [ [ [ [ [ [ [ [ [ [ [ [ [ [ [ [ [ [ [ [ [ [ [ [ [ [ [ [ [ [ [ [ [ [ [ [ [ [ [ [ [ [ [ [ ` Y Y ; O O 9 9 9 9 9 : O O 0X0X0X0X0X0X0X0X0X0X0X0X0X0X0X0X0X0X0X0X0X0X0X0X0X0X0X0X0X0X0X0X0X0X0X0X0X0X0X0X0X0X0X0X0X0X0X0X0X0X0X0X0X0X0X0X0X0X0X0X0X0X0X0X0XcXbXbXbXbXbXbXbXbXbXbXbXbXbXbXbXbXbXbXbXcXjX0X0X0X0X0X0X0X0X0X0X0X0X0X0X0X0X0X0X0X0X0X0X0X0X0X0X0X0X0X0X0X0X0X0X0X0X0X0X0X0X0X0X0XjXbXbXbXbXbXbXbXbXbXbXbXbXbXbXbXbXbXbXbXbXbXbXbXbXbXbXbXbXbXbXbXbXbXbXcX0X0X0X0X0X0X0X0X0X0X0X0X0X0X0X0X0X0X0X0X0X0X0X0X0X0X0X0X0X0X0X",
"0X0X0X0X0X0X0X0X0X0X0X0X0X0X0X0X0X0X0X0X0X0X0X0X0X0X0X0X0X0X0X0X0X0X0X0X0X0X0X0X0X0XjXbXbXbXbXbXbXbXbXbXbXbXbXbXbXbXbXbXbXbXbXbXbXbXbXbXbXbXbXbXbXbXbXbXbXjX0X0X0X0X0X0X0X0X0X0X0X0X0X0X0X0X0X0X0X0X0X0X0X0X0X0X0X0X0XjXbXbXbXbXbXbXbXbXbXbXbXbXbXbXbXbXbXbXbXcX0X0X0X0X0X0X0X0X0X0X0X0X0X0X0X0X0X0X0X0X0X0X0X0X0X0X0X0X0X0X0X0X0X0X0X0X0X0X0X0X0X0X0X0X0X0X0X0X0X0X0X0X0X0X0X0X0XO O : 9 9 9 9 9 9 # O q +XY Y Y Y Y ` [ [ [ [ [ [ [ [ [ [ [ [ [ [ [ [ [ [ [ [ [ [ [ [ [ [ [ [ [ P n n F.F.F.j a a V.V.H.H.H.H.H.H.H.H.H.H.H.V.a a y.rXyXyXyXyXyXyXuXpXpXpXpXpXpXpXpXpXpXpXpXpXpXpXpXpXpXpXpXpXpXpXpXpXQ.4 2 2 2 ....@ 2 Q.pXpXQ.4 2 3 Q.pXpXpXpXpXpXpXpXpXpXpXpXe.o.^.;X3X0X0X0X0X0X0X0X0X0X0X0X0X0XjX0X0X0X0X0X0X0X0X0X0X9X_.).0X0X0X0X0X0X0X0X0X0X0XcXbXbXbXbXbXbXbXbXbXbXbXbXbXbXbXbXbXbXbXbXjX X XbXbXbXbXbXbXbXbXbXbXcXjX0X0X3X3X;X;X;X;X[.[.[.*X*X[.[.[.[.[.[.[.[.*X*X*X1X1X3X3X4X3X,X,X,X,X,X2X2X5X5XR.I.0X0X0X0X0X0X0X0X0X0X0X0X0X0X0X0X0X0X0X0X*Xa a V.|.H.H.H.H.H.H.H.H.H.a a a a a F.F.F.F.F.F.n n Z L L L L L Y Y Y Y Y Y Y Y Y Y Y Y Y Y Y Y Y Y Y Y Y n n n [ [ [ [ [ [ [ [ [ [ [ [ [ [ [ [ [ [ [ [ [ [ [ [ [ [ [ [ [ [ [ [ [ [ [ [ [ [ [ [ [ [ [ [ [ [ [ [ [ [ [ ` Y Y ; O O 9 9 9 9 9 : O O 0X0X0X0X0X0X0X0X0X0X0X0X0X0X0X0X0X0X0X0X0X0X0X0X0X0X0X0X0X0X0X0X0X0X0X0X0X0X0X0X0X0X0X0X0X0X0X0X0X0X0X0X0X0X0X0X0X0X0X0X0X0X0X0XjXbXbXbXbXbXbXbXbXbXbXbXbXbXbXbXbXbXbXbXcXjX0X0X0X0X0X0X0X0X0X0X0X0X0X0X0X0X0X0X0X0X0X0X0X0X0X0X0X0X0X0X0X0X0X0X0X0X0X0X0X0X0X0X0X0XcXbXbXbXbXbXbXbXbXbXbXbXbXbXbXbXbXbXbXbXbXbXbXbXbXbXbXbXbXbXbXbXbXbXcXjX0X0X0X0X0X0X0X0X0X0X0X0X0X0X0X0X0X0X0X0X0X0X0X0X0X0X0X0X0X0X0X",
"0X0X0X0X0X0X0X0X0X0X0X0X0X0X0X0X0X0X0X0X0X0X0X0X0X0X0X0X0X0X0X0X0X0X0X0X0X0X0X0X0XjXbXbXbXbXbXbXbXbXbXbXbXbXbXbXbXbXbXbXbXbXbXbXbXbXbXbXbXbXbXbXbXbXbXbXcX0X0X0X0X0X0X0X0X0X0X0X0X0X0X0X0X0X0X0X0X0X0X0X0X0X0X0X0X0XjXbXbXbXbXbXbXbXbXbXbXbXbXbXbXbXbXbXbXbXcXjX0X0X0X0X0X0X0X0X0X0X0X0X0X0X0X0X0X0X0X0X0X0X0X0X0X0X0X0X0X0X0X0X0X0X0X0X0X0X0X0X0X0X0X0X0X0X0X0X0X0X0X0X0X0X0X0X0XO O : 9 9 9 9 9 9 # O q oXY Y Y Y Y ` [ [ [ [ [ [ [ [ [ [ [ [ [ [ [ [ [ [ [ [ [ [ [ [ [ [ [ [ [ P n n F.F.F.j a a V.V.H.H.H.H.H.H.H.H.H.H.H.V.a a y.yXyXyXyXyXyXyXpXpXpXpXpXpXpXpXpXpXpXpXpXpXpXpXpXpXpXpXpXpXpXpXpXpXf 2 2 ..oXrXrX4 2 f pX@X4 2 2 2 4 Q.pXpXpXpXpXpXpXpXpXpXpXy...;X0X0X0X0X0X0X0XjX0X0X0X0X0X0X0X0X0X0X0X0X0X0X0X0X0X0X1X).`.0X0X0X0X0X0X0X0X0X0XjXbXbXbXbXbXbXbXbXbXbXbXbXbXbXbXbXbXbXbXbXbXbX9X9XbXbXbXbXhXhX9X9X9X;X[.E.E.E.R.R.R.R.R.R.I.E.[.*X*X*X1X1X3X3X4X9X4XhXhXhXcXcXcXcXcX5X>X>XE.E.^.^.E.5X5XR.I.0X0X0X0X0X0X0X0X0X0X0X0X0X0X0X0X0X0X0X0X[.a a H.|.H.H.H.H.H.H.H.H.H.a a a a a F.F.F.F.F.F.n n Z L L L L L Y Y Y Y Y Y Y Y Y Y Y Y Y Y Y Y Y Y Y Y Y n n n [ [ [ [ [ [ [ [ [ [ [ [ [ [ [ [ [ [ [ [ [ [ [ [ [ [ [ [ [ [ [ [ [ [ [ [ [ [ [ [ [ [ [ [ [ [ [ [ [ [ [ ` Y Y ; O O 9 9 9 9 9 : O O 0X0X0X0X0X0X0X0X0X0X0X0X0X0X0X0X0X0X0X0X0X0X0X0X0X0X0X0X0X0X0X0X0X0X0X0X0X0X0X0X0X0X0X0X0X0X0X0X0X0X0X0X0X0X0X0X0X0X0X0X0X0X0XjXbXbXbXbXbXbXbXbXbXbXbXbXbXbXbXbXbXbXbXbXjX0X0X0X0X0X0X0X0X0X0X0X0X0X0X0X0X0X0X0X0X0X0X0X0X0X0X0X0X0X0X0X0X0X0X0X0X0X0X0X0X0X0X0X0XjXbXbXbXbXbXbXbXbXbXbXbXbXbXbXbXbXbXbXbXbXbXbXbXbXbXbXbXbXbXbXbXbXbXbXjX0X0X0X0X0X0X0X0X0X0X0X0X0X0X0X0X0X0X0X0X0X0X0X0X0X0X0X0X0X0X0X0X",
"0X0X0X0X0X0X0X0X0X0X0X0X0X0X0X0X0X0X0X0X0X0X0X0X0X0X0X0X0X0X0X0X0X0X0X0X0X0X0X0X0XcXbXbXbXbXbXbXbXbXbXbXbXbXbXbXbXbXbXbXbXbXbXbXbXbXbXbXbXbXbXbXbXbXbXcXjX0X0X0X0X0X0X0X0X0X0X0X0X0X0X0X0X0X0X0X0X0X0X0X0X0X0X0X0X0XcXbXbXbXbXbXbXbXbXbXbXbXbXbXbXbXbXbXbXbXjX0X0X0X0X0X0X0X0X0X0X0X0X0X0X0X0X0X0X0X0X0X0X0X0X0X0X0X0X0X0X0X0X0X0X0X0X0X0X0X0X0X0X0X0X0X0X0X0X0X0X0X0X0X0X0X0X0X0XO O : 9 9 9 9 9 9 # O q K.Y Y Y Y Y ` [ [ [ [ [ [ [ [ [ [ [ [ [ [ [ [ [ [ [ [ [ [ [ [ [ [ [ [ [ P n n F.F.F.j a a V.V.H.H.H.H.H.H.H.H.H.H.H.V.a a y.yXyXyXyXyXyXyXpXpXpXpXpXpXpXpXpXpXpXpXpXpXpXpXpXpXpXpXpXpXpXpXpXpX3 2 ..@XpXpXpX0.2 3 pXo.2 2 oX4 2 4 Q.pXpXpXpXpXpXpXpXpXpXy...;X0X0X0X0X0X0X0XjX0X0X0X0X0X0X0X0X0X0X0X0X0X0X0X0X0X0X|.).1X0X0X0X0X0X0X0X0X0XjXbXbXbXbXbXbXbXbXbXbXbXbXbXbXbXbXbXbXbXhXhX9X9X1X1X1X*X*X*X[.[.[.[.[.R.R.R.E.E.E.E.*X*X*X*X;X4X4XhXhXhXcXcXcXcXcXcX4X4X;X;X;X[.[.T.A.Z.6.6.5.5.5.5.5.>X5XR.I.0X0X0X0X0X0X0X0X0X0X0X0X0X0X0X0X0X0X0X0X*Xa a ).`.H.H.H.H.H.H.H.H.H.a a a a a F.F.F.F.F.F.n n Z L L L L L Y Y Y Y Y Y Y Y Y Y Y Y Y Y Y Y Y Y Y Y Y n n n [ [ [ [ [ [ [ [ [ [ [ [ [ [ [ [ [ [ [ [ [ [ [ [ [ [ [ [ [ [ [ [ [ [ [ [ [ [ [ [ [ [ [ [ [ [ [ [ [ [ [ ` Y Y ; O O 9 9 9 9 9 : O O 0X0X0X0X0X0X0X0X0X0X0X0X0X0X0X0X0X0X0X0X0X0X0X0X0X0X0X0X0X0X0X0X0X0X0X0X0X0X0X0X0X0X0X0X0X0X0X0X0X0X0X0X0X0X0X0X0X0X0X0X0X0XjXbXbXbXbXbXbXbXbXbXbXbXbXbXbXbXbXbXbXbXbXjX0X0X0X0X0X0X0X0X0X0X0X0X0X0X0X0X0X0X0X0X0X0X0X0X0X0X0X0X0X0X0X0X0X0X0X0X0X0X0X0X0X0X0X0XjXbXbXbXbXbXbXbXbXbXbXbXbXbXbXbXbXbXbXbXbXbXbXbXbXbXbXbXbXbXbXbXbXbXbXcX0X0X0X0X0X0X0X0X0X0X0X0X0X0X0X0X0X0X0X0X0X0X0X0X0X0X0X0X0X0X0X0X0X",
"0X0X0X0X0X0X0X0X0X0X0X0X0X0X0X0X0X0X0X0X0X0X0X0X0X0X0X0X0X0X0X0X0X0X0X0X0X0X0X0XjXbXbXbXbXbXbXbXbXbXbXbXbXbXbXbXbXbXbXbXbXbXbXbXbXbXbXbXbXbXbXbXbXbXbXjX0X0X0X0X0X0X0X0X0X0X0X0X0X0X0X0X0X0X0X0X0X0X0X0X0X0X0X0X0XjXbXbXbXbXbXbXbXbXbXbXbXbXbXbXbXbXbXbXbXjX0X0X0X0X0X0X0X0X0X0X0X0X0X0X0X0X0X0X0X0X0X0X0X0X0X0X0X0X0X0X0X0X0X0X0X0X0X0X0X0X0X0X0X0X0X0X0X0X0X0X0X0X0X0X0X0X0X0X0XO O : 9 9 9 9 9 9 # O q K.Y Y Y Y Y ` [ [ [ [ [ [ [ [ [ [ [ [ [ [ [ [ [ [ [ [ [ [ [ [ [ [ [ [ [ P n n F.F.F.j a a V.V.H.H.H.H.H.H.H.H.H.H.H.V.a a u.yXyXyXyXyXyXyXpXpXpXpXpXpXpXpXpXpXpXpXpXpXpXpXpXpXpXpXpXpXpXpXpXpX@ @ e.pXpXpXpXe.2 2 pX3 2 4 pXoX2 2 4 @XpXpXpXpXpXpXpXpXpXy...;X0X0X0X0X0X0X0X0X0X0X0X0X0X0X0X0X0X0X0X0X0X0X0X0X0X9X_.).0X0X0X0X0X0X0X0XjX0XcXbXbXbXbXbXbXbXbXhXhX9X9X9X9X1X1X*X*X*X[.[.[.[.[.[.[.[.*X*X*X1X1X4X3X>X>X>X,X,X,X,X2X2X5X5XcXcX4X4X;X;X;X[.[.T.T.T.T.T.G.G.G.A.A.6.>.>.>.>.,.,.,.>.g *X5XR.I.0X0X0X0X0X0X0X0X0X0X0X0X0X0X0X0X0X0X0X0X[.a a ).`.H.H.H.H.H.H.H.H.H.a a a a a F.F.F.F.F.F.n n Z L L L L L Y Y Y Y Y Y Y Y Y Y Y Y Y Y Y Y Y Y Y Y Y n n n [ [ [ [ [ [ [ [ [ [ [ [ [ [ [ [ [ [ [ [ [ [ [ [ [ [ [ [ [ [ [ [ [ [ [ [ [ [ [ [ [ [ [ [ [ [ [ [ [ [ [ ` Y Y ; O O 9 9 9 9 9 : O O 0X0X0X0X0X0X0X0X0X0X0X0X0X0X0X0X0X0X0X0X0X0X0X0X0X0X0X0X0X0X0X0X0X0X0X0X0X0X0X0X0X0X0X0X0X0X0X0X0X0X0X0X0X0X0X0X0X0X0X0X0XjXbXbXbXbXbXbXbXbXbXbXbXbXbXbXbXbXbXbXbXbXjX0X0X0X0X0X0X0X0X0X0X0X0X0X0X0X0X0X0X0X0X0X0X0X0X0X0X0X0X0X0X0X0X0X0X0X0X0X0X0X0X0X0X0X0XjXcXbXbXbXbXbXbXbXbXbXbXbXbXbXbXbXbXbXbXbXbXbXbXbXbXbXbXbXbXbXbXbXbXbXcXjX0X0X0X0X0X0X0X0X0X0X0X0X0X0X0X0X0X0X0X0X0X0X0X0X0X0X0X0X0X0X0X0X0X",
"0X0X0X0X0X0X0X0X0X0X0X0X0X0X0X0X0X0X0X0X0X0X0X0X0X0X0X0X0X0X0X0X0X0X0X0X0X0X0XjXbXbXbXbXbXbXbXbXbXbXbXbXbXbXbXbXbXbXbXbXbXbXbXbXbXbXbXbXbXbXbXbXbXbXjX0X0X0X0X0X0X0X0X0X0X0X0X0X0X0X0X0X0X0X0X0X0X0X0X0X0X0X0X0XjXbXbXbXbXbXbXbXbXbXbXbXbXbXbXbXbXbXbXbXcX0X0X0X0X0X0X0X0X0X0X0X0X0X0X0X0X0X0X0X0X0X0X0X0X0X0X0X0X0X0X0X0X0X0X0X0X0X0X0X0X0X0X0X0X0X0X0X0X0X0X0X0X0X0X0X0X0X0X0X0XO O : 9 9 9 9 9 9 # O q K.Y Y Y Y Y ` [ [ [ [ [ [ [ [ [ [ [ [ [ [ [ [ [ [ [ [ [ [ [ [ [ [ [ [ [ P n n F.F.F.j a a V.V.H.H.H.H.H.H.H.H.H.H.H.V.a a oXyXyXyXyXyXyXyXpXpXpXpXpXpXpXpXpXpXpXpXpXpXpXpXpXpXpXpXpXpXpX@XQ.Q.2 2 e.pXpXpXpXf @ 4 @X2 @ K.pXpXy.2 2 K.pXpXpXpXpXpXpXpXpXy...;X0X0X0X0X0X0X0X0X0X0X0X0X0X0X0X0X0X0X0XjX0X0X0X0X0X X).`.0X0X0X0X0X0X0X0XjX9XhX9X9X9X1X1X*X*X*X[.[.[.[.[.[.[.[.[.*X*X*X1X1X3X3X3X4X4XhXhXhXcXcXcX5X5X5X>X>X^.^.^.^.R.R.I.T.T.T.T.G.G.G.A.A.Z.A.A.A.A.A.L.L.L.L.3.1.1.1.1.1.1.2.,.g *X5XR.I.0X0X0X0X0X0X0X0X0X0X0X0X0X0X0X0X0X0X0X0X[.a a ).`.H.H.H.H.H.H.H.H.H.a a a a a F.F.F.F.F.F.n n Z L L L L L Y Y Y Y Y Y Y Y Y Y Y Y Y Y Y Y Y Y Y Y Y n n n [ [ [ [ [ [ [ [ [ [ [ [ [ [ [ [ [ [ [ [ [ [ [ [ [ [ [ [ [ [ [ [ [ [ [ [ [ [ [ [ [ [ [ [ [ [ [ [ [ [ [ ` Y Y ; O O 9 9 9 9 9 : O O 0X0X0X0X0X0X0X0X0X0X0X0X0X0X0X0X0X0X0X0X0X0X0X0X0X0X0X0X0X0X0X0X0X0X0X0X0X0X0X0X0X0X0X0X0X0X0X0X0X0X0X0X0X0X0X0X0X0X0X0XjXcXbXbXbXbXbXbXbXbXbXbXbXbXbXbXbXbXbXbXbXcX0X0X0X0X0X0X0X0X0X0X0X0X0X0X0X0X0X0X0X0X0X0X0X0X0X0X0X0X0X0X0X0X0X0X0X0X0X0X0X0X0X0X0X0X0XcXbXbXbXbXbXbXbXbXbXbXbXbXbXbXbXbXbXbXbXbXbXbXbXbXbXbXbXbXbXbXbXbXbXcXjX0X0X0X0X0X0X0X0X0X0X0X0X0X0X0X0X0X0X0X0X0X0X0X0X0X0X0X0X0X0X0X0X0X0X",
"0X0X0X0X0X0X0X0X0X0X0X0X0X0X0X0X0X0X0X0X0X0X0X0X0X0X0X0X0X0X0X0X0X0X0X0X0X0XjXcXbXbXbXbXbXbXbXbXbXbXbXbXbXbXbXbXbXbXbXbXbXbXbXbXbXbXbXbXbXbXbXbXbXcX0X0X0X0X0X0X0X0X0X0X0X0X0X0X0X0X0X0X0X0X0X0X0X0X0X0X0X0X0X0XcXbXbXbXbXbXbXbXbXbXbXbXbXbXbXbXbXbXbXcXjX0X0X0X0X0X0X0X0X0X0X0X0X0X0X0X0X0X0X0X0X0X0X0X0X0X0X0X0X0X0X0X0X0X0X0X0X0X0X0X0X0X0X0X0X0X0X0X0X0X0X0X0X0X0X0X0X0X0X0X0XO O : 9 9 9 9 9 9 # O q K.Y Y Y Y Y ` [ [ [ [ [ [ [ [ [ [ [ [ [ [ [ [ [ [ [ [ [ [ [ [ [ [ [ [ [ P n n F.F.F.j a a V.V.H.H.H.H.H.H.H.H.H.H.H.V.a a oXyXyXyXyXyXyXyXpXpXpXpXpXpXpXpXpXpXpXpXpXpXpXpXpXpXpXpXpXpX@Xo.f 4 2 @ e.pXpXpXpX3 2 t oX2 @ oXpXpXtX4 2 f pXpXpXpXpXpXpXpXpXy...;X0X0X0X0X0X0XjX0X0X0X0X0X0X0X0X0X0X0XjXjX0X0X0X0X0X_.).[.3X;X;X;X[.[.E.E.^.[.[.[.[.[.[.[.[.*X*X*X*X1X1X4X4X4X4X4XhXhXhXcXjXcXcXcXcX4X4X;X;X;X[.R.Z.Z.Z.6.6.5.5.5.5.h 5.Z.A.A.A.A.A.L.L.L.L.L.L.L.L.L.L.P.P.P.7.2.2.2.2.2.2.2.2.,.g *X5XR.I.0X0X0X0X0X0X0X0X0X0X0X0X0X0X0X0X0X0X0X0X[.a a ).`.H.H.H.H.H.H.H.H.F.a a a a a F.F.F.F.F.F.n n Z L L L L L Y Y Y Y Y Y Y Y Y Y Y Y Y Y Y Y Y Y Y Y Y n n n [ [ [ [ [ [ [ [ [ [ [ [ [ [ [ [ [ [ [ [ [ [ [ [ [ [ [ [ [ [ [ [ [ [ [ [ [ [ [ [ [ [ [ [ [ [ [ [ [ [ [ ` Y Y ; O O 9 9 9 9 9 : O O 0X0X0X0X0X0X0X0X0X0X0X0X0X0X0X0X0X0X0X0X0X0X0X0X0X0X0X0X0X0X0X0X0X0X0X0X0X0X0X0X0X0X0X0X0X0X0X0X0X0X0X0X0X0X0X0X0X0X0X0XcXbXbXbXbXbXbXbXbXbXbXbXbXbXbXbXbXbXbXbXcXjX0X0X0X0X0X0X0X0X0X0X0X0X0X0X0X0X0X0X0X0X0X0X0X0X0X0X0X0X0X0X0X0X0X0X0X0X0X0X0X0X0X0X0X0XjXbXbXbXbXbXbXbXbXbXbXbXbXbXbXbXbXbXbXbXbXbXbXbXbXbXbXbXbXbXbXbXbXbXbXjX0X0X0X0X0X0X0X0X0X0X0X0X0X0X0X0X0X0X0X0X0X0X0X0X0X0X0X0X0X0X0X0X0X0X0X",
"0X0X0X0X0X0X0X0X0X0X0X0X0X0X0X0X0X0X0X0X0X0X0X0X0X0X0X0X0X0X0X0X0X0X0X0X0X0XcXbXbXbXbXbXbXbXbXbXbXbXbXbXbXbXbXbXbXbXbXbXbXbXbXbXbXbXbXbXbXbXbXbXcXjX0X0X0X0X0X0X0X0X0X0X0X0X0X0X0X0X0X0X0X0X0X0X0X0X0X0X0X0X0XcXbXbXbXbXbXbXbXbXbXbXbXbXbXbXbXbXbXbXbXjX0X0X0X0X0X0X0X0X0X0X0X0X0X0X0X0X0X0X0X0X0X0X0X0X0X0X0X0X0X0X0X0X0X0X0X0X0X0X0X0X0X0X0X0X0X0X0X0X0X0X0X0X0X0X0X0X0X0X0X0X0XO O : 9 9 9 9 9 9 # O q K.Y Y Y Y Y ` [ [ [ [ [ [ [ [ [ [ [ [ [ [ [ [ [ [ [ [ [ [ [ [ [ [ [ [ [ P n n F.F.F.j a a V.V.H.H.H.H.H.H.H.H.H.H.H.V.a a oXyXyXyXyXyXyXyXpXpXpXpXpXpXpXpXpXpXpXpXpXpXpXpXpXpXpXpXpXpXtXoXoXoXy.4 4 e.@XpXQ.2 2 K.oX2 2 K.pXpXpX3 2 t pXpXpXpXpXpXpXpXpXy...;X0X0X0X0X0XjXjX0X0X0X0X0X0X0X0X0X3X3X;X;X;X;X[.[.E.T.T.R.E.R.R.R.I.R.R.E.[.*X1X1X3X4X4X4X4X0X0X0XhXcXcXcXcXcXcX4X4X;X;X;X[.[.T.T.T.T.T.G.G.G.5.>.h >.>.>.>.,.,.,.,.,.i.L.L.L.L.P.L.P.P.P.P.P.P.P.P.P.P.P.P.i.2.2.2.2.2.2.2.2.2.,.g *X5XR.I.0X0X0X0X0X0X0X0X0X0X0X0X0X0X0X0X0X0X0X0XT.a a ).`.H.H.H.H.H.H.H.H.V.a a a a d F.F.F.F.F.F.n n Z L L L L L Y Y Y Y Y Y Y Y Y Y Y Y Y Y Y Y Y Y Y Y Y n n n [ [ [ [ [ [ [ [ [ [ [ [ [ [ [ [ [ [ [ [ [ [ [ [ [ [ [ [ [ [ [ [ [ [ [ [ [ [ [ [ [ [ [ [ [ [ [ [ [ [ [ ` Y Y ; O O 9 9 9 9 9 : O O 0X0X0X0X0X0X0X0X0X0X0X0X0X0X0X0X0X0X0X0X0X0X0X0X0X0X0X0X0X0X0X0X0X0X0X0X0X0X0X0X0X0X0X0X0X0X0X0X0X0X0X0X0X0X0X0X0X0X0XcXbXbXbXbXbXbXbXbXbXbXbXbXbXbXbXbXbXbXbXcXjX0X0X0X0X0X0X0X0X0X0X0X0X0X0X0X0X0X0X0X0X0X0X0X0X0X0X0X0X0X0X0X0X0X0X0X0X0X0X0X0X0X0X0X0XjXbXbXbXbXbXbXbXbXbXbXbXbXbXbXbXbXbXbXbXbXbXbXbXbXbXbXbXbXbXbXbXbXbXbXcX0X0X0X0X0X0X0X0X0X0X0X0X0X0X0X0X0X0X0X0X0X0X0X0X0X0X0X0X0X0X0X0X0X0X0X0X",
"0X0X0X0X0X0X0X0X0X0X0X0X0X0X0X0X0X0X0X0X0X0X0X0X0X0X0X0X0X0X0X0X0X0X0X0X0XjXbXbXbXbXbXbXbXbXbXbXbXbXbXbXbXbXbXbXbXbXbXbXbXbXbXbXbXbXbXbXbXbXbXbXjX0X0X0X0X0X0X0X0X0X0X0X0X0X0X0X0X0X0X0X0X0X0X0X0X0X0X0X0X0XjXbXbXbXbXbXbXbXbXbXbXbXbXbXbXbXbXbXbXbXcX0X0X0X0X0X0X0X0X0X0X0X0X0X0X0X0X0X0X0X0X0X0X0X0X0X0X0X0X0X0X0X0X0X0X0X0X0X0X0X0X0X0X0X0X0X0X0X0X0X0X0X0X0X0X0X0X0X0X0X0X0X0XO O : 9 9 9 9 9 9 # O q K.Y Y Y Y Y ` [ [ [ [ [ [ [ [ [ [ [ [ [ [ [ [ [ [ [ [ [ [ [ [ [ [ [ [ [ P n n F.F.F.j a a V.V.H.H.H.H.H.H.H.H.H.H.H.V.a a oXyXyXyXyXyXyXyXpXpXpXpXpXpXpXpXpXpXpXpXpXpXpXpXpXpXpXpXpXpXpXpXpXpXtXoXy.t t e.4 2 4 tXtX2 2 y.pXpX@X@ @ K.pXpXpXpXpXpXpXpXpX....9X0X0X0X0X0X0X3X3X;X;X;X[.[.E.E.E.R.R.R.R.R.R.I.R.R.E.E.E.*X*X*X*X*X>X>X2X4X0XcXcXcXcXcXcX4X4X;X;X;X;X[.[.T.T.T.T.T.G.G.G.A.A.Z.A.A.A.A.A.L.6.1.1.1.1.1.1.1.1.1.2.2.7.P.P.P.P.P.P.P.P.P.P.P.P.P.P.P.P.P.P.L.3.2.2.2.2.2.2.2.2.2.,.g *X5XR.I.0X0X0X0X0X0X0X0X0X0X0X0X0X0X0X0X0X0X0X0XT.a a ).`.H.H.H.H.H.H.H.H.V.a a a a j F.F.F.F.F.F.n n Z L L L L L Y Y Y Y Y Y Y Y Y Y Y Y Y Y Y Y Y Y Y Y Y n n n [ [ [ [ [ [ [ [ [ [ [ [ [ [ [ [ [ [ [ [ [ [ [ [ [ [ [ [ [ [ [ [ [ [ [ [ [ [ [ [ [ [ [ [ [ [ [ [ [ [ [ ` Y Y ; O O 9 9 9 9 9 : O O 0X0X0X0X0X0X0X0X0X0X0X0X0X0X0X0X0X0X0X0X0X0X0X0X0X0X0X0X0X0X0X0X0X0X0X0X0X0X0X0X0X0X0X0X0X0X0X0X0X0X0X0X0X0X0X0X0X0XcXbXbXbXbXbXbXbXbXbXbXbXbXbXbXbXbXbXbXbXcXjX0X0X0X0X0X0X0X0X0X0X0X0X0X0X0X0X0X0X0X0X0X0X0X0X0X0X0X0X0X0X0X0X0X0X0X0X0X0X0X0X0X0X0X0X0XcXbXbXbXbXbXbXbXbXbXbXbXbXbXbXbXbXbXbXbXbXbXbXbXbXbXbXbXbXbXbXbXbXbXcXjX0X0X0X0X0X0X0X0X0X0X0X0X0X0X0X0X0X0X0X0X0X0X0X0X0X0X0X0X0X0X0X0X0X0X0X0X",
"0X0X0X0X0X0X0X0X0X0X0X0X0X0X0X0X0X0X0X0X0X0X0X0X0X0X0X0X0X0X0X0X0X0X0X0XjXbXbXbXbXbXbXbXbXbXbXbXbXbXbXbXbXbXbXbXbXbXbXbXbXbXbXbXbXbXbXbXbXbXbXcX0X0X0X0X0X0X0X0X0X0X0X0X0X0X0X0X0X0X0X0X0X0X0X0X0X0X0X0X0XjXbXbXbXbXbXbXbXbXbXbXbXbXbXbXbXbXbXbXbXcXjX0X0X0X0X0X0X0X0X0X0X0X0X0X0X0X0X0X0X0X0X0X0X0X0X0X0X0X0X0X0X0X0X0X0X0X0X0X0X0X0X0X0X0X0X0X0X0X0X0X0X0X0X0X0X0X0X0X0X0X0X0X0XO O : 9 9 9 9 9 9 # O q K.Y Y Y Y Y ` [ [ [ [ [ [ [ [ [ [ [ [ [ [ [ [ [ [ [ [ [ [ [ [ [ [ [ [ [ P n n F.F.F.d a a V.V.H.H.H.H.H.H.H.H.H.H.H.V.a a oXyXyXyXyXyXyXyXpXpXpXpXpXpXpXpXpXpXpXpXpXpXpXpXpXpXpXpXpXpXpXpXpXpXpXpXtXoX..3 2 2 0.pXpX..2 4 Q.Q.t 2 2 tXpXpXpXpXpXpXpXpX@X..w.;X;X[.[.E.E.E.R.R.R.R.R.I.R.R.E.E.E.E.*X*X*X*X*X>X>X,X,X,X2X2X5X5X5X5X,X4X;X;X;X[.[.T.T.T.T.T.G.G.G.G.A.A.Z.A.A.A.A.A.L.L.L.L.L.L.L.L.L.L.L.3.2.2.2.2.2.2.2.2.2.2.7.L.P.P.P.P.P.P.P.P.P.P.P.P.P.P.P.P.P.P.3.2.2.2.2.2.2.2.2.2.2.,.g *X5XR.I.0X0X0X0X0X0X0X0X0X0X0X0X0X0X0X0X0X0X0X0XT.a a )._.H.H.H.H.H.H.H.H.V.a a a a j F.F.F.F.F.F.n n Z L L L L L Y Y Y Y Y Y Y Y Y Y Y Y Y Y Y Y Y Y Y Y Y n n n [ [ [ [ [ [ [ [ [ [ [ [ [ [ [ [ [ [ [ [ [ [ [ [ [ [ [ [ [ [ [ [ [ [ [ [ [ [ [ [ [ [ [ [ [ [ [ [ [ [ [ ` Y Y ; O O 9 9 9 9 9 : O O 0X0X0X0X0X0X0X0X0X0X0X0X0X0X0X0X0X0X0X0X0X0X0X0X0X0X0X0X0X0X0X0X0X0X0X0X0X0X0X0X0X0X0X0X0X0X0X0X0X0X0X0X0X0X0X0X0XjXbXbXbXbXbXbXbXbXbXbXbXbXbXbXbXbXbXbXbXcXjX0X0X0X0X0X0X0X0X0X0X0X0X0X0X0X0X0X0X0X0X0X0X0X0X0X0X0X0X0X0X0X0X0X0X0X0X0X0X0X0X0X0X0X0X0XjXbXbXbXbXbXbXbXbXbXbXbXbXbXbXbXbXbXbXbXbXbXbXbXbXbXbXbXbXbXbXbXbXbXbXjX0X0X0X0X0X0X0X0X0X0X0X0X0X0X0X0X0X0X0X0X0X0X0X0X0X0X0X0X0X0X0X0X0X0X0X0X0X",
"0X0X0X0X0X0X0X0X0X0X0X0X0X0X0X0X0X0X0X0X0X0X0X0X0X0X0X0X0X0X0X0X0X0X0X0XcXbXbXbXbXbXbXbXbXbXbXbXbXbXbXbXbXbXbXbXbXbXbXbXbXbXbXbXbXbXbXbXbXbXcXjX0X0X0X0X0X0X0X0X0X0X0X0X0X0X0X0X0X0X0X0X0X0X0X0X0X0X0X0X0XcXbXbXbXbXbXbXbXbXbXbXbXbXbXbXbXbXbXbXcXjX0X0X0X0X0X0X0X0X0X0X0X0X0X0X0X0X0X0X0X0X0X0X0X0X0X0X0X0X0X0X0X0X0X0X0X0X0X0X0X0X0X0X0X0X0X0X0X0X0X0X0X0X0X0X0X0X0X0X0X0X0X0X0XO O : 9 9 9 9 9 9 # O q K.Y Y Y Y Y ` [ [ [ [ [ [ [ [ [ [ [ [ [ [ [ [ [ [ [ [ [ [ [ [ [ [ [ [ [ P n n F.F.F.a a a V.V.H.H.H.H.H.H.H.H.H.H.H.V.a a oXyXyXyXyXyXyXyXuXpXpXpXpXpXpXpXpXpXpXpXpXpXpXpXpXpXpXpXpXpXpXpXpXpXpXpXpXpXrXy.4 2 e.pXpXrX2 2 4 4 2 3 0.7X7X7X7XoX+X^.^.^.U.r.A.R.R.I.R.R.E.E.E.*X*X*X*X*X>X>X,X,X,X,X2X2X5X5X5X5X>X>X^.^.E.R.R.Z.Z.A.T.T.G.G.G.A.A.Z.A.A.A.A.A.A.L.L.L.L.L.L.L.L.L.L.P.P.P.P.P.P.P.P.P.P.7.2.2.2.2.2.2.2.2.2.2.3.L.P.P.P.P.P.P.P.P.P.P.P.P.P.P.P.P.P.P.7.2.2.2.2.2.2.2.2.2.2.2.,.g *X5XR.I.0X0X0X0X0X0X0X0X0X0X0X0X0X0X0X0X0X0X0X0XT.a a ).).H.H.H.H.H.H.H.H.V.a a a a j F.F.F.F.F.F.n n Z L L L L L Y Y Y Y Y Y Y Y Y Y Y Y Y Y Y Y Y Y Y Y Y n n n [ [ [ [ [ [ [ [ [ [ [ [ [ [ [ [ [ [ [ [ [ [ [ [ [ [ [ [ [ [ [ [ [ [ [ [ [ [ [ [ [ [ [ [ [ [ [ [ [ [ [ ` Y Y ; O O 9 9 9 9 9 : O O 0X0X0X0X0X0X0X0X0X0X0X0X0X0X0X0X0X0X0X0X0X0X0X0X0X0X0X0X0X0X0X0X0X0X0X0X0X0X0X0X0X0X0X0X0X0X0X0X0X0X0X0X0X0X0X0XjXbXbXbXbXbXbXbXbXbXbXbXbXbXbXbXbXbXbXbXbXjX0X0X0X0X0X0X0X0X0X0X0X0X0X0X0X0X0X0X0X0X0X0X0X0X0X0X0X0X0X0X0X0X0X0X0X0X0X0X0X0X0X0X0X0X0XjXbXbXbXbXbXbXbXbXbXbXbXbXbXbXbXbXbXbXbXbXbXbXbXbXbXbXbXbXbXbXbXbXbXbXcX0X0X0X0X0X0X0X0X0X0X0X0X0X0X0X0X0X0X0X0X0X0X0X0X0X0X0X0X0X0X0X0X0X0X0X0X0X0X",
"0X0X0X0X0X0X0X0X0X0X0X0X0X0X0X0X0X0X0X0X0X0X0X0X0X0X0X0X0X0X0X0X0X0X0XjXbXbXbXbXbXbXbXbXbXbXbXbXbXbXbXbXbXbXbXbXbXbXbXbXbXbXbXbXbXbXbXbXbXbXjX0X0X0X0X0X0X0X0X0X0X0X0X0X0X0X0X0X0X0X0X0X0X0X0X0X0X0X0X0XjXbXbXbXbXbXbXbXbXbXbXbXbXbXbXbXbXbXbXbXjX0X0X0X0X0X0X0X0X0X0X0X0X0X0X0X0X0X0X0X0X0X0X0X0X0X0X0X0X0X0X0X0X0X0X0X0X0X0X0X0X0X0X0X0X0X0X0X0X0X0X0X0X0X0X0X0X0X0X0X0X0X0X0X0XO O : 9 9 9 9 9 9 # O q K.Y Y Y Y Y ` [ [ [ [ [ [ [ [ [ [ [ [ [ [ [ [ [ [ [ [ [ [ [ [ [ [ [ [ [ P n n F.F.F.a a a V.V.H.H.H.H.H.H.H.H.H.H.H.V.a a oXrXyXyXyXyXyXyXuXpXpXpXpXpXpXpXpXpXpXpXpXpXpXpXpXpXpXpXpXpXpXpXpXpXpXpXpXpXpXtXoXy.f @XpXpXy.s k >.>.5.U.T.U.U.U.U.R.R.E.E.E.%X*X*X*X*X>X>X,X,X,X2X2X5X5X5X5X>X>X^.^.^.^.R.R.A.Z.Z.6.6.5.5.5.h >.h >.6.A.A.A.L.L.L.L.L.L.L.L.L.L.L.P.P.P.P.P.P.P.P.P.P.P.P.P.P.P.P.P.P.P.i.2.2.2.2.2.2.2.2.2.2.2.7.P.P.P.P.P.P.P.P.P.P.P.P.P.P.P.P.P.P.L.2.2.2.2.2.2.2.2.2.2.2.2.,.g *X5XR.I.0X0X0X0X0X0X0X0X0X0X0X0X0X0X0X0X0X0X0X0XT.a a ).).H.H.H.H.H.H.H.H.V.a a a a j F.F.F.F.F.F.n n Z L L L L L Y Y Y Y Y Y Y Y Y Y Y Y Y Y Y Y Y Y Y Y Y n n n [ [ [ [ [ [ [ [ [ [ [ [ [ [ [ [ [ [ [ [ [ [ [ [ [ [ [ [ [ [ [ [ [ [ [ [ [ [ [ [ [ [ [ [ [ [ [ [ [ [ [ ` Y Y ; O O 9 9 9 9 9 : O O 0X0X0X0X0X0X0X0X0X0X0X0X0X0X0X0X0X0X0X0X0X0X0X0X0X0X0X0X0X0X0X0X0X0X0X0X0X0X0X0X0X0X0X0X0X0X0X0X0X0X0X0X0X0X0XjXbXbXbXbXbXbXbXbXbXbXbXbXbXbXbXbXbXbXbXbXjX0X0X0X0X0X0X0X0X0X0X0X0X0X0X0X0X0X0X0X0X0X0X0X0X0X0X0X0X0X0X0X0X0X0X0X0X0X0X0X0X0X0X0X0X0X0XcXbXbXbXbXbXbXbXbXbXbXbXbXbXbXbXbXbXbXbXbXbXbXbXbXbXbXbXbXbXbXbXbXbXcXjX0X0X0X0X0X0X0X0X0X0X0X0X0X0X0X0X0X0X0X0X0X0X0X0X0X0X0X0X0X0X0X0X0X0X0X0X0X0X",
"0X0X0X0X0X0X0X0X0X0X0X0X0X0X0X0X0X0X0X0X0X0X0X0X0X0X0X0X0X0X0X0X0X0XjXbXbXbXbXbXbXbXbXbXbXbXbXbXbXbXbXbXbXbXbXbXbXbXbXbXbXbXbXbXbXbXbXbXbXcX0X0X0X0X0X0X0X0X0X0X0X0X0X0X0X0X0X0X0X0X0X0X0X0X0X0X0X0X0XjXbXbXbXbXbXbXbXbXbXbXbXbXbXbXbXbXbXbXbXcX0X0X0X0X0X0X0X0X0X0X0X0X0X0X0X0X0X0X0X0X0X0X0X0X0X0X0X0X0X0X0X0X0X0X0X0X0X0X0X0X0X0X0X0X0X0X0X0X0X0X0X0X0X0X0X0X0X0X0X0X0X0X0X0X0XO O : 9 9 9 9 9 9 # O q K.Y Y Y Y Y ` [ [ [ [ [ [ [ [ [ [ [ [ [ [ [ [ [ [ [ [ [ [ [ [ [ [ [ [ [ P n n F.F.F.a a a V.V.H.H.H.H.H.H.H.H.H.H.H.N.a a Q.OXyXyXyXyXyXyXuXpXpXpXpXpXpXpXpXpXpXpXpXpXpXpXpXpXpXpXpXpXpXpXpXpXpXpXpXpXpXpXpXtXoXtXpXpXtXZ.I.E.E.E.E.*X*X*X*X*X>X>X,X,X,X2X2X5X5X5X5X>X>X^.^.^.R.R.A.A.A.6.6.5.5.5.5.>.,.h >.>.>.,.,.,.,.,.1.1.3.L.L.L.L.P.P.P.P.P.P.P.P.P.P.P.P.P.P.P.P.P.P.P.P.P.P.P.P.P.P.P.P.P.L.3.2.2.2.2.2.2.2.2.2.2.7.L.P.P.P.P.P.P.P.P.P.P.P.P.P.P.P.P.P.L.3.2.2.2.2.2.2.2.2.2.2.2.2.,.g *X5XR.I.0X0X0X0X0X0X0X0X0X0X0X0X0X0X0X0X0X0X0X0XT.a a ).).H.H.H.H.H.H.H.H.V.a a a a j F.F.F.F.F.F.n n Z L L L L L Y Y Y Y Y Y Y Y Y Y Y Y Y Y Y Y Y Y Y Y Y n n n [ [ [ [ [ [ [ [ [ [ [ [ [ [ [ [ [ [ [ [ [ [ [ [ [ [ [ [ [ [ [ [ [ [ [ [ [ [ [ [ [ [ [ [ [ [ [ [ [ [ [ ` Y Y ; O O 9 9 9 9 9 : O O 0X0X0X0X0X0X0X0X0X0X0X0X0X0X0X0X0X0X0X0X0X0X0X0X0X0X0X0X0X0X0X0X0X0X0X0X0X0X0X0X0X0X0X0X0X0X0X0X0X0X0X0X0X0XjXbXbXbXbXbXbXbXbXbXbXbXbXbXbXbXbXbXbXbXbXjX0X0X0X0X0X0X0X0X0X0X0X0X0X0X0X0X0X0X0X0X0X0X0X0X0X0X0X0X0X0X0X0X0X0X0X0X0X0X0X0X0X0X0X0X0X0XcXbXbXbXbXbXbXbXbXbXbXbXbXbXbXbXbXbXbXbXbXbXbXbXbXbXbXbXbXbXbXbXbXbXbXjX0X0X0X0X0X0X0X0X0X0X0X0X0X0X0X0X0X0X0X0X0X0X0X0X0X0X0X0X0X0X0X0X0X0X0X0X0X0X0X",
"0X0X0X0X0X0X0X0X0X0X0X0X0X0X0X0X0X0X0X0X0X0X0X0X0X0X0X0X0X0X0X0X0X0XcXbXbXbXbXbXbXbXbXbXbXbXbXbXbXbXbXbXbXbXbXbXbXbXbXbXbXbXbXbXbXbXbXbXcXjX0X0X0X0X0X0X0X0X0X0X0X0X0X0X0X0X0X0X0X0X0X0X0X0X0X0X0X0XjXcXbXbXbXbXbXbXbXbXbXbXbXbXbXbXbXbXbXbXcXjX0X0X0X0X0X0X0X0X0X0X0X0X0X0X0X0X0X0X0X0X0X0X0X0X0X0X0X0X0X0X0X0X0X0X0X0X0X0X0X0X0X0X0X0X0X0X0X0X0X0X0X0X0X0X0X0X0X0X0X0X0X0X0X0X0XO O : 9 9 9 9 9 9 # O q K.Y Y Y Y Y ` [ [ [ [ [ [ [ [ [ [ [ [ [ [ [ [ [ [ [ [ [ [ [ [ [ [ [ [ [ P n n F.F.F.a a a V.V.H.H.H.H.H.H.H.H.H.H.H.N.a a oXOXyXyXyXyXyXyXuXpXpXpXpXpXpXpXpXpXpXpXpXpXpXpXpXpXpXpXpXpXpXpXpXpXpXpXpXpXpXpXpXpXpXpXpXpXpXI.E.,X,X,X,X3X3X5X5X5X5X>X>X^.^.^.R.R.Z.A.A.6.6.5.5.5.>.,.h >.>.>.>.,.>.,.,.,.1.1.1.1.1.1.1.2.2.2.2.3.L.P.P.P.P.P.P.P.P.P.P.P.P.P.P.P.P.P.P.P.P.P.P.P.P.P.P.P.P.P.P.P.P.P.7.2.2.2.2.2.2.2.2.2.2.3.L.P.P.P.P.P.P.P.P.P.P.P.P.P.P.P.P.P.P.7.2.2.2.2.2.2.2.2.2.2.2.2.2.,.g *X5XR.I.0X0X0X0X0X0X0X0X0X0X0X0X0X0X0X0X0X0X0X0XT.a a ).).H.H.H.H.H.H.H.H.V.a a a a j F.F.F.F.F.F.n n Z L L L L L Y Y Y Y Y Y Y Y Y Y Y Y Y Y Y Y Y Y Y Y Y n n n [ [ [ [ [ [ [ [ [ [ [ [ [ [ [ [ [ [ [ [ [ [ [ [ [ [ [ [ [ [ [ [ [ [ [ [ [ [ [ [ [ [ [ [ [ [ [ [ [ [ [ ` Y Y ; O O 9 9 9 9 9 : O O 0X0X0X0X0X0X0X0X0X0X0X0X0X0X0X0X0X0X0X0X0X0X0X0X0X0X0X0X0X0X0X0X0X0X0X0X0X0X0X0X0X0X0X0X0X0X0X0X0X0X0X0X0XjXcXbXbXbXbXbXbXbXbXbXbXbXbXbXbXbXbXbXbXbXcX0X0X0X0X0X0X0X0X0X0X0X0X0X0X0X0X0X0X0X0X0X0X0X0X0X0X0X0X0X0X0X0X0X0X0X0X0X0X0X0X0X0X0X0X0X0XjXbXbXbXbXbXbXbXbXbXbXbXbXbXbXbXbXbXbXbXbXbXbXbXbXbXbXbXbXbXbXbXbXbXbXjX0X0X0X0X0X0X0X0X0X0X0X0X0X0X0X0X0X0X0X0X0X0X0X0X0X0X0X0X0X0X0X0X0X0X0X0X0X0X0X0X",
"0X0X0X0X0X0X0X0X0X0X0X0X0X0X0X0X0X0X0X0X0X0X0X0X0X0X0X0X0X0X0X0X0XcXbXbXbXbXbXbXbXbXbXbXbXbXbXbXbXbXbXbXbXbXbXbXbXbXbXbXbXbXbXbXbXbXbXbXjX0X0X0X0X0X0X0X0X0X0X0X0X0X0X0X0X0X0X0X0X0X0X0X0X0X0X0X0X0XcXbXbXbXbXbXbXbXbXbXbXbXbXbXbXbXbXbXbXbXjX0X0X0X0X0X0X0X0X0X0X0X0X0X0X0X0X0X0X0X0X0X0X0X0X0X0X0X0X0X0X0X0X0X0X0X0X0X0X0X0X0X0X0X0X0X0X0X0X0X0X0X0X0X0X0X0X0X0X0X0X0X0X0X0X0X0XO O : 9 9 9 9 9 9 # O q t.Y Y Y Y Y ` [ [ [ [ [ [ [ [ [ [ [ [ [ [ [ [ [ [ [ [ [ [ [ [ [ [ [ [ [ P n n F.F.F.a a a V.V.H.H.H.H.H.H.H.H.H.H.H.N.a a oXOXyXyXyXyXyXyXyXpXpXpXpXpXpXpXpXpXpXpXpXpXpXpXpXpXpXpXpXpXpXpXpXpXpXpXpXpXpXpXpXpXpXpXpXpXpXI.[.5X5X5X^.^.R.R.Z.Z.Z.6.6.5.5.5.>.,.h >.>.>.,.,.,.,.,.1.1.1.1.1.1.1.1.2.2.2.2.2.2.2.2.2.2.2.2.2.2.7.P.P.P.P.P.P.P.P.P.P.P.P.P.P.P.P.P.P.P.P.P.P.P.P.P.P.P.P.P.P.P.P.P.7.2.2.2.2.2.2.2.2.2.2.2.7.P.P.P.P.P.P.P.P.P.P.P.P.P.P.P.P.P.P.i.2.2.2.2.2.2.2.2.2.2.2.2.2.2.,.g *X5XR.I.0X0X0X0X0X0X0X0X0X0X0X0X0X0X0X0X0X0X0X0XT.a a `.).H.H.H.H.H.H.H.H.V.a a a a j F.F.F.F.F.B.n n Z L L L L L Y Y Y Y Y Y Y Y Y Y Y Y Y Y Y Y Y Y Y Y Y n n n [ [ [ [ [ [ [ [ [ [ [ [ [ [ [ [ [ [ [ [ [ [ [ [ [ [ [ [ [ [ [ [ [ [ [ [ [ [ [ [ [ [ [ [ [ [ [ [ [ [ [ ` Y Y ; O O 9 9 9 9 9 : O O 0X0X0X0X0X0X0X0X0X0X0X0X0X0X0X0X0X0X0X0X0X0X0X0X0X0X0X0X0X0X0X0X0X0X0X0X0X0X0X0X0X0X0X0X0X0X0X0X0X0X0X0X0XcXbXbXbXbXbXbXbXbXbXbXbXbXbXbXbXbXbXbXbXcXjX0X0X0X0X0X0X0X0X0X0X0X0X0X0X0X0X0X0X0X0X0X0X0X0X0X0X0X0X0X0X0X0X0X0X0X0X0X0X0X0X0X0X0X0X0XjXbXbXbXbXbXbXbXbXbXbXbXbXbXbXbXbXbXbXbXbXbXbXbXbXbXbXbXbXbXbXbXbXbXbXcX0X0X0X0X0X0X0X0X0X0X0X0X0X0X0X0X0X0X0X0X0X0X0X0X0X0X0X0X0X0X0X0X0X0X0X0X0X0X0X0X0X",
"0X0X0X0X0X0X0X0X0X0X0X0X0X0X0X0X0X0X0X0X0X0X0X0X0X0X0X0X0X0X0X0XjXbXbXbXbXbXbXbXbXbXbXbXbXbXbXbXbXbXbXbXbXbXbXbXbXbXbXbXbXbXbXbXbXbXbXjX0X0X0X0X0X0X0X0X0X0X0X0X0X0X0X0X0X0X0X0X0X0X0X0X0X0X0X0X0XjXbXbXbXbXbXbXbXbXbXbXbXbXbXbXbXbXbXbXbXjX0X0X0X0X0X0X0X0X0X0X0X0X0X0X0X0X0X0X0X0X0X0X0X0X0X0X0X0X0X0X0X0X0X0X0X0X0X0X0X0X0X0X0X0X0X0X0X0X0X0X0X0X0X0X0X0X0X0X0X0X0X0X0X0X0X0X0XO O : 9 9 9 9 9 9 # O q O.Y Y Y Y Y ` [ [ [ [ [ [ [ [ [ [ [ [ [ [ [ [ [ [ [ [ [ [ [ [ [ [ [ [ [ P n n F.F.F.a a a V.V.H.H.H.H.H.H.H.H.H.H.H.N.a a oXOXrXyXyXyXyXyXyXuXpXpXpXpXpXpXpXpXpXpXpXpXpXpXpXpXpXpXpXpXpXpXpXpXpXpXpXpXpXpXpXpXpXpXpXpXpXI.[.5X5X^.5.5.>.,.h >.>.>.,.,.,.,.,.1.1.1.1.1.1.1.2.2.2.2.2.2.2.2.2.2.2.2.2.2.2.2.2.2.2.2.2.2.2.2.7.L.P.P.P.P.P.P.P.P.P.P.P.P.P.P.P.P.P.P.P.P.P.P.P.P.P.P.P.P.P.P.P.P.i.2.2.2.2.2.2.2.2.2.2.2.7.L.P.P.P.P.P.P.P.P.P.P.P.P.P.P.P.P.P.L.3.2.2.2.2.2.2.2.2.2.2.2.2.2.2.,.g *X5XR.I.0X0X0X0X0X0X0X0X0X0X0X0X0X0X0X0X0X0X0X0XT.a a |.).H.H.H.H.H.H.H.H.V.a a a a j F.F.F.F.F.o.n n Z L L L L L Y Y Y Y Y Y Y Y Y Y Y Y Y Y Y Y Y Y Y Y Y n n n [ [ [ [ [ [ [ [ [ [ [ [ [ [ [ [ [ [ [ [ [ [ [ [ [ [ [ [ [ [ [ [ [ [ [ [ [ [ [ [ [ [ [ [ [ [ [ [ [ [ [ ` Y Y ; O O 9 9 9 9 9 : O O 0X0X0X0X0X0X0X0X0X0X0X0X0X0X0X0X0X0X0X0X0X0X0X0X0X0X0X0X0X0X0X0X0X0X0X0X0X0X0X0X0X0X0X0X0X0X0X0X0X0X0X0XcXbXbXbXbXbXbXbXbXbXbXbXbXbXbXbXbXbXbXbXcXjX0X0X0X0X0X0X0X0X0X0X0X0X0X0X0X0X0X0X0X0X0X0X0X0X0X0X0X0X0X0X0X0X0X0X0X0X0X0X0X0X0X0X0X0X0X0XcXbXbXbXbXbXbXbXbXbXbXbXbXbXbXbXbXbXbXbXbXbXbXbXbXbXbXbXbXbXbXbXbXbXcXjX0X0X0X0X0X0X0X0X0X0X0X0X0X0X0X0X0X0X0X0X0X0X0X0X0X0X0X0X0X0X0X0X0X0X0X0X0X0X0X0X0X",
"0X0X0X0X0X0X0X0X0X0X0X0X0X0X0X0X0X0X0X0X0X0X0X0X0X0X0X0X0X0X0XjXbXbXbXbXbXbXbXbXbXbXbXbXbXbXbXbXbXbXbXbXbXbXbXbXbXbXbXbXbXbXbXbXbXbXcX0X0X0X0X0X0X0X0X0X0X0X0X0X0X0X0X0X0X0X0X0X0X0X0X0X0X0X0X0XjXbXbXbXbXbXbXbXbXbXbXbXbXbXbXbXbXbXbXbXcX0X0X0X0X0X0X0X0X0X0X0X0X0X0X0X0X0X0X0X0X0X0X0X0X0X0X0X0X0X0X0X0X0X0X0X0X0X0X0X0X0X0X0X0X0X0X0X0X0X0X0X0X0X0X0X0X0X0X0X0X0X0X0X0X0X0X0X0XO O : 9 9 9 9 9 9 # O q | Y Y Y Y Y ` [ [ [ [ [ [ [ [ [ [ [ [ [ [ [ [ [ [ [ [ [ [ [ [ [ [ [ [ [ P n n F.F.F.a a d V.V.H.H.H.H.H.H.H.H.H.H.H.N.a a oXOXOXyXyXyXyXyXyXuXpXpXpXpXpXpXpXpXpXpXpXpXpXpXpXpXpXpXpXpXpXpXpXpXpXpXpXpXpXpXpXpXpXpXpXpXpXI.[.5X5XA.h ,.,.1.1.1.1.1.1.1.2.2.2.2.2.2.2.2.2.2.2.2.2.2.2.2.2.2.2.2.2.2.2.2.2.2.2.2.2.2.2.2.2.3.L.P.P.P.P.P.P.P.P.P.P.P.P.P.P.P.P.P.P.P.P.P.P.P.P.P.P.P.P.P.P.P.P.L.3.2.2.2.2.2.2.2.2.2.2.3.L.P.P.P.P.P.P.P.P.P.P.P.P.P.P.P.P.P.P.7.2.2.2.2.2.2.2.2.2.2.2.2.2.2.2.,.g *X5XR.I.0X0X0X0X0X0X0X0X0X0X0X0X0X0X0X0X0X0X0X0XT.a a |.).H.H.H.H.H.H.H.H.V.a a a a j F.F.F.F.F.o.n n K L L L L L Y Y Y Y Y Y Y Y Y Y Y Y Y Y Y Y Y Y Y Y Y n n n [ [ [ [ [ [ [ [ [ [ [ [ [ [ [ [ [ [ [ [ [ [ [ [ [ [ [ [ [ [ [ [ [ [ [ [ [ [ [ [ [ [ [ [ [ [ [ [ [ [ [ ` Y Y ; O O 9 9 9 9 9 : O O 0X0X0X0X0X0X0X0X0X0X0X0X0X0X0X0X0X0X0X0X0X0X0X0X0X0X0X0X0X0X0X0X0X0X0X0X0X0X0X0X0X0X0X0X0X0X0X0X0X0X0XcXbXbXbXbXbXbXbXbXbXbXbXbXbXbXbXbXbXbXbXcXjX0X0X0X0X0X0X0X0X0X0X0X0X0X0X0X0X0X0X0X0X0X0X0X0X0X0X0X0X0X0X0X0X0X0X0X0X0X0X0X0X0X0X0X0X0X0XjXbXbXbXbXbXbXbXbXbXbXbXbXbXbXbXbXbXbXbXbXbXbXbXbXbXbXbXbXbXbXbXbXbXbXjX0X0X0X0X0X0X0X0X0X0X0X0X0X0X0X0X0X0X0X0X0X0X0X0X0X0X0X0X0X0X0X0X0X0X0X0X0X0X0X0X0X0X",
"0X0X0X0X0X0X0X0X0X0X0X0X0X0X0X0X0X0X0X0X0X0X0X0X0X0X0X0X0X0X0XcXbXbXbXbXbXbXbXbXbXbXbXbXbXbXbXbXbXbXbXbXbXbXbXbXbXbXbXbXbXbXbXbXbXcXjX0X0X0X0X0X0X0X0X0X0X0X0X0X0X0X0X0X0X0X0X0X0X0X0X0X0X0X0X0XcXbXbXbXbXbXbXbXbXbXbXbXbXbXbXbXbXbXbXcXjX0X0X0X0X0X0X0X0X0X0X0X0X0X0X0X0X0X0X0X0X0X0X0X0X0X0X0X0X0X0X0X0X0X0X0X0X0X0X0X0X0X0X0X0X0X0X0X0X0X0X0X0X0X0X0X0X0X0X0X0X0X0X0X0X0X0X0X0XO O : 9 9 9 9 9 9 # O q | Y Y Y Y Y ` [ [ [ [ [ [ [ [ [ [ [ [ [ [ [ [ [ [ [ [ [ [ [ [ [ [ [ [ [ P n n F.F.F.a a d V.V.H.H.H.H.H.H.H.H.H.H.H.N.a a oXOXOXyXyXyXyXyXyXyXpXpXpXpXpXpXpXpXpXpXpXpXpXpXpXpXpXpXpXpXpXpXpXpXpXpXpXpXpXpXpXpXpXpXpXpXpXI.[.5X5X6.>.2.2.2.2.2.2.2.2.2.2.2.2.2.2.2.2.2.2.2.2.2.2.2.2.2.2.2.2.2.2.2.2.2.2.2.2.2.2.2.2.2.3.i.P.P.P.P.P.P.P.P.P.P.P.P.P.P.P.P.P.P.P.P.P.P.P.P.P.P.P.P.P.P.P.P.P.7.2.2.2.2.2.2.2.2.2.2.2.7.P.P.P.P.P.P.P.P.P.P.P.P.P.P.P.P.P.P.i.2.2.2.2.2.2.2.2.2.2.2.2.2.2.2.2.,.g *X5XR.I.0X0X0X0X0X0X0X0X0X0X0X0X0X0X0X0X0X0X0X0XT.a a |.).H.H.H.H.H.H.H.H.V.a a a a j F.F.F.F.F.o.n n K L L L L L Y Y Y Y Y Y Y Y Y Y Y Y Y Y Y Y Y Y Y Y Y n n n [ [ [ [ [ [ [ [ [ [ [ [ [ [ [ [ [ [ [ [ [ [ [ [ [ [ [ [ [ [ [ [ [ [ [ [ [ [ [ [ [ [ [ [ [ [ [ [ [ [ [ ` Y Y ; O O 9 9 9 9 9 : O O 0X0X0X0X0X0X0X0X0X0X0X0X0X0X0X0X0X0X0X0X0X0X0X0X0X0X0X0X0X0X0X0X0X0X0X0X0X0X0X0X0X0X0X0X0X0X0X0X0X0XjXbXbXbXbXbXbXbXbXbXbXbXbXbXbXbXbXbXbXbXcXjX0X0X0X0X0X0X0X0X0X0X0X0X0X0X0X0X0X0X0X0X0X0X0X0X0X0X0X0X0X0X0X0X0X0X0X0X0X0X0X0X0X0X0X0X0X0XjXbXbXbXbXbXbXbXbXbXbXbXbXbXbXbXbXbXbXbXbXbXbXbXbXbXbXbXbXbXbXbXbXbXbXcX0X0X0X0X0X0X0X0X0X0X0X0X0X0X0X0X0X0X0X0X0X0X0X0X0X0X0X0X0X0X0X0X0X0X0X0X0X0X0X0X0X0X;X",
"0X0X0X0X0X0X0X0X0X0X0X0X0X0X0X0X0X0X0X0X0X0X0X0X0X0X0X0X0X0XjXbXbXbXbXbXbXbXbXbXbXbXbXbXbXbXbXbXbXbXbXbXbXbXbXbXbXbXbXbXbXbXbXbXbXjX0X0X0X0X0X0X0X0X0X0X0X0X0X0X0X0X0X0X0X0X0X0X0X0X0X0X0X0X0XcXbXbXbXbXbXbXbXbXbXbXbXbXbXbXbXbXbXbXbXjX0X0X0X0X0X0X0X0X0X0X0X0X0X0X0X0X0X0X0X0X0X0X0X0X0X0X0X0X0X0X0X0X0X0X0X0X0X0X0X0X0X0X0X0X0X0X0X0X0X0X0X0X0X0X0X0X0X0X0X0X0X0X0X0X0X0X0X0X0XO O : 9 9 9 9 9 9 $ O q O.Y Y Y Y Y ` [ [ [ [ [ [ [ [ [ [ [ [ [ [ [ [ [ [ [ [ [ [ [ [ [ [ [ [ [ P n n F.F.F.a a d V.V.H.H.H.H.H.H.H.H.H.H.H.N.a a Q.OXOXrXyXyXyXyXyXyXuXpXpXpXpXpXpXpXpXpXpXpXpXpXpXpXpXpXpXpXpXpXpXpXpXpXpXpXpXpXpXpXpXpXpXpXpXI.^.5X5X6.>.2.2.2.2.2.2.2.2.2.2.2.2.2.2.2.2.2.2.2.2.2.2.2.2.2.2.2.2.2.2.2.2.2.2.2.2.2.2.2.2.2.7.P.P.P.P.P.P.P.P.P.P.P.P.P.P.P.P.P.P.P.P.P.P.P.P.P.P.P.P.P.P.P.P.P.i.2.2.2.2.2.2.2.2.2.2.2.7.L.P.P.P.P.P.P.P.P.P.P.P.P.P.P.P.P.P.L.3.2.2.2.2.2.2.2.2.2.2.2.2.2.2.2.2.,.g *X5XR.I.0X0X0X0X0X0X0X0X0X0X0X0X0X0X0X0X0X0X0X0XZ.a a |.).H.H.H.H.H.H.H.H.N.a a a a j F.F.F.F.F.o.n n K L L L L L Y Y Y Y Y Y Y Y Y Y Y Y Y Y Y Y Y Y Y Y Y n n n [ [ [ [ [ [ [ [ [ [ [ [ [ [ [ [ [ [ [ [ [ [ [ [ [ [ [ [ [ [ [ [ [ [ [ [ [ [ [ [ [ [ [ [ [ [ [ [ [ [ [ ` Y Y ; O O 9 9 9 9 9 : O O 0X0X0X0X0X0X0X0X0X0X0X0X0X0X0X0X0X0X0X0X0X0X0X0X0X0X0X0X0X0X0X0X0X0X0X0X0X0X0X0X0X0X0X0X0X0X0X0X0XjXbXbXbXbXbXbXbXbXbXbXbXbXbXbXbXbXbXbXbXbXjX0X0X0X0X0X0X0X0X0X0X0X0X0X0X0X0X0X0X0X0X0X0X0X0X0X0X0X0X0X0X0X0X0X0X0X0X0X0X0X0X0X0X0X0X0X0X0XcXbXbXbXbXbXbXbXbXbXbXbXbXbXbXbXbXbXbXbXbXbXbXbXbXbXbXbXbXbXbXbXbXbXcXjX0X0X0X0X0X0X0X0X0X0X0X0X0X0X0X0X0X0X0X0X0X0X0X0X0X0X0X0X0X0X0X0X0X0X0X;XR.R.R.r.y y q ",
"0X0X0X0X0X0X0X0X0X0X0X0X0X0X0X0X0X0X0X0X0X0X0X0X0X0X0X0X0XjXbXbXbXbXbXbXbXbXbXbXbXbXbXbXbXbXbXbXbXbXbXbXbXbXbXbXbXbXbXbXbXbXbXbXcX0X0X0X0X0X0X0X0X0X0X0X0X0X0X0X0X0X0X0X0X0X0X0X0X0X0X0X0X0XjXbXbXbXbXbXbXbXbXbXbXbXbXbXbXbXbXbXbXbXcX0X0X0X0X0X0X0X0X0X0X0X0X0X0X0X0X0X0X0X0X0X0X0X0X0X0X0X0X0X0X0X0X0X0X0X0X0X0X0X0X0X0X0X0X0X0X0X0X0X0X0X0X0X0X0X0X0X0X0X0X0X0X0X0X0X0X0X0X0X0XO O : 9 9 9 9 9 9 $ O w O.Y Y Y Y Y ` [ [ [ [ [ [ [ [ [ [ [ [ [ [ [ [ [ [ [ [ [ [ [ [ [ [ [ [ [ P n n F.F.F.a a d V.V.H.H.H.H.H.H.H.H.H.H.H.N.a a oXOXOXOXyXyXyXyXyXyXuXpXpXpXpXpXpXpXpXpXpXpXpXpXpXpXpXpXpXpXpXpXpXpXpXpXpXpXpXpXpXpXpXpXpXpXpXI.[.5X5X6.>.2.2.2.2.2.2.2.2.2.2.2.2.2.2.2.2.2.2.2.2.2.2.2.2.2.2.2.2.2.2.2.2.2.2.2.2.2.2.2.2.3.L.P.P.P.P.P.P.P.P.P.P.P.P.P.P.P.P.P.P.P.P.P.P.P.P.P.P.P.P.P.P.P.P.L.3.2.2.2.2.2.2.2.2.2.2.3.L.P.P.P.P.P.P.P.P.P.P.P.P.P.P.P.P.P.P.7.2.2.2.2.2.2.2.2.2.2.2.2.2.2.2.2.2.,.g *X5XR.I.0X0X0X0X0X0X0X0X0X0X0X0X0X0X0X0X0X0X0X0X5.a a |.).H.H.H.H.H.H.H.H.N.a a a a j F.F.F.F.F.o.n n K L L L L L Y Y Y Y Y Y Y Y Y Y Y Y Y Y Y Y Y Y Y Y Y n n n [ [ [ [ [ [ [ [ [ [ [ [ [ [ [ [ [ [ [ [ [ [ [ [ [ [ [ [ [ [ [ [ [ [ [ [ [ [ [ [ [ [ [ [ [ [ [ [ [ [ [ ` Y Y ; O O 9 9 9 9 9 : O O 0X0X0X0X0X0X0X0X0X0X0X0X0X0X0X0X0X0X0X0X0X0X0X0X0X0X0X0X0X0X0X0X0X0X0X0X0X0X0X0X0X0X0X0X0X0X0X0XjXbXbXbXbXbXbXbXbXbXbXbXbXbXbXbXbXbXbXbXbXjX0X0X0X0X0X0X0X0X0X0X0X0X0X0X0X0X0X0X0X0X0X0X0X0X0X0X0X0X0X0X0X0X0X0X0X0X0X0X0X0X0X0X0X0X0X0X0XcXbXbXbXbXbXbXbXbXbXbXbXbXbXbXbXbXbXbXbXbXbXbXbXbXbXbXbXbXbXbXbXbXbXbXjX0X0X0X0X0X0X0X0X0X0X0X0X0X0X0X0X0X0X0X0X0X0X0X0X0X0X0X0X;XR.R.R.r.y y y q 8 8 8 * O O O ",
"0X0X0X0X0X0X0X0X0X0X0X0X0X0X0X0X0X0X0X0X0X0X0X0X0X0X0X0X0XcXbXbXbXbXbXbXbXbXbXbXbXbXbXbXbXbXbXbXbXbXbXbXbXbXbXbXbXbXbXbXbXbXbXcXjX0X0X0X0X0X0X0X0X0X0X0X0X0X0X0X0X0X0X0X0X0X0X0X0X0X0X0X0XjXbXbXbXbXbXbXbXbXbXbXbXbXbXbXbXbXbXbXbXcXjX0X0X0X0X0X0X0X0X0X0X0X0X0X0X0X0X0X0X0X0X0X0X0X0X0X0X0X0X0X0X0X0X0X0X0X0X0X0X0X0X0X0X0X0X0X0X0X0X0X0X0X0X0X0X0X0X0X0X0X0X0X0X0X0X0X0X0X0X0X0XO O : 9 9 9 9 9 9 # O q O.Y Y Y ` ` ` [ [ [ [ [ [ [ [ [ [ [ [ [ [ [ [ [ [ [ [ [ [ [ [ [ [ [ [ [ P n n F.F.F.a a d V.V.H.H.H.H.H.H.H.H.H.H.H.l a a oXOXOXOXrXuXyXyXyXyXyXuXpXpXpXpXpXpXrXoXoXoXoXrXpXpXpXpXpXpXpXpXpXpXpXpXpXpXpXpXpXpXpXpXpXpXpXI.[.5X5X6.h 2.2.2.2.2.2.2.2.2.2.2.2.2.2.2.2.2.2.2.2.2.2.2.2.2.2.2.2.2.2.2.2.2.2.2.2.2.2.2.3.L.P.P.P.P.P.P.P.P.P.P.P.P.P.P.P.P.P.P.P.P.P.P.P.P.P.P.P.P.P.P.P.P.P.7.2.2.2.2.2.2.2.2.2.2.2.i.P.P.P.P.P.P.P.P.P.P.P.P.P.P.P.P.P.P.i.2.2.2.2.2.2.2.2.2.2.2.2.2.2.2.2.2.2.,.g *X5XR.I.0X0X0X0X0X0X0X0X0X0X0X0X0X0X0X0X0X0X0X0X5.a a |.).H.H.H.H.H.H.H.H.N.a a a a l F.F.F.F.F.o.n n K L L L L L Y Y Y Y Y Y Y Y Y Y Y Y Y Y Y Y Y Y Y Y Y n n n [ [ [ [ [ [ [ [ [ [ [ [ [ [ [ [ [ [ [ [ [ [ [ [ [ [ [ [ [ [ [ [ [ [ [ [ [ [ [ [ [ [ [ [ [ [ [ [ [ [ [ ` Y Y ; O O 9 9 9 9 9 : O O 0X0X0X0X0X0X0X0X0X0X0X0X0X0X0X0X0X0X0X0X0X0X0X0X0X0X0X0X0X0X0X0X0X0X0X0X0X0X0X0X0X0X0X0X0X0X0XjXbXbXbXbXbXbXbXbXbXbXbXbXbXbXbXbXbXbXbXbXcX0X0X0X0X0X0X0X0X0X0X0X0X0X0X0X0X0X0X0X0X0X0X0X0X0X0X0X0X0X0X0X0X0X0X0X0X0X0X0X0X0X0X0X0X0X0X0XjXbXbXbXbXbXbXbXbXbXbXbXbXbXbXbXbXbXbXbXbXbXbXbXbXbXbXbXbXbXbXbXbXbXbXjX0X0X0X0X0X0X0X0X0X0X0X0X0X0X0X0X0X0X0X0X0X;X;XR.R.r.r.y y q 8 8 8 * O O O O O O O + + % % ",
"0X0X0X0X0X0X0X0X0X0X0X0X0X0X0X0X0X0X0X0X0X0X0X0X0X0X0X0XcXbXbXbXbXbXbXbXbXbXbXbXbXbXbXbXbXbXbXbXbXbXbXbXbXbXbXbXbXbXbXbXbXbXbXjX0X0X0X0X0X0X0X0X0X0X0X0X0X0X0X0X0X0X0X0X0X0X0X0X0X0X0X0X0XcXbXbXbXbXbXbXbXbXbXbXbXbXbXbXbXbXbXbXbXjX0X0X0X0X0X0X0X0X0X0X0X0X0X0X0X0X0X0X0X0X0X0X0X0X0X0X0X0X0X0X0X0X0X0X0X0X0X0X0X0X0X0X0X0X0X0X0X0X0X0X0X0X0X0X0X0X0X0X0X0X0X0X0X0X0X0X0X0X0X0X0XO O : 9 9 9 9 9 9 # O q O.Y Y Y Y ` ` [ [ [ [ [ [ [ [ [ [ [ [ [ [ [ [ [ [ [ [ [ [ [ [ [ [ [ [ [ P n n F.F.F.a a d V.V.H.H.H.H.H.H.H.H.H.H.H.l a a t.OXOXOXOXuXyXyXyXyXyXuXpXpXpXpXpXpXoXy.......e.y.Q.rXpXpXpXpXpXpXpXpXpXpXpXpXpXpXpXpXpXpXpXpXA.[.5X5X6.h 2.2.2.2.2.2.2.2.2.2.2.2.2.2.2.2.2.2.2.2.2.2.2.2.2.2.2.2.2.2.2.2.2.2.2.2.2.2.2.7.P.P.P.P.P.P.P.P.P.P.P.P.P.P.P.P.P.P.P.P.P.P.P.P.P.P.P.P.P.P.P.P.P.i.2.2.2.2.2.2.2.2.2.2.2.7.P.P.P.P.P.P.P.P.P.P.P.P.P.P.P.P.P.P.L.3.2.2.2.2.2.2.2.2.2.2.2.2.2.2.2.2.2.2.,.g *X5XR.I.0X0X0X0X0X0X0X0X0X0X0X0X0X0X0X0X0X0X0X0X5.a a |.).H.H.H.H.H.H.H.H.N.a a a a l F.F.F.F.F.o.n n K L L L L L Y Y Y Y Y Y Y Y Y Y Y Y Y Y Y Y Y Y Y Y Y n n n [ [ [ [ [ [ [ [ [ [ [ [ [ [ [ [ [ [ [ [ [ [ [ [ [ [ [ [ [ [ [ [ [ [ [ [ [ [ [ [ [ [ [ [ [ [ [ [ [ [ [ _ Y Y ; O O 9 9 9 9 9 : O O 0X0X0X0X0X0X0X0X0X0X0X0X0X0X0X0X0X0X0X0X0X0X0X0X0X0X0X0X0X0X0X0X0X0X0X0X0X0X0X0X0X0X0X0X0X0XjXcXbXbXbXbXbXbXbXbXbXbXbXbXbXbXbXbXbXbXbXcXjX0X0X0X0X0X0X0X0X0X0X0X0X0X0X0X0X0X0X0X0X0X0X0X0X0X0X0X0X0X0X0X0X0X0X0X0X0X0X0X0X0X0X0X0X0X0XjXbXbXbXbXbXbXbXbXbXbXbXbXbXbXbXbXbXbXbXbXbXbXbXbXbXbXbXbXbXbXbXbXbXbXcX0X0X0X0X0X0X0X0X0X0X0X0X0X0X0X;XU.U.R.r.y y q q 8 8 * * O O O O O O O + % % % : , , < < < < ",
"0X0X0X0X0X0X0X0X0X0X0X0X0X0X0X0X0X0X0X0X0X0X0X0X0X0X0XjXbXbXbXbXbXbXbXbXbXbXbXbXbXbXbXbXbXbXbXbXbXbXbXbXbXbXbXbXbXbXbXbXbXbXjX0X0X0X0X0X0X0X0X0X0X0X0X0X0X0X0X0X0X0X0X0X0X0X0X0X0X0X0X0XjXbXbXbXbXbXbXbXbXbXbXbXbXbXbXbXbXbXbXbXjX0X0X0X0X0X0X0X0X0X0X0X0X0X0X0X0X0X0X0X0X0X0X0X0X0X0X0X0X0X0X0X0X0X0X0X0X0X0X0X0X0X0X0X0X0X0X0X0X0X0X0X0X0X0X0X0X0X0X0X0X0X0X0X0X0X0X0X0X0X0X0X0XO O : 9 9 9 9 9 9 # O q | ` ` Y Y ` ` [ [ [ [ [ [ [ [ [ [ [ [ [ [ [ [ [ [ [ [ [ [ [ [ [ [ [ [ [ P n n F.F.F.a a j V.V.H.H.H.H.H.H.H.H.H.H.H.N.a a ..s.OXOXOXrXyXyXyXyXyXyXuXpXpXpXpXpXrX@XoXQ.Q.y.t  .e.Q.rXpXpXpXpXpXpXpXpXpXpXpXpXpXpXpXpXpXpXI.[.5X5X6.h 2.2.2.2.2.2.2.2.2.2.2.2.2.2.2.2.2.2.2.2.2.2.2.2.2.2.2.2.2.2.2.2.2.2.2.2.2.2.3.P.P.P.P.P.P.P.P.P.P.P.P.P.P.P.P.P.P.P.P.P.P.P.P.P.P.P.P.P.P.P.P.P.L.3.2.2.2.2.2.2.2.2.2.2.3.P.P.P.P.P.P.P.P.P.P.P.P.P.P.P.P.P.P.P.7.2.2.2.2.2.2.2.2.2.2.2.2.2.2.2.2.2.2.2.,.g *X5XR.I.0X0X0X0X0X0X0X0X0X0X0X0X0X0X0X0X0X0X0X0X5.a a |.).H.H.H.H.H.H.H.H.N.a a a a l F.F.F.F.F.o.n n K L L L L L Y Y Y Y Y Y Y Y Y Y Y Y Y Y Y Y Y Y Y Y Y n n n _ [ [ [ [ [ [ [ [ [ [ [ [ [ [ [ [ [ [ [ [ [ [ [ [ [ [ [ [ [ [ [ [ [ [ [ [ [ [ [ [ [ [ [ [ [ [ [ [ [ [ Y Y Y ; O O 9 9 9 9 9 : O O 0X0X0X0X0X0X0X0X0X0X0X0X0X0X0X0X0X0X0X0X0X0X0X0X0X0X0X0X0X0X0X0X0X0X0X0X0X0X0X0X0X0X0X0X0X0XcXbXbXbXbXbXbXbXbXbXbXbXbXbXbXbXbXbXbXbXcXjX0X0X0X0X0X0X0X0X0X0X0X0X0X0X0X0X0X0X0X0X0X0X0X0X0X0X0X0X0X0X0X0X0X0X0X0X0X0X0X0X0X0X0X0X0X0X0XcXbXbXbXbXbXbXbXbXbXbXbXbXbXbXbXbXbXbXbXbXbXbXbXbXbXbXbXbXbXbXbXbXbXcXjX0XjX0X0X0X0X0X;X;XR.R.r.r.y y q 8 8 8 * O O O O O O O + % $ % : , , , < < < < 1 9 9 9 9 9 9 ",
"0X0X0X0X0X0X0X0X0X0X0X0X0X0X0X0X0X0X0X0X0X0X0X0X0X0XjXbXbXbXbXbXbXbXbXbXbXbXbXbXbXbXbXbXbXbXbXbXbXbXbXbXbXbXbXbXbXbXbXbXbXcX0X0X0X0X0X0X0X0X0X0X0X0X0X0X0X0X0X0X0X0X0X0X0X0X0X0X0X0X0XjXbXbXbXbXbXbXbXbXbXbXbXbXbXbXbXbXbXbXbXcX0X0X0X0X0X0X0X0X0X0X0X0X0X0X0X0X0X0X0X0X0X0X0X0X0X0X0X0X0X0X0X0X0X0X0X0X0X0X0X0X0X0X0X0X0X0X0X0X0X0X0X0X0X0X0X0X0X0X0X0X0X0X0X0X0X0X0X0X0X0X0X0X0XO O : 9 9 9 9 9 9 # O q | Y ` Y Y Y ` [ [ [ [ [ [ [ [ [ [ [ [ [ [ [ [ [ [ [ [ [ [ [ [ [ [ [ [ [ P n n F.F.F.a a f V.V.H.H.H.H.H.H.H.H.H.H.H.N.a a f 0.OXOXOXOXrXyXyXyXyXyXyXpXpXpXpXpXpXpXpXtXuXrXK.t t f e.Q.rXpXpXpXpXpXpXpXpXpXpXpXpXpXpXpXpXI.[.5X5X6.h 2.2.2.2.2.2.2.2.2.2.2.2.2.2.2.2.2.2.2.2.2.2.2.2.2.2.2.2.2.2.2.2.2.2.2.2.2.3.L.P.P.P.P.P.P.P.P.P.P.P.P.P.P.P.P.P.P.P.P.P.P.P.P.P.P.P.P.P.P.P.P.P.3.2.2.2.2.2.2.2.2.2.2.3.i.P.P.P.P.P.P.P.P.P.P.P.P.P.P.P.P.P.P.7.2.2.2.2.2.2.2.2.2.2.2.2.2.2.2.2.2.2.2.2.,.g *X5XR.I.0X0X0X0X0X0X0X0X0X0X0X0X0X0X0X0X0X0X0X0X5.a a |.).H.H.H.H.H.H.H.H.N.a a a a l F.F.F.F.F.o.n n K L L L L L Y Y Y Y Y Y Y Y Y Y Y Y Y Y Y Y Y Y Y Y Y n n n R [ [ [ [ [ [ [ [ [ [ [ [ [ [ [ [ [ [ [ [ [ [ [ [ [ [ [ [ [ [ [ [ [ [ [ [ [ [ [ [ [ [ [ [ [ [ [ [ [ [ Y Y Y ; O O 9 9 9 9 9 : O O 0X0X0X0X0X0X0X0X0X0X0X0X0X0X0X0X0X0X0X0X0X0X0X0X0X0X0X0X0X0X0X0X0X0X0X0X0X0X0X0X0X0X0X0X0XcXbXbXbXbXbXbXbXbXbXbXbXbXbXbXbXbXbXbXbXcXjX0X0X0X0X0X0X0X0X0X0X0X0X0X0X0X0X0X0X0X0X0X0X0X0X0X0X0X0X0X0X0X0X0X0X0X0X0X0X0X0X0X0X0X0X0X0X0XjXbXbXbXbXbXbXbXbXbXbXbXbXbXbXbXbXbXbXbXbXbXbXbXbXbXbXbXbXbXbXbXbXbXbXjX0X;XR.R.R.r.y y w w 8 8 * * O O O O O O + + % $ $ : , , < < < < 1 9 9 9 9 9 9 9 9 9 9 9 9 9 9 ",
"0X0X0X0X0X0X0X0X0X0X0X0X0X0X0X0X0X0X0X0X0X0X0X0X0X0XcXbXbXbXbXbXbXbXbXbXbXbXbXbXbXbXbXbXbXbXbXbXbXbXbXbXbXbXbXbXbXbXbXbXcXjX0X0X0X0X0X0X0X0X0X0X0X0X0X0X0X0X0X0X0X0X0X0X0X0X0X0X0X0X0XcXbXbXbXbXbXbXbXbXbXbXbXbXbXbXbXbXbXbXcXjX0X0X0X0X0X0X0X0X0X0X0X0X0X0X0X0X0X0X0X0X0X0X0X0X0X0X0X0X0X0X0X0X0X0X0X0X0X0X0X0X0X0X0X0X0X0X0X0X0X0X0X0X0X0X0X0X0X0X0X0X0X0X0X0X0X0X0X0X0X0X0X0X0XO O : 9 9 9 9 9 9 # O q O.` ` Y Y Y ` [ [ [ [ [ [ [ [ [ [ [ [ [ [ [ [ [ [ [ [ [ [ [ [ [ [ [ [ [ P n n F.F.F.a a d V.V.H.H.H.H.H.H.H.H.H.H.H.N.a a w...t.OXOXOXOXyXyXyXyXyXyXuXpXpXpXpXpXpXpXpXpXpXtXoX..t t  .e.Q.rXrXpXpXpXpXpXpXpXpXpXpXpXpXpXI.[.5X5X6.>.2.2.2.2.2.2.2.2.2.2.2.2.2.2.2.2.2.2.2.2.2.2.2.2.2.2.2.2.2.2.2.2.2.2.2.2.2.i.P.P.P.P.P.P.P.P.P.P.P.P.P.P.P.P.P.P.P.P.P.P.P.P.P.P.P.P.P.P.P.P.P.7.2.2.2.2.2.2.2.2.2.2.2.7.P.P.P.P.P.P.P.P.P.P.P.P.P.P.P.P.P.P.L.2.2.2.2.2.2.2.2.2.1.1.,.,.,.,.,.2.2.2.2.2.,.g *X5XR.I.0X0X0X0X0X0X0X0X0X0X0X0X0X0X0X0X0X0X0X0X5.a a |.).H.H.H.H.H.H.H.H.N.a a a a l F.F.F.F.F.o.n n K L L L L L Y Y Y Y Y Y Y Y Y Y Y Y Y Y Y Y Y Y Y Y Y n n n R [ [ [ [ [ [ [ [ [ [ [ [ [ [ [ [ [ [ [ [ [ [ [ [ [ [ [ [ [ [ [ [ [ [ [ [ [ [ [ [ [ [ [ [ [ [ [ [ [ ` Y Y Y ; O O 9 9 9 9 9 : O O 0X0X0X0X0X0X0X0X0X0X0X0X0X0X0X0X0X0X0X0X0X0X0X0X0X0X0X0X0X0X0X0X0X0X0X0X0X0X0X0X0X0X0X0XcXbXbXbXbXbXbXbXbXbXbXbXbXbXbXbXbXbXbXbXcXjX0X0X0X0X0X0X0X0X0X0X0X0X0X0X0X0X0X0X0X0X0X0X0X0X0X0X0X0X0X0X0X0X0X0X0X0X0X0X0X0X0X0X0X0X0X0X0XjXbXbXbXbXbXbXbXbXbXbXbXbXbXbXbXbXbXbXbXbXbXbXbXbXbXbXbXbXbX1X^.^.^.r.y y y r 8 8 8 * O O O O O O O + % % % : , , < < < < < 1 9 9 9 9 9 9 9 9 9 9 9 9 9 9 9 9 9 9 9 9 9 ",
"0X0X0X0X0X0X0X0X0X0X0X0X0X0X0X0X0X0X0X0X0X0X0X0X0XjXbXbXbXbXbXbXbXbXbXbXbXbXbXbXbXbXbXbXbXbXbXbXbXbXbXbXbXbXbXbXbXbXbXbXjX0X0X0X0X0X0X0X0X0X0X0X0X0X0X0X0X0X0X0X0X0X0X0X0X0X0X0X0X0XcXbXbXbXbXbXbXbXbXbXbXbXbXbXbXbXbXbXbXbXjX0X0X0X0X0X0X0X0X0X0X0X0X0X0X0X0X0X0X0X0X0X0X0X0X0X0X0X0X0X0X0X0X0X0X0X0X0X0X0X0X0X0X0X0X0X0X0X0X0X0X0X0X0X0X0X0X0X0X0X0X0X0X0X0X0X0X0X0X0X0X0X0X0X0XO O : 9 9 9 9 9 9 # O q O.~ ~ Y Y Y ` [ [ [ [ [ [ [ [ [ [ [ [ [ [ [ [ [ [ [ [ [ [ [ [ [ [ [ [ [ P n n F.F.F.a a f V.V.H.H.H.H.H.H.H.H.H.H.H.N.a a ~.0...s.OXOXOXrXyXyXyXyXyXyXuXpXpXpXpXpXpXpXpXpXpXpX@XK...t t  .e.e.y.Q.oXrXrXrXpXpXpXrXrXoXoXI.[.5X5X6.>.2.2.2.2.2.2.2.2.2.2.2.2.2.2.2.2.2.2.2.2.2.2.2.2.2.2.2.2.2.2.2.2.2.2.2.2.7.P.P.P.P.P.P.P.P.P.P.P.P.P.P.P.P.P.P.P.P.P.P.P.P.P.P.P.P.P.P.P.P.P.i.2.2.2.2.2.2.2.2.2.2.2.3.L.P.P.P.P.P.P.P.P.P.P.P.P.P.P.P.P.P.P.3.2.2.2.2.2.2.,.>.>.>.>.h Z.Z.Z.h 2.2.2.2.2.,.g *X5XR.I.0X0X0X0X0X0X0X0X0X0X0X0X0X0X0X0X0X0X0X0X5.a a |.H.H.H.H.H.H.H.H.H.N.a a a a l F.F.F.F.F.o.n n K L L L L L Y Y Y Y Y Y Y Y Y Y Y Y Y Y Y Y Y Y Y Y Y n n n R [ [ [ [ [ [ [ [ [ [ [ [ [ [ [ [ [ [ [ [ [ [ [ [ [ [ [ [ [ [ [ [ [ [ [ [ [ [ [ [ [ [ [ [ [ [ [ [ [ ` Y Y Y ; O O 9 9 9 9 9 : O O 0X0X0X0X0X0X0X0X0X0X0X0X0X0X0X0X0X0X0X0X0X0X0X0X0X0X0X0X0X0X0X0X0X0X0X0X0X0X0X0X0X0X0XjXbXbXbXbXbXbXbXbXbXbXbXbXbXbXbXbXbXbXbXcXjX0X0X0X0X0X0X0X0X0X0X0X0X0X0X0X0X0X0X0X0X0X0X0X0X0X0X0X0X0X0X0X0X0X0X0X0X0X0X0X0X0X0X0X0X0X0X0X0XcXbXbXbXbXbXbXbXbXbXbXbXbXbXbXbXbXbXbXbXbXbX1X1X^.^.r.r.h h r 8 8 8 * O O O O O O O + + % % : : , , < < < < 1 9 9 9 9 9 9 9 9 9 9 9 9 9 9 9 9 9 9 9 9 9 9 9 9 9 9 9 9 9 ",
"0X0X0X0X0X0X0X0X0X0X0X0X0X0X0X0X0X0X0X0X0X0X0X0XjXbXbXbXbXbXbXbXbXbXbXbXbXbXbXbXbXbXbXbXbXbXbXbXbXbXbXbXbXbXbXbXbXbXbXcX0X0X0X0X0X0X0X0X0X0X0X0X0X0X0X0X0X0X0X0X0X0X0X0X0X0X0X0X0XjXbXbXbXbXbXbXbXbXbXbXbXbXbXbXbXbXbXbXbXcX0X0X0X0X0X0X0X0X0X0X0X0X0X0X0X0X0X0X0X0X0X0X0X0X0X0X0X0X0X0X0X0X0X0X0X0X0X0X0X0X0X0X0X0X0X0X0X0X0X0X0X0X0X0X0X0X0X0X0X0X0X0X0X0X0X0X0X0X0X0X0X0X0X0X0XO O : 9 9 9 9 9 9 # O q O.Y ~ Y Y Y ` [ [ [ [ [ [ [ [ [ [ [ [ [ [ [ [ [ [ [ [ [ [ [ [ [ [ [ [ [ P n n F.F.F.a a d V.V.H.H.H.H.H.H.H.H.H.H.H.N.a a [.^...0.s.OXOXOXrXyXyXyXyXyXyXuXpXpXpXpXpXpXpXpXpXpXpXtX@XK...t t t t  ...e.e.e.y.y.y.e.e.....I.[.5X5X6.>.2.2.2.2.2.2.2.2.2.2.2.2.2.2.2.2.2.2.2.2.2.2.2.2.2.2.2.2.2.2.2.2.2.2.2.3.L.P.P.P.P.P.P.P.P.P.P.P.P.P.P.P.P.P.P.P.P.P.P.P.P.P.P.P.P.P.P.P.P.L.3.2.2.2.2.2.2.2.2.2.2.3.L.P.P.P.P.P.P.P.P.P.L.L.L.L.L.A.A.L.P.7.2.2.2.2.2.2.,.h |.|.fXfXfXlXlX1Xg 2.2.2.2.2.,.g *X5XR.I.0X0X0X0X0X0X0X0X0X0X0X0X0X0X0X0X0XjX0X0X5.a j |.H.H.H.H.H.H.H.H.H.N.a a a a l F.F.F.F.F.o.n n K L L L L L Y Y Y Y Y Y Y Y Y Y Y Y Y Y Y Y Y Y Y Y Y n n n R [ [ [ [ [ [ [ [ [ [ [ [ [ [ [ [ [ [ [ [ [ [ [ [ [ [ [ [ [ [ [ [ [ [ [ [ [ [ [ [ [ [ [ [ [ [ [ [ [ ` Y Y Y ; O O 9 9 9 9 9 : O O 0X0X0X0X0X0X0X0X0X0X0X0X0X0X0X0X0X0X0X0X0X0X0X0X0X0X0X0X0X0X0X0X0X0X0X0X0X0X0X0X0X0XjXbXbXbXbXbXbXbXbXbXbXbXbXbXbXbXbXbXbXbXbXjX0X0X0X0X0X0X0X0X0X0X0X0X0X0X0X0X0X0X0X0X0X0X0X0X0X0X0X0X0X0X0X0X0X0X0X0X0X0X0X0X0X0X0X0X0X0X0X0XcXbXbXbXbXbXbXbXbXbXbXbXbXbXbXbX1X^.^.^.r.:.:.r r 8 8 % % O O O O O O O + % % % : > > < < < < 1 1 9 9 9 9 9 9 9 9 9 9 9 9 9 9 9 9 9 9 9 9 9 9 9 9 9 9 9 9 9 9 9 < < < < : ",
"0X0X0X0X0X0X0X0X0X0X0X0X0X0X0X0X0X0X0X0X0X0X0X0XcXbXbXbXbXbXbXbXbXbXbXbXbXbXbXbXbXbXbXbXbXbXbXbXbXbXbXbXbXbXbXbXbXbXcXjX0X0X0X0X0X0X0X0X0X0X0X0X0X0X0X0X0X0X0X0X0X0X0X0X0X0X0X0XjXbXbXbXbXbXbXbXbXbXbXbXbXbXbXbXbXbXbXbXcXjX0X0X0X0X0X0X0X0X0X0X0X0X0X0X0X0X0X0X0X0X0X0X0X0X0X0X0X0X0X0X0X0X0X0X0X0X0X0X0X0X0X0X0X0X0X0X0X0X0X0X0X0X0X0X0X0X0X0X0X0X0X0X0X0X0X0X0X0X0X0X0X0X0X0X0XO O : 9 9 9 9 9 9 # O q O.Y Y Y Y Y ` [ [ [ [ [ [ [ [ [ [ [ [ [ [ [ [ [ [ [ [ [ [ [ [ [ [ [ [ [ P n n F.F.F.a a d V.V.H.H.H.H.H.H.H.H.H.H.H.N.a a [.9XS...0.s.OXOXOXrXyXyXyXyXyXyXuXpXpXpXpXpXpXpXpXpXpXpXpXtX@XoXK.y.....t t t t t t t t t ..y.I.[.5X5X6.>.2.2.2.2.2.2.2.2.2.2.2.2.2.2.2.2.2.2.2.2.2.2.2.2.2.2.2.2.2.2.2.2.2.2.3.L.P.P.P.P.P.P.P.P.P.P.P.P.P.P.P.P.P.P.P.P.P.P.P.P.P.P.P.P.P.P.P.P.P.7.2.2.2.2.2.2.2.2.2.2.2.7.L.L.L.P.P.P.P.L.A.A.A.A.T.T.[.`.T.A.i.2.2.2.2.2.2.2.,.g ZXZXAXAXAXAXAXzXg 2.2.2.2.2.,.g *X5XR.I.0X0X0X0X0X0X0X0X0X0X0X0X0X0X0X0X0XjXjX0X5.a l |.H.H.H.H.H.H.H.H.H.N.a a a a l F.F.F.F.F.o.n n K L L L L L Y Y Y Y Y Y Y Y Y Y Y Y Y Y Y Y Y Y Y Y Y n n n R [ [ [ [ [ [ [ [ [ [ [ [ [ [ [ [ [ [ [ [ [ [ [ [ [ [ [ [ [ [ [ [ [ [ [ [ [ [ [ [ [ [ [ [ [ [ [ [ [ ` Y Y Y ; O O 9 9 9 9 9 : O O 0X0X0X0X0X0X0X0X0X0X0X0X0X0X0X0X0X0X0X0X0X0X0X0X0X0X0X0X0X0X0X0X0X0X0X0X0X0X0X0X0XjXbXbXbXbXbXbXbXbXbXbXbXbXbXbXbXbXbXbXbXbXjX0X0X0X0X0X0X0X0X0X0X0X0X0X0X0X0X0X0X0X0X0X0X0X0X0X0X0X0X0X0X0X0X0X0X0X0X0X0X0X0X0X0X0X0X0X0X0X0XjXbXbXbXbXbXbXbXbX1X^.^.^.r.r.:.:.r 8 8 8 % O O O O O O O + + % % : : > > < < < < 9 9 9 9 9 9 9 9 9 9 9 9 9 9 9 9 9 9 9 9 9 9 9 9 9 9 9 9 9 9 9 9 9 < < < < : % % # # # # O ",
"0X0X0X0X0X0X0X0X0X0X0X0X0X0X0X0X0X0X0X0X0X0X0XcXbXbXbXbXbXbXbXbXbXbXbXbXbXbXbXbXbXbXbXbXbXbXbXbXbXbXbXbXbXbXbXbXbXbXjX0X0X0X0X0X0X0X0X0X0X0X0X0X0X0X0X0X0X0X0X0X0X0X0X0X0X0X0X0XcXbXbXbXbXbXbXbXbXbXbXbXbXbXbXbXbXbXbXcXjX0X0X0X0X0X0X0X0X0X0X0X0X0X0X0X0X0X0X0X0X0X0X0X0X0X0X0X0X0X0X0X0X0X0X0X0X0X0X0X0X0X0X0X0X0X0X0X0X0X0X0X0X0X0X0X0X0X0X0X0X0X0X0X0X0X0X0X0X0X0X0X0X0X0X0X0XO O : 9 9 9 9 9 9 # O q [ Y Y Y Y Y ` [ [ [ [ [ [ [ [ [ [ [ [ [ [ [ [ [ [ [ [ [ [ [ [ [ [ [ [ [ P n n F.F.F.a a d V.V.H.H.H.H.H.H.H.H.H.H.H.N.a a [.0X1X~.0.0.s.OXOXOXrXuXyXyXyXyXyXuXpXpXpXpXpXpXpXpXpXpXpXpXpXpXtXrX@X@XoXoXoXoXoXoXoXoXoX@XrXI.%X5X5X6.>.2.2.2.2.2.2.2.2.2.2.2.2.2.2.2.2.2.2.2.2.2.2.2.2.2.2.2.2.2.2.2.2.2.2.7.P.P.P.P.P.P.P.P.P.P.P.P.P.P.P.P.P.P.P.P.P.P.P.P.P.P.P.P.P.P.P.P.P.i.3.2.1.1.,.,.,.,.,.>.>.5.Z.A.Z.T.A.P.P.P.A.T.dXlXlXnXnXVXVXnX`.>.,.2.2.2.2.2.2.>.g AXAXAXAXAXAXAXzXg 2.2.2.2.2.,.g *X5XR.I.0X0X0X0X0X0X0X0X0X0X0X0X0X0X0X0X0X0X0X0X5.a l |.H.H.H.H.H.H.H.H.H.l a a a a l F.F.F.F.F.o.n n K L L L L L Y Y Y Y Y Y Y Y Y Y Y Y Y Y Y Y Y Y Y Y Y n n n R [ [ [ [ [ [ [ [ [ [ [ [ [ [ [ [ [ [ [ [ [ [ [ [ [ [ [ [ [ [ [ [ [ [ [ [ [ [ [ [ [ [ [ [ [ [ [ [ [ ` Y Y Y ; O O 9 9 9 9 9 : O O 0X0X0X0X0X0X0X0X0X0X0X0X0X0X0X0X0X0X0X0X0X0X0X0X0X0X0X0X0X0X0X0X0X0X0X0X0X0X0X0XjXbXbXbXbXbXbXbXbXbXbXbXbXbXbXbXbXbXbXbXbXcX0X0X0X0X0X0X0X0X0X0X0X0X0X0X0X0X0X0X0X0X0X0X0X0X0X0X0X0X0X0X0X0X0X0X0X0X0X0X0X0X0X0X0X0X0X0X0X0XjXbX1X1X^.^.^.r.:.:.r 8 8 8 * * O O O O O O O + % % % : > > < < < < 1 1 9 9 9 9 9 9 9 9 9 9 9 9 9 9 9 9 9 9 9 9 9 9 9 9 9 9 9 9 9 9 9 9 1 < < < : % % # # # # O O O O O O O O ",
"0X0X0X0X0X0X0X0X0X0X0X0X0X0X0X0X0X0X0X0X0X0XjXbXbXbXbXbXbXbXbXbXbXbXbXbXbXbXbXbXbXbXbXbXbXbXbXbXbXbXbXbXbXbXbXbXbXcX0X0X0X0X0X0X0X0X0X0X0X0X0X0X0X0X0X0X0X0X0X0X0X0X0X0X0X0X0XcXbXbXbXbXbXbXbXbXbXbXbXbXbXbXbXbXbXbXbXjX0X0X0X0X0X0X0X0X0X0X0X0X0X0X0X0X0X0X0X0X0X0X0X0X0X0X0X0X0X0X0X0X0X0X0X0X0X0X0X0X0X0X0X0X0X0X0X0X0X0X0X0X0X0X0X0X0X0X0X0X0X0X0X0X0X0X0X0X0X0X0X0X0X0X0X0X0XO O : 9 9 9 9 9 9 # O q Y Y Y Y Y Y ` [ [ [ [ [ [ [ [ [ [ [ [ [ [ [ [ [ [ [ [ [ [ [ [ [ [ [ [ [ P n n F.F.F.a a d V.V.H.H.H.H.H.H.H.H.H.H.H.N.a a 3X0X0X9XJ...0.s.OXOXOXrXyXyXyXyXyXyXuXpXpXpXpXpXpXpXpXpXpXpXpXpXpXpXpXpXpXpXpXpXpXpXpXpXpXpXpXI.%X5X5X6.h 2.2.2.2.2.2.2.2.2.2.2.2.2.2.2.2.2.2.2.2.2.2.2.2.2.2.2.2.2.2.2.2.2.3.L.P.P.P.P.P.P.P.P.P.P.P.P.P.P.P.P.P.P.P.P.P.P.P.P.P.P.P.P.P.P.L.A.Z.,.>.>.>.>.h Z.Z.T.T.T.|.1XlXlXlXfXZ.P.P.P.A. XZXAXAXAXAXAXAXAXVXT.h 1.2.2.2.2.1.h g AXAXAXAXAXAXAXzXg 2.2.2.2.2.>.g *X5XR.I.0X0X0X0X0X0X0X0X0X0X0X0X0X0X0X0X0X0X0X0X5.a l |.H.H.H.H.H.H.H.H.H.j a a a a l F.F.F.F.F.o.n n K L L L L L Y Y Y Y Y Y Y Y Y Y Y Y Y Y Y Y Y Y Y Y Y n n n R [ [ [ [ [ [ [ [ [ [ [ [ [ [ [ [ [ [ [ [ [ [ [ [ [ [ [ [ [ [ [ [ [ [ [ [ [ [ [ [ [ [ [ [ [ [ [ [ [ ` Y Y Y ; O O 9 9 9 9 9 : O O 0X0X0X0X0X0X0X0X0X0X0X0X0X0X0X0X0X0X0X0X0X0X0X0X0X0X0X0X0X0X0X0X0X0X0X0X0X0X0XjXcXbXbXbXbXbXbXbXbXbXbXbXbXbXbXbXbXbXbXbXcXjX0X0X0X0X0X0X0X0X0X0X0X0X0X0X0X0X0X0X0X0X0X0X0X0X0X0X0X0X0X0X0XjX0X0X0X0X0X0X0X0X0X0X0X;XR.R.R.r.:.:.y y 8 8 8 * O O O O O O O + % % % : > > > < < < < 1 9 9 9 9 9 9 9 9 9 9 9 9 9 9 9 9 9 9 9 9 9 9 9 9 9 9 9 9 9 9 9 9 9 < < < < : % % # # # # O O O O O O O O @ - - ; ; A A ",
"0X0X0X0X0X0X0X0X0X0X0X0X0X0X0X0X0X0X0X0X0XjXbXbXbXbXbXbXbXbXbXbXbXbXbXbXbXbXbXbXbXbXbXbXbXbXbXbXbXbXbXbXbXbXbXbXcXjX0X0X0X0X0X0X0X0X0X0X0X0X0X0X0X0X0X0X0X0X0X0X0X0X0X0X0X0XjXbXbXbXbXbXbXbXbXbXbXbXbXbXbXbXbXbXbXbXcX0X0X0X0X0X0X0X0X0X0X0X0X0X0X0X0X0X0X0X0X0X0X0X0X0X0X0X0X0X0X0X0X0X0X0X0X0X0X0X0X0X0X0X0X0X0X0X0X0X0X0X0X0X0X0X0X0X0X0X0X0X0X0X0X0X0X0X0X0X0X0X0X0X0X0X0X0X0XO O : 9 9 9 9 9 9 # O q Y Y Y Y Y Y ` [ [ [ [ [ [ [ [ [ [ [ [ [ [ [ [ [ [ [ [ [ [ [ [ [ [ [ [ [ P n n F.F.F.a a d V.V.H.H.H.H.H.H.H.H.H.H.H.N.a a 0X0X0X0X1XS...0.s.OXOXOXrXyXyXyXyXyXyXuXpXpXpXpXpXpXpXpXpXpXpXpXpXpXpXpXpXpXpXpXpXpXpXpXpXpXpXI.%X5X5X6.>.2.2.2.2.2.2.2.2.2.2.2.2.2.2.2.2.2.2.2.2.2.2.2.2.2.2.2.2.2.2.2.2.3.L.P.P.P.P.P.P.P.P.P.P.P.P.P.P.P.P.L.L.L.L.L.P.P.P.P.P.P.P.P.P.L.Z.`._.T.|.|.fXfXfXlXlXBXBXBXZXZXAXAXAXBXZ.P.P.L.A.dXAXAXAXAXAXAXAXAXAXBXT.>.2.2.2.2.1.g g AXAXAXAXAXAXAXzXg 2.2.2.2.2.,.g *X5XR.I.0X0X0X0X0X0X0X0X0X0X0X0X0X0X0X0X0X0X0X0Xg a l |.H.H.H.H.H.H.H.H.H.j a a a a l F.F.F.F.F.o.n n K L L L L L Y Y Y Y Y Y Y Y Y Y Y Y Y Y Y Y Y Y Y Y Y n n n R [ [ [ [ [ [ [ [ [ [ [ [ [ [ [ [ [ [ [ [ [ [ [ [ [ [ [ [ [ [ [ [ [ [ [ [ [ [ [ [ [ [ [ [ [ [ [ [ [ ` Y Y Y ; O O 9 9 9 9 9 : O O 0X0X0X0X0X0X0X0X0X0X0X0X0X0X0X0X0X0X0X0X0X0X0X0X0X0X0X0X0X0X0X0X0X0X0X0X0X0X0XcXbXbXbXbXbXbXbXbXbXbXbXbXbXbXbXbXbXbXbXcXjX0X0X0X0X0X0X0X0X0X0X0X0X0X0X0X0X0X0X0X0X0X0X0X0X0X0X0X0X0X0X0X0XjXjX0X0X;X;XR.R.r.r.y y r 8 8 8 % O O O O O O O + + $ $ & & > > < < < < 1 9 9 9 9 9 9 9 9 9 9 9 9 9 9 9 9 9 9 9 9 9 9 9 9 9 9 9 9 9 9 9 9 9 9 1 < < < : % % # # # # O O O O O O O O @ - - ; ; A A S P P U U Y Y ",
"0X0X0X0X0X0X0X0X0X0X0X0X0X0X0X0X0X0X0X0X0XcXbXbXbXbXbXbXbXbXbXbXbXbXbXbXbXbXbXbXbXbXbXbXbXbXbXbXbXbXbXbXbXbXbXcXjX0X0X0X0X0X0X0X0X0X0X0X0X0X0X0X0X0X0X0X0X0X0X0X0X0X0X0X0XjXbXbXbXbXbXbXbXbXbXbXbXbXbXbXbXbXbXbXbXcXjX0X0X0X0X0X0X0X0X0X0X0X0X0X0X0X0X0X0X0X0X0X0X0X0X0X0X0X0X0X0X0X0X0X0X0X0X0X0X0X0X0X0X0X0X0X0X0X0X0X0X0X0X0X0X0X0X0X0X0X0X0X0X0X0X0X0X0X0X0X0X0X0X0X0X0X0X0X0XO O : 9 9 9 9 9 9 # O q Y Y Y Y Y Y ` [ [ [ [ [ [ [ [ [ [ [ [ [ [ [ [ [ [ [ [ [ [ [ [ [ [ [ [ [ P n n F.F.F.a a d V.V.H.H.H.H.H.H.H.H.H.H.H.N.a a 0X0X0X0X0X1X~...0.t.XXOXOXrXyXyXyXyXyXyXuXuXpXpXpXpXpXpXpXpXpXpXpXpXpXpXpXpXpXpXpXpXpXpXpXpXpXI.%X5X5X6.>.2.2.2.2.2.2.2.2.2.2.2.2.2.2.2.2.2.2.2.2.2.2.2.2.2.2.2.2.2.2.2.2.i.P.P.P.P.P.P.P.L.L.L.L.L.A.A.A.A.A.A.A.A.A.A.A.L.P.P.P.P.P.P.P.L.Z.VXBXBXZXZXAXAXAXAXAXAXAXAXAXAXAXAXAXBXZ.P.P.I.Z.dXAXAXAXAXAXAXAXAXAXAXBXZ.,.2.2.2.1.g g AXAXAXAXAXAXAXzXg 2.2.2.2.2.,.g *X5XR.I.0X0X0X0X0X0X0X0X0X0X0X0X0X0X0X0X0X0X0X0Xa a l |.H.H.H.H.H.H.H.H.H.j a a a a l F.F.F.F.F.o.n n K L L L L L Y Y Y Y Y Y Y Y Y Y Y Y Y Y Y Y Y Y Y Y Y n n n R [ [ [ [ [ [ [ [ [ [ [ [ [ [ [ [ [ [ [ [ [ [ [ [ [ [ [ [ [ [ [ [ [ [ [ [ [ [ [ [ [ [ [ [ [ [ [ [ [ ` Y Y Y ; O O 9 9 9 9 9 : O O 0X0X0X0X0X0X0X0X0X0X0X0X0X0X0X0X0X0X0X0X0X0X0X0X0X0X0X0X0X0X0X0X0X0X0X0X0X0XcXbXbXbXbXbXbXbXbXbXbXbXbXbXbXbXbXbXbXbXcXjX0X0X0X0X0X0X0X0X0X0X0X0X0X0X0X0X0X0X0X0X0X0X0X0X0X0X0X0X0X0X;XR.R.R.r.y y r r 8 8 % % O O O O O O O + % % % & > > < < < < 1 1 9 9 9 9 9 9 9 9 9 9 9 9 9 9 9 9 9 9 9 9 9 9 9 9 9 9 9 9 9 9 9 9 9 9 < < < < : % % # # # # O O O O O O O O @ - - ; ; A A S S P U U Y Y Y Y Y Y Y Y Y ",
"0X0X0X0X0X0X0X0X0X0X0X0X0X0X0X0X0X0X0X0XjXbXbXbXbXbXbXbXbXbXbXbXbXbXbXbXbXbXbXbXbXbXbXbXbXbXbXbXbXbXbXbXbXbXbXjX0X0X0X0X0X0X0X0X0X0X0X0X0X0X0X0X0X0X0X0X0X0X0X0X0X0X0X0X0XcXbXbXbXbXbXbXbXbXbXbXbXbXbXbXbXbXbXbXbXjX0X0X0X0X0X0X0X0X0X0X0X0X0X0X0X0X0X0X0X0X0X0X0X0X0X0X0X0X0X0X0X0X0X0X0X0X0X0X0X0X0X0X0X0X0X0X0X0X0X0X0X0X0X0X0X0X0X0X0X0X0X0X0X0X0X0X0X0X0X0X0X0X0X0X0X0X0X0X0XO O : 9 9 9 9 9 9 # O q Y Y Y Y Y Y ` [ [ [ [ [ [ [ [ [ [ [ [ [ [ [ [ [ [ [ [ [ [ [ [ [ [ [ [ [ P n n F.F.F.a a d V.V.H.H.H.H.H.H.H.H.H.H.H.l a a 0X0X0X0X0X0X9X~.0...q.s.OXOXrXyXyXyXyXyXyXuXuXuXpXpXpXpXpXpXpXpXpXpXpXpXpXpXpXpXpXpXpXpXpXpXpXI.[.5X5X6.>.2.2.2.2.2.2.2.2.2.2.2.2.2.2.2.2.2.2.2.2.2.2.2.2.2.2.2.2.2.2.2.7.P.P.P.P.I.A.A.A.A.A.Z.T.T.`.`.`.dXdXkXkXkXkXdXT.A.L.P.P.P.P.P.P.I.5.AXAXAXAXAXAXAXAXAXAXAXAXAXAXAXAXAXAXBXZ.P.P.A.Z.dXAXAXAXAXAXAXAXAXAXAXAXlXh ,.2.2.1.g g AXAXAXAXAXAXAXzXg 2.2.2.2.2.,.g *X5XR.I.0X0X0X0X0X0X0X0X0X0X0X0X0X0X0X0X0X0X0X0Xa a l |.H.H.H.H.H.H.H.H.H.j a a a a N.F.F.F.F.F...n n K L L L L L Y Y Y Y Y Y Y Y Y Y Y Y Y Y Y Y Y Y Y Y Y n n n R [ [ [ [ [ [ [ [ [ [ [ [ [ [ [ [ [ [ [ [ [ [ [ [ [ [ [ [ [ [ [ [ [ [ [ [ [ [ [ [ [ [ [ [ [ [ [ [ [ ` Y Y Y ; O O 9 9 9 9 9 : O O 0X0X0X0X0X0X0X0X0X0X0X0X0X0X0X0X0X0X0X0X0X0X0X0X0X0X0X0X0X0X0X0X0X0X0X0X0XcXbXbXbXbXbXbXbXbXbXbXbXbXbXbXbXbXbXbXbXcXjX0X0X0X0X0X0X0X0X0X0X0X0X0X0X0X0X0X0X0X0X0X0X0X;XR.R.R.r.r.:.:.r 8 8 8 % O O O O O O O + + % % & & > > < < < < 1 9 9 9 9 9 9 9 9 9 9 9 9 9 9 9 9 9 9 9 9 9 9 9 9 9 9 9 9 9 9 9 9 9 9 9 < < < < : % % $ # # # + O O O O O O O @ - - ; ; A A S P P U U Y Y Y Y Y Y Y Y Y Y Y Y Y Y Y Y ",
"0X0X0X0X0X0X0X0X0X0X0X0X0X0X0X0X0X0X0XjXbXbXbXbXbXbXbXbXbXbXbXbXbXbXbXbXbXbXbXbXbXbXbXbXbXbXbXbXbXbXbXbXbXbXcX0X0X0X0X0X0X0X0X0X0X0X0X0X0X0X0X0X0X0X0X0X0X0X0X0X0X0X0X0XjXbXbXbXbXbXbXbXbXbXbXbXbXbXbXbXbXbXbXbXjX0X0X0X0X0X0X0X0X0X0X0X0X0X0X0X0X0X0X0X0X0X0X0X0X0X0X0X0X0X0X0X0X0X0X0X0X0X0X0X0X0X0X0X0X0X0X0X0X0X0X0X0X0X0X0X0X0X0X0X0X0X0X0X0X0X0X0X0X0X0X0X0X0X0X0X0X0X0X0X0XO O : 9 9 9 9 9 9 # O q Y Y Y Y Y Y ` [ [ [ [ [ [ [ [ [ [ [ [ [ [ [ [ [ [ [ [ [ [ [ [ [ [ [ [ [ P n n F.F.F.a a d V.V.H.H.H.H.H.H.H.H.H.H.H.N.a a 0X0X0X0X0X0X0X9X;XS...0.t.XXOXOXrXyXyXyXyXyXyXuXuXuXpXpXpXpXpXpXpXpXpXpXpXpXpXpXpXpXpXpXpX@XoXI.[.5X5X6.>.2.2.2.2.2.2.2.2.2.2.2.2.2.2.2.2.1.1.,.1.1.1.2.2.2.2.2.2.2.2.3.L.P.P.P.L.T.`.dXdXkXkXkXnXnXVXVXVXZXZXAXAXAXAXZXnXdXT.I.P.P.P.P.P.Z.h AXAXAXAXAXAXAXAXAXAXAXAXAXAXAXAXAXAXBXZ.P.P.A.Z.dXAXAXAXAXAXAXAXAXAXAXAXAX|.h ,.2.1.g g AXAXAXAXAXAXAXzXg 2.2.2.2.2.,.g *X5XR.I.0X0X0X0X0X0X0X0X0X0X0X0X0X0X0X0X0X0X0X0Xa a l |.H.H.H.H.H.H.H.H.H.j a a a a N.F.F.F.F.F. .n n K L L L L L Y Y Y Y Y Y Y Y Y Y Y Y Y Y Y Y Y Y Y Y Y n n n R [ [ [ [ [ [ [ [ [ [ [ [ [ [ [ [ [ [ [ [ [ [ [ [ [ [ [ [ [ [ [ [ [ [ [ [ [ [ [ [ [ [ [ [ [ [ [ [ [ ` Y Y Y ; O O 9 9 9 9 9 : O O 0X0X0X0X0X0X0X0X0X0X0X0X0X0X0X0X0X0X0X0X0X0X0X0X0X0X0X0X0X0X0X0X0X0X0X0XjXbXbXbXbXbXbXbXbXbXbXbXbXbXbXbXbXbXbXbXcXjX0X0X0X0X0X0X0X0X0X0X0X0X0X0X0X0X;X;XR.R.R.r.:.:.r 8 8 8 % % O O O O O O O + % % % & > > < < < < 1 1 9 9 9 9 9 9 9 9 9 9 9 9 9 9 9 9 9 9 9 9 9 9 9 9 9 9 9 9 9 9 9 9 9 9 9 < < < < : % % $ # # # O O O O O O O O @ - - ; ; A A S P P U U Y Y Y Y Y Y Y Y Y Y Y Y Y Y Y Y Y Y Y Y Y Y Y ",
"0X0X0X0X0X0X0X0X0X0X0X0X0X0X0X0X0X0X0XcXbXbXbXbXbXbXbXbXbXbXbXbXbXbXbXbXbXbXbXbXbXbXbXbXbXbXbXbXbXbXbXbXbXcXjX0X0X0X0X0X0X0X0X0X0X0X0X0X0X0X0X0X0X0X0X0X0X0X0X0X0X0X0XjXbXbXbXbXbXbXbXbXbXbXbXbXbXbXbXbXbXbXbXcX0X0X0X0X0X0X0X0X0X0X0X0X0X0X0X0X0X0X0X0X0X0X0X0X0X0X0X0X0X0X0X0X0X0X0X0X0X0X0X0X0X0X0X0X0X0X0X0X0X0X0X0X0X0X0X0X0X0X0X0X0X0X0X0X0X0X0X0X0X0X0X0X0X0X0X0X0X0X0X0X0XO O : 9 9 9 9 9 9 # O q Y Y Y Y Y Y ` [ [ [ [ [ [ [ [ [ [ [ [ [ [ [ [ [ [ [ [ [ [ [ [ [ [ [ [ [ P n n F.F.F.a a j V.V.H.H.H.H.H.H.H.H.H.H.H.N.a a 0X0X0X0X0X0X0X0X0X1X~.0...q.t.XXOXOXrXyXyXyXyXyXyXuXuXpXpXpXpXpXpXpXpXpXpXpXpXpXpXpXpX@X@Xe...I.[.5X5X6.>.2.2.2.2.2.2.2.2.2.2.2.2.2.,.,.>.>.>.h >.>.>.,.,.1.2.2.2.2.3.L.P.P.P.P.I._.VXZXZXAXAXAXAXAXAXAXAXAXAXAXAXAXAXAXAXZXnXT.L.P.P.P.P.5.g AXAXAXAXAXAXAXAXAXAXAXAXAXAXAXAXAXAXBXZ.P.P.A.Z.dXAXAXAXAXAXAXAXAXAXAXAXAXZXT.h ,.1.g g AXAXAXAXAXAXAXzXh 2.2.2.2.2.,.g *X5XR.I.0X0X0X0X0X0X0X0X0X0X0X0X0X0X0X0X0X0X0X0Xa a l |.H.H.H.H.H.H.H.H.H.j a a a a N.F.F.F.F.F. .n n L L L L L L Y Y Y Y Y Y Y Y Y Y Y Y Y Y Y Y Y Y Y Y Y n n n R [ [ [ [ [ [ [ [ [ [ [ [ [ [ [ [ [ [ [ [ [ [ [ [ [ [ [ [ [ [ [ [ [ [ [ [ [ [ [ [ [ [ [ [ [ [ [ [ [ _ Y Y Y ; O O 9 9 9 9 9 : O O 0X0X0X0X0X0X0X0X0X0X0X0X0X0X0X0X0X0X0X0X0X0X0X0X0X0X0X0X0X0X0X0X0X0X0XjXbXbXbXbXbXbXbXbXbXbXbXbXbXbXbXbXbXbXbXbXjX0X0X0X0X0X0X0X0X0X0X;XR.R.R.r.:.y r r 8 8 8 % O O O O O O O + + $ % & & > > < < < < 1 9 9 9 9 9 9 9 9 9 9 9 9 9 9 9 9 9 9 9 9 9 9 9 9 9 9 9 9 9 9 9 9 9 9 9 9 < < < < : % % $ # # # O O O O O O O O @ - - ; ; A A S P P U U Y Y Y Y Y Y Y Y Y Y Y Y Y Y Y Y Y Y ~ Y Y Y Y Y Y Y Y Y Y Y ",
"0X0X0X0X0X0X0X0X0X0X0X0X0X0X0X0X0X0XjXbXbXbXbXbXbXbXbXbXbXbXbXbXbXbXbXbXbXbXbXbXbXbXbXbXbXbXbXbXbXbXbXbXbXjX0X0X0X0X0X0X0X0X0X0X0X0X0X0X0X0X0X0X0X0X0X0X0X0X0X0X0X0X0XcXbXbXbXbXbXbXbXbXbXbXbXbXbXbXbXbXbXbXcXjX0X0X0X0X0X0X0X0X0X0X0X0X0X0X0X0X0X0X0X0X0X0X0X0X0X0X0X0X0X0X0X0X0X0X0X0X0X0X0X0X0X0X0X0X0X0X0X0X0X0X0X0X0X0X0X0X0X0X0X0X0X0X0X0X0X0X0X0X0X0X0X0X0X0X0X0X0X0X0X0X0XO O : 9 9 9 9 9 9 # O q Y Y Y Y Y Y ` [ [ [ [ [ [ [ [ [ [ [ [ [ [ [ [ [ [ [ [ [ [ [ [ [ [ [ [ [ P n n F.F.F.a a j V.V.H.H.H.H.H.H.H.H.H.H.H.N.a a 0X0X0X0X0X0X0X0X0X0X9X;XS.....q.t.XXOXOXrXyXyXyXyXyXyXuXuXuXuXuXpXpXpXpXpXpXpXpXpX@XoXe.e.0.S.I.[.5X5X6.>.2.2.2.2.2.2.2.2.2.2.2.,.>.h T.|.fXfXfXfXfX|.|.Z.>.,.2.2.2.7.P.P.P.P.P.A._.AXAXAXAXAXAXAXAXAXAXAXAXAXAXAXAXAXAXAXAXAXfXZ.L.P.P.i.h g AXAXAXAXAXAXAXAXAXAXAXAXVXVXzXzXzXfX1XZ.P.P.A.Z.dXAXAXAXAXAXAXAXAXAXAXAXAXAXBXT.h ,.g g AXAXAXAXAXAXAXzXh 2.2.2.2.2.,.g *X5XR.I.0X0X0X0X0X0X0X0X0X0X0X0X0X0X0X0X0X0X0X0Xa a l |.H.H.H.H.H.H.H.H.H.j a a a a N.F.F.F.F.F. .n n L L L L L L Y Y Y Y Y Y Y Y Y Y Y Y Y Y Y Y Y Y Y Y Y n n n R [ [ [ [ [ [ [ [ [ [ [ [ [ [ [ [ [ [ [ [ [ [ [ [ [ [ [ [ [ [ [ [ [ [ [ [ [ [ [ [ [ [ [ [ [ [ [ [ [ Y Y Y Y ; O O 9 9 9 9 9 : O O 0X0X0X0X0X0X0X0X0X0X0X0X0X0X0X0X0X0X0X0X0X0X0X0X0X0X0X0X0X0X0X0X0X0XjXbXbXbXbXbXbXbXbXbXbXbXbXbXbXbXbXbXbXbXbXjX0X0X0X;X;XR.R.r.r.:.:.r 8 8 8 % O O O O O O O O + $ % % & > > < < < < 1 1 9 9 9 9 9 9 9 9 9 9 9 9 9 9 9 9 9 9 9 9 9 9 9 9 9 9 9 9 9 9 9 9 9 9 9 9 < < < < : % % $ # # # O O O O O O O O @ - - ; ; A A S P P U U Y Y Y Y Y Y Y Y Y Y Y Y Y Y Y Y Y Y Y Y Y Y Y Y Y Y Y Y Y Y Y Y Y Y Y Y Y ",
"0X0X0X0X0X0X0X0X0X0X0X0X0X0X0X0X0XjXbXbXbXbXbXbXbXbXbXbXbXbXbXbXbXbXbXbXbXbXbXbXbXbXbXbXbXbXbXbXbXbXbXbXcX0X0X0X0X0X0X0X0X0X0X0X0X0X0X0X0X0X0X0X0X0X0X0X0X0X0X0X0X0XcXbXbXbXbXbXbXbXbXbXbXbXbXbXbXbXbXbXbXbXjX0X0X0X0X0X0X0X0X0X0X0X0X0X0X0X0X0X0X0X0X0X0X0X0X0X0X0X0X0X0X0X0X0X0X0X0X0X0X0X0X0X0X0X0X0X0X0X0X0X0X0X0X0X0X0X0X0X0X0X0X0X0X0X0X0X0X0X0X0X0X0X0X0X0X0X0X0X0X0X0X0X0XO O : 9 9 9 9 9 9 # O q Y Y Y Y Y Y ` [ [ [ [ [ [ [ [ [ [ [ [ [ [ [ [ [ [ [ [ [ [ [ [ [ [ [ [ [ P n n F.F.F.a a d V.V.H.H.H.H.H.H.H.H.H.H.H.l a a 0X0X0X0X0X0X0X0X0X0X0X0X~.....X...q.y.t.oXOXrXrXyXuXyXyXyXyXuXuXuXuXuXuXuXuXXXXXK.e.X...S.;X1XI.[.5X5X6.h 2.2.2.2.2.2.2.2.2.,.>.Z.T.fXBXZXAXAXAXAXAXZXZXlX|.Z.>.1.3.L.P.P.P.P.L.Z._.AXAXAXAXAXAXAXAXAXAXAXAXAXAXAXAXAXAXAXAXAXZX`.A.P.L.3.g g AXAXAXAXAXAXAXAXkX|.|.|._._.T.T.T.G.G.I.P.P.A.Z.dXAXAXAXAXAXAXAXAXAXAXAXAXAXAXBXT.h g g AXAXAXAXAXAXAXzXg 2.2.2.2.2.,.g *X5XR.I.0X0X0X0X0X0X0X0X0X0X0X0X0X0X0X0X0X0X0XjXa a l |.H.H.H.H.H.H.H.H.H.j a a a a N.F.F.F.F.F. .n n L L L L L L Y Y Y Y Y Y Y Y Y Y Y Y Y Y Y Y Y Y Y Y Y n n n R [ [ [ [ [ [ [ [ [ [ [ [ [ [ [ [ [ [ [ [ [ [ [ [ [ [ [ [ [ [ [ [ [ [ [ [ [ [ [ [ [ [ [ [ [ [ [ [ [ Y Y Y Y ; O O 9 9 9 9 9 : O O 0X0X0X0X0X0X0X0X0X0X0X0X0X0X0X0X0X0X0X0X0X0X0X0X0X0X0X0X0X0X0X0X0XjXbXbXbXbXbXbXbXbXbXbXbXbXbXbXbXbXbXbX1X^.E.R.r.:.:.r r 8 8 % % O O O O O O O + % % % & > > > < < < < 1 9 9 9 9 9 9 9 9 9 9 9 9 9 9 9 9 9 9 9 9 9 9 9 9 9 9 9 9 9 9 9 9 9 9 9 9 9 < < < < : % % $ # # # O O O O O O O O @ - - ; ; A A S P P U U Y Y Y Y Y Y Y Y Y Y Y Y Y Y Y Y Y Y Y Y Y Y Y Y Y Y Y Y Y Y Y Y Y Y Y Y Y Y Y Y Y Y Y Y ",
"0X0X0X0X0X0X0X0X0X0X0X0X0X0X0X0XjXcXbXbXbXbXbXbXbXbXbXbXbXbXbXbXbXbXbXbXbXbXbXbXbXbXbXbXbXbXbXbXbXbXbXcXjX0X0X0X0X0X0X0X0X0X0X0X0X0X0X0X0X0X0X0X0X0X0X0X0X0X0X0X0XjXbXbXbXbXbXbXbXbXbXbXbXbXbXbXbXbXbXbXbXcX0X0X0X0X0X0X0X0X0X0X0X0X0X0X0X0X0X0X0X0X0X0X0X0X0X0X0X0X0X0X0X0X0X0X0X0X0X0X0X0X0X0X0X0X0X0X0X0X0X0X0X0X0X0X0X0X0X0X0X0X0X0X0X0X0X0X0X0X0X0X0X0X0X0X0X0X0X0X0X0X0X0X0XO O : 9 9 9 9 9 9 # O q Y Y Y Y Y Y ` [ [ [ [ [ [ [ [ [ [ [ [ [ [ [ [ [ [ [ [ [ [ [ [ [ [ [ [ [ P n n F.F.F.a a f V.V.H.H.H.H.H.H.H.H.H.H.H.j a a 0X0X0X0X0XjX0X0X0X0X0X0XS...t.oXt.X.....q.e.y.u.u.oXoXOXOXOXOXOXXXXXXXQ.u.u.e.e...0.S.^.1X0X0XA.[.5X5X6.h 2.2.2.2.2.2.2.2.,.h T.lXBXAXAXAXAXAXAXAXAXAXAXAXZXlXT.>.L.P.P.P.P.P.L.Z._.AXAXAXAXAXAXAXAXAXAXAXAXAXAXAXAXAXAXAXAXAXAXlXZ.P.7.2.g g AXAXAXAXAXAXAXAXG.Z.Z.Z.Z.Z.Z.Z.Z.Z.Z.L.P.P.A.Z.dXAXAXAXAXAXAXAXAXAXAXAXAXAXAXAXBXZ.g g AXAXAXAXAXAXAXzXg 2.2.2.2.2.>.g *X5XR.I.0X0X0X0X0X0X0X0X0X0X0X0X0X0X0X0X0X0X0XjXa a l |.H.H.H.H.H.H.H.H.H.j a a a a N.F.F.F.F.F. .n n L L L L L L Y Y Y Y Y Y Y Y Y Y Y Y Y Y Y Y Y Y Y Y Y n n n R [ [ [ [ [ [ [ [ [ [ [ [ [ [ [ [ [ [ [ [ [ [ [ [ [ [ [ [ [ [ [ [ [ [ [ [ [ [ [ [ [ [ [ [ [ [ [ [ ` Y Y Y Y ; O O 9 9 9 9 9 : O O 0X0X0X0X0X0X0X0X0X0X0X0X0X0X0X0X0X0X0X0X0X0X0X0X0X0X0X0X0X0X0X0XjXcXbXbXbXbXbXbXbXbXbXbX1X^.^.^.r.:.:.:.y 8 8 8 % O O O O O O O + + % % & & > > < < < < 1 9 9 9 9 9 9 9 9 9 9 9 9 9 9 9 9 9 9 9 9 9 9 9 9 9 9 9 9 9 9 9 9 9 9 9 9 9 9 < < < < : % & $ # # # O O O O O O O O @ - - ; ; A A S S S U U Y Y Y Y Y Y Y Y Y Y Y Y Y Y Y Y Y Y Y Y Y Y Y Y Y ~ Y Y Y Y Y Y Y Y Y Y Y Y Y Y Y Y Y Y Y Y Y Y Y ` ` ",
"0X0X0X0X0X0X0X0X0X0X0X0X0X0X0X0XcXbXbXbXbXbXbXbXbXbXbXbXbXbXbXbXbXbXbXbXbXbXbXbXbXbXbXbXbXbXbXbXbXbXbXjX0X0X0X0X0X0X0X0X0X0X0X0X0X0X0X0X0X0X0X0X0X0X0X0X0X0X0X0XjXbXbXbXbXbXbXbXbXbXbXbXbXbXbXbXbXbXbXbXcXjX0X0X0X0X0X0X0X0X0X0X0X0X0X0X0X0X0X0X0X0X0X0X0X0X0X0X0X0X0X0X0X0X0X0X0X0X0X0X0X0X0X0X0X0X0X0X0X0X0X0X0X0X0X0X0X0X0X0X0X0X0X0X0X0X0X0X0X0X0X0X0X0X0X0X0X0X0X0X0X0X0X0X0XO O : 9 9 9 9 9 9 # O q Y Y Y Y Y Y ` [ [ [ [ [ [ [ [ [ [ [ [ [ [ [ [ [ [ [ [ [ [ [ [ [ [ [ [ [ P n n F.F.F.a a d V.V.H.H.H.H.H.H.H.H.H.H.H.j a a 0X0X0X0X0X0X0X0X0X0X0X0Xe...oXOXOXs.s.t.X.X.......q.q.y.y.y.y.y.e.e.e.X.....S.S.^.;X1X0X0X0X0XI.[.5X5X6.h 2.2.2.2.2.2.2.,.h `.BXAXAXAXAXAXAXAXAXAXAXAXAXAXAXAXBX_.Z.L.P.P.P.P.L.Z._.AXAXAXAXAXAXAXAXAXAXVXVXAXAXAXAXAXAXAXAXAXAXZXZ.i.3.2.g g AXAXAXAXAXAXAXAXZ.Z.Z.Z.Z.Z.Z.Z.Z.Z.Z.I.P.P.A.Z.dXAXAXAXAXAXAXAXAXAXAXAXAXAXAXAXAXlXg g AXAXAXAXAXAXAXzXg 2.2.2.2.2.,.g *X5XR.I.0X0X0X0X0X0X0X0X0X0X0X0X0X0X0X0X0X0X0X0Xa a N.|.H.H.H.H.H.H.H.H.H.j a a a a N.F.F.F.F.F. .n n L L L L L L Y Y Y Y Y Y Y Y Y Y Y Y Y Y Y Y Y Y Y Y Y n n n R [ [ [ [ [ [ [ [ [ [ [ [ [ [ [ [ [ [ [ [ [ [ [ [ [ [ [ [ [ [ [ [ [ [ [ [ [ [ [ [ [ [ [ [ [ [ [ [ ` Y Y Y Y ; O O 9 9 9 9 9 : O O 0X0X0X0X0X0X0X0X0X0X0X0X0X0X0X0X0X0X0X0X0X0X0X0X0X0X0X0X0X0X0X0XcXbXbXbX1X1X^.^.r.r.:.:.y 8 8 8 * O O O O O O O O + % % % & > > < < < < 1 1 9 9 9 9 9 9 9 9 9 9 9 9 9 9 9 9 9 9 9 9 9 9 9 9 9 9 9 9 9 9 9 9 9 9 9 9 9 9 < < < < : % % $ # # # O O O O O O O O @ - - ; ; A A S S S U U Y Y Y Y Y Y Y Y Y Y Y Y Y ~ Y Y Y Y Y Y Y Y Y Y Y Y Y Y Y Y Y Y Y Y Y Y Y Y Y Y Y Y Y Y Y Y Y Y Y Y Y Y ` ` ` ` ` ` ",
"0X0X0X0X0X0X0X0X0X0X0X0X0X0X0XjXbXbXbXbXbXbXbXbXbXbXbXbXbXbXbXbXbXbXbXbXbXbXbXbXbXbXbXbXbXbXbXbXbXbXjX0X0X0X0X0X0X0X0X0X0X0X0X0X0X0X0X0X0X0X0X0X0X0X0X0X0X0X0X0XcXbXbXbXbXbXbXbXbXbXbXbXbXbXbXbXbXbXbXbXjX0X0X0X0X0X0X0X0X0X0X0X0X0X0X0X0X0X0X0X0X0X0X0X0X0X0X0X0X0X0X0X0X0X0X0X0X0X0X0X0X0X0X0X0X0X0X0X0X0X0X0X0X0X0X0X0X0X0X0X0X0X0X0X0X0X0X0X0X0X0X0X0X0X0X0X0X0X0X0X0X0X0X0X0XO O : 9 9 9 9 9 9 # O q Y Y Y Y Y Y ` [ [ [ [ [ [ [ [ [ [ [ [ [ [ [ [ [ [ [ [ [ [ [ [ [ [ [ [ [ P n n F.F.F.a a d V.V.H.H.H.H.H.H.H.H.H.H.H.j a a 0X0X0X~.~.S.S.S.S.S.;X;Xo...OXOXOXOXOXOXoXt.....S.S.~.0.0.0.0.0.S.S.S.~.^.^.1X1X0X0X0X0X0X0X0XI.[.5X5X6.h 2.2.2.2.2.2.,.h `.ZXAXAXAXAXAXAXAXAXAXAXAXAXAXAXAXAXAXVX`.A.P.P.P.P.L.Z._.AXAXAXAXAXAXAXAXfX|.`.`.|.|.zXAXAXAXAXAXAXAXAXG.,.2.2.g g AXAXAXAXAXAXAXAX`.T.T.`.`.`.1X1XkXkX1XZ.P.P.A.Z.dXAXAXAXAXAXAXAXAXAXAXAXAXAXAXAXAXAX`.fXAXAXAXAXAXAXAXzXg 2.2.2.2.2.,.g *X5XR.I.0X0X0X0X0X0X0X0X0X0X0X0X0X0X0X0X0X0X0XjXa a V.`.H.H.H.H.H.H.H.H.H.d a a a a N.F.F.F.F.F. .n n L L L L L L Y Y Y Y Y Y Y Y Y Y Y Y Y Y Y Y Y Y Y Y Y n n n R [ [ [ [ [ [ [ [ [ [ [ [ [ [ [ [ [ [ [ [ [ [ [ [ [ [ [ [ [ [ [ [ [ [ [ [ [ [ [ [ [ [ [ [ [ [ [ [ ` Y Y Y Y ; O O 9 9 9 9 9 : O O 0X0X0X0X0X0X0X0X0X0X0X0X0X0X0X0X0X0X0X0X0X0X0X0X0X0X0X0X0X;XR.E.^.r.:.:.y y 8 8 * * O O O O O O O + + % % & & > > < < < < 1 9 9 9 9 9 9 9 9 9 9 9 9 9 9 9 9 9 9 9 9 9 9 9 9 9 9 9 9 9 9 9 9 9 9 9 9 9 9 9 < < < < : % % $ # # # O O O O O O O O @ - - - ; A A S S S U U Y Y Y Y Y Y Y Y Y Y Y Y Y Y Y Y Y Y Y ~ Y Y Y Y Y Y Y Y Y Y Y Y Y Y Y Y Y Y Y Y Y Y Y Y Y Y Y Y Y Y Y Y Y ` ` ` ` ` ` ` ` ' [ [ [ ",
"0X0X0X0X0X0X0X0X0X0X0X0X0X0XjXbXbXbXbXbXbXbXbXbXbXbXbXbXbXbXbXbXbXbXbXbXbXbXbXbXbXbXbXbXbXbXbXbXbXcX0X0X0X0X0X0X0X0X0X0X0X0X0X0X0X0X0X0X0X0X0X0X0X0X0X0X0X0X0XjXbXbXbXbXbXbXbXbXbXbXbXbXbXbXbXbXbXbXbXjX0X0X0X0X0X0X0X0X0X0X0X0X0X0X0X0X0X0X0X0X0X0X0X0X0X0X0X0X0X0X0X0X0X0X0X0X0X0X0X0X0X0X0X0X0X0X0X0X0X0X0X0X0X0X0X0X0X0X0X0X0X0X0X0X0X0X0X0X0X0X0X0X0X0X0X0X0X0X0X0X0X0X0X0X0XO O : 9 9 9 9 9 9 # O q Y Y Y Y Y Y ` [ [ [ [ [ [ [ [ [ [ [ [ [ [ [ [ [ [ [ [ [ [ [ [ [ [ [ [ [ P n n F.F.F.a a d V.V.H.H.H.H.H.H.H.H.H.H.H.j a a 0X;Xo.7 7 A A A A A  . . .q.yXrXrXrXOXOXOXt...0.1X1X9X;X;X}.;X;X1X1X1X9X0X0X0X0X0X0X0X0X0X0X0XI.[.5X5X6.>.2.2.2.2.2.,.h [.ZXAXAXAXAXAXAXAXAXAXAXAXAXAXAXAXAXAXAXAXVXZ.L.P.P.P.L.Z._.AXAXAXAXAXAXAXzXG.Z.Z.Z.Z.Z.T.AXAXAXAXAXAXAXAXG.,.2.2.g g AXAXAXAXAXAXAXAXVXnXnXVXVXVXZXZXAXAXBXZ.P.P.I.Z.dXAXAXAXAXAXAXAXAXAXAXAXAXAXAXAXAXAXZXAXAXAXAXAXAXAXAXzXg 2.2.2.2.2.,.g *X5XR.I.0X0X0X0X0X0X0X0X0X0X0X0X0X0X0X0X0X0X0X0Xa a V.`.H.H.H.H.H.H.H.H.H.a a a a a N.F.F.F.F.F. .n n L L L L L L Y Y Y Y Y Y Y Y Y Y Y Y Y Y Y Y Y Y Y Y Y n n n R [ [ [ [ [ [ [ [ [ [ [ [ [ [ [ [ [ [ [ [ [ [ [ [ [ [ [ [ [ [ [ [ [ [ [ [ [ [ [ [ [ [ [ [ [ [ [ [ ` Y Y Y Y ; O O 9 9 9 9 9 : O O 0X0X0X0X0X0X0X0X0X0X0X0X0X0X0X0X0X0X0X0X0X;X;XR.R.r.r.:.:.r 8 8 8 * O O O O O O O O + % % % & > > < < < < 1 1 9 9 9 9 9 9 9 9 9 9 9 9 9 9 9 9 9 9 9 9 9 9 9 9 9 9 9 9 9 9 9 9 9 9 9 9 9 9 9 < < < < : % % # $ # # O O O O O O O O @ - - - ; A A S S S S U Y Y Y Y Y Y Y Y Y Y Y Y Y Y Y Y Y Y Y Y Y Y Y Y Y Y Y Y Y Y Y Y Y Y Y Y Y Y Y Y Y Y Y Y Y Y Y Y Y Y Y ` ` ` ` ` ` ` ` ` ` ` ` ' [ [ [ [ [ [ [ [ ",
"0X0X0X0X0X0X0X0X0X0X0X0X0X0XcXbXbXbXbXbXbXbXbXbXbXbXbXbXbXbXbXbXbXbXbXbXbXbXbXbXbXbXbXbXbXbXbXbXcXjX0X0X0X0X0X0X0X0X0X0X0X0X0X0X0X0X0X0X0X0X0X0X0X0X0X0X0X0XjXbXbXbXbXbXbXbXbXbXbXbXbXbXbXbXbXbXbXbXcX0X0X0X0X0X0X0X0X0X0X0X0X0X0X0X0X0X0X0X0X0X0X0X0X0X0X0X0X0X0X0X0X0X0X0X0X0X0X0X0X0X0X0X0X0X0X0X0X0X0X0X0X0X0X0X0X0X0X0X0X0X0X0X0X0X0X0X0X0X0X0X0X0X0X0X0X0X0X0X0X0X0X0X0X0X0XO O : 9 9 9 9 9 9 # O = Y Y Y Y Y Y ` [ [ [ [ [ [ [ [ [ [ [ [ [ [ [ [ [ [ [ [ [ [ [ [ [ [ [ [ [ P n n F.F.F.a a d V.V.H.H.H.H.H.H.H.H.H.H.H.j a a 0Xe.5 C F F C F F F C 6  .u.uXyXyXyXrXrXOX....^.0X0X0X0X0X0X0X0X0X0X0X0X0X0X0X0X0X0X0X0X0X0X0XI.%X5X5X6.>.2.2.2.2.1.h T.ZXAXAXAXAXAXAXAXAXAXAXAXAXAXAXAXAXAXAXAXAXAX`.Z.P.P.P.L.Z._.AXAXAXAXAXAXAXdXZ.Z.Z.Z.Z.Z.Z.VXAXAXAXAXAXAXAXG.,.2.2.g g AXAXAXAXAXAXAXAXAXAXAXAXAXAXAXAXAXAXBXZ.P.P.I.Z.dXAXAXAXAXAXAXAXkX XAXAXAXAXAXAXAXAXAXAXAXAXAXAXAXAXAXzXg 2.2.2.2.2.,.g *X5XR.I.0X0X0X0X0X0X0X0X0X0X0X0X0X0X0X0X0X0X0X0Xa a V.`.H.H.H.H.H.H.H.H.H.a a a a a N.F.F.F.F.F. .n n L L L L L L Y Y Y Y Y Y Y Y Y Y Y Y Y Y Y Y Y Y Y Y Y n n n R [ [ [ [ [ [ [ [ [ [ [ [ [ [ [ [ [ [ [ [ [ [ [ [ [ [ [ [ [ [ [ [ [ [ [ [ [ [ [ [ [ [ [ [ [ [ [ [ ` Y Y Y Y ; O O 9 9 9 9 9 : O O 0X0X0X0X0X0X0X0X0X0X0X0X0X0X;XR.R.R.r.:.:.r r 8 8 % % O O O O O O O + % % % & & > > < < < < 1 9 9 9 9 9 9 9 9 9 9 9 9 9 9 9 9 9 9 9 9 9 9 9 9 9 9 9 9 9 9 9 9 9 9 9 9 9 9 9 9 < < < < : % % $ $ # # O O O O O O O O @ - - - ; A A S S S S U Y Y Y Y Y Y Y Y Y Y Y Y Y Y Y Y Y Y Y Y Y Y Y Y Y Y ~ Y Y Y Y Y Y Y Y Y Y Y Y Y Y Y Y Y Y Y Y ` ` ` ` ` ` ` ` ` ` ` ` ` ` ` ` ' [ [ [ [ [ [ [ [ [ [ [ [ [ [ [ ",
"0X0X0X0X0X0X0X0X0X0X0X0X0XjXbXbXbXbXbXbXbXbXbXbXbXbXbXbXbXbXbXbXbXbXbXbXbXbXbXbXbXbXbXbXbXbXbXbXjX0X0X0X0X0X0X0X0X0X0X0X0X0X0X0X0X0X0X0X0X0X0X0X0X0X0X0X0XjXcXbXbXbXbXbXbXbXbXbXbXbXbXbXbXbXbXbXbXcXjX0X0X0X0X0X0X0X0X0X0X0X0X0X0X0X0X0X0X0X0X0X0X0X0X0X0X0X0X0X0X0X0X0X0X0X0X0X0X0X0X0X0X0X0X0X0X0X0X0X0X0X0X0X0X0X0X0X0X0X0X0X0X0X0X0X0X0X0X0X0X0X0X0X0X0X0X0X0X0X0X0X0X0X0X0X0XO O : 9 9 9 9 9 9 # O = Y Y Y Y Y Y ` [ [ [ [ [ [ [ [ [ [ [ [ [ [ [ [ [ [ [ [ [ [ [ [ [ [ [ [ [ P n n F.F.F.a a d V.V.H.H.H.H.H.H.H.H.H.H.H.j a a 0X .6 G H H C N c b G Z ..oXuXyXyXyXyXyXOX..0.9X0X0X0X0X0X0X0X0X0X0X0X0X0X0X0X0X0X0X0X0X0X0X0XI.[.5X5X6.>.2.2.2.2.>.Z.BXAXAXAXAXAXAXAXAXAXAXVXAXAXAXAXAXAXAXAXAXAXAXVXZ.L.P.P.L.Z._.AXAXAXAXAXAXAXdXZ.Z.Z.Z.Z.Z.T.BXAXAXAXAXAXAXAX5.,.2.2.g g AXAXAXAXAXAXAXAXAXAXAXAXAXAXAXAXAXAXBXZ.P.P.I.Z.1XAXAXAXAXAXAXAXT.5.kXAXAXAXAXAXAXAXAXAXAXAXAXAXAXAXAXzXh 2.2.2.2.2.,.g *X5XR.I.0X0X0X0X0X0X0X0X0X0X0X0X0X0X0X0X0X0X0X1Xa a V.`.H.H.H.H.H.H.H.H.H.a a a a a N.F.F.F.F.F. .n n L L L L L U Y Y Y Y Y Y Y Y Y Y Y Y Y Y Y Y Y Y Y Y Y n n n R [ [ [ [ [ [ [ [ [ [ [ [ [ [ [ [ [ [ [ [ [ [ [ [ [ [ [ [ [ [ [ [ [ [ [ [ [ [ [ [ [ [ [ [ [ [ [ [ ` Y Y Y Y ; O O 9 9 9 9 9 : O O 0X0X0X0X0X0X;XE.E.E.r.:.:.:.r 8 8 8 % O O O O O O O O + % % % & > > < < < < 1 1 9 9 9 9 9 9 9 9 9 9 9 9 9 9 9 9 9 9 9 9 9 9 9 9 9 9 9 9 9 9 9 9 9 9 9 9 9 9 9 9 < < < < : % % $ $ # # O O O O O O O O @ - - - ; A A S S S P U ` ` ` ` ` ` ` ` ` ` ` Y Y Y Y Y Y Y Y Y Y Y Y Y Y Y Y Y Y Y Y Y Y Y Y Y Y Y Y Y Y Y Y ` ` ` ` ` ` ` ` ` ` ` ` ` ` ` ` ` ' ' [ [ [ [ [ [ [ [ [ [ [ [ [ [ [ [ [ [ [ [ [ [ [ [ ",
"0X0X0X0X0X0X0X0X0X0X0X0XjXbXbXbXbXbXbXbXbXbXbXbXbXbXbXbXbXbXbXbXbXbXbXbXbXbXbXbXbXbXbXbXbXbXbXcX0X0X0X0X0X0X0X0X0X0X0X0X0X0X0X0X0X0X0X0X0X0X0X0X0X0X0X0X0XcXbXbXbXbXbXbXbXbXbXbXbXbXbXbXbXbXbXbXbXjX0X0X0X0X0X0X0X0X0X0X0X0X0X0X0X0X0X0X0X0X0X0X0X0X0X0X0X0X0X0X0X0X0X0X0X0X0X0X0X0X0X0X0X0X0X0X0X0X0X0X0X0X0X0X0X0X0X0X0X0X0X0X0X0X0X0X0X0X0X0X0X0X0X0X0X0X0X0X0X0X0X0X0X0X0X0X0XO O : 9 9 9 9 9 9 $ O = Y Y Y Y Y Y ` [ [ [ [ [ [ [ [ [ [ [ [ [ [ [ [ [ [ [ [ [ [ [ [ [ [ [ [ [ P n n F.F.F.a a d V.V.H.H.H.H.H.H.H.H.H.H.H.j a a ;X7 C H H H G V o c V D ..rXyXuXuXyXyXyXu. .D S.0X0X0X0X0X0X0X0X0X0X0X0X0X0X0X0X0X0X0X0X0X0X0XI.[.5X5X6.>.2.2.2.1.h 1XAXAXAXAXAXAXAXAXVXkX_.G._._.kXAXAXAXAXAXAXAXAXAX`.A.P.P.L.Z._.AXAXAXAXAXAXAXdXZ.A.A.A.Z.Z._.ZXAXAXAXAXAXAXVXh 1.2.2.g g AXAXAXAXAXAXAXAXAXAXAXAXAXAXAXAXAXAXBXZ.P.P.A.5. XAXAXAXAXAXAXAXG.g Z.kXAXAXAXAXAXAXAXAXAXAXAXAXAXAXAXzXh 2.2.2.2.2.,.g *X5XR.I.0X0X0X0X0X0X0X0X0X0X0X0X0X0X0X0X0X0X0X[.a a V.`.H.H.H.H.H.H.H.H.H.a a a a a N.F.F.F.F.F. .n n L L L L L U Y Y Y Y Y Y Y Y Y Y Y Y Y Y Y Y Y Y Y Y Y n n n R [ [ [ [ [ [ [ [ [ [ [ [ [ [ [ [ [ [ [ [ [ [ [ [ [ [ [ [ [ [ [ [ [ [ [ [ [ [ [ [ [ [ [ [ [ [ [ [ ` Y Y Y Y ; O O 9 9 9 9 9 : O O E.E.r.r.:.:.r 8 8 8 * O O O O O O O O + % % % & > > > < < < < 1 9 9 9 9 9 9 9 9 9 9 9 9 9 9 9 9 9 9 9 9 9 9 9 9 9 9 9 9 9 9 9 9 9 9 9 9 9 9 9 9 9 < < < < : % % $ $ # # O O O O O O O O @ - - - ; A A S S S S U Y ` ` ` ` ` ` ` ` ` ` ` ` ` ` _ _ _ Y Y Y Y Y Y Y Y Y Y Y Y Y Y Y Y Y Y Y Y Y Y Y Y ` ` ` ` ` ` ` ` ` ` ` ` ` ` ' ' [ [ [ [ [ [ [ [ [ [ [ [ [ [ [ [ [ [ [ [ [ [ [ [ [ [ [ [ [ [ [ [ [ [ [ ",
"0X0X0X0X0X0X0X0X0X0X0X0XcXbXbXbXbXbXbXbXbXbXbXbXbXbXbXbXbXbXbXbXbXbXbXbXbXbXbXbXbXbXbXbXbXbXcXjX0X0X0X0X0X0X0X0X0X0X0X0X0X0X0X0X0X0X0X0X0X0X0X0X0X0X0X0XjXbXbXbXbXbXbXbXbXbXbXbXbXbXbXbXbXbXbXbXcX0X0X0X0X0X0X0X0X0X0X0X0X0X0X0X0X0X0X0X0X0X0X0X0X0X0X0X0X0X0X0X0X0X0X0X0X0X0X0X0X0X0X0X0X0X0X0X0X0X0X0X0X0X0X0X0X0X0X0X0X0X0X0X0X0X0X0X0X0X0X0X0X0X0X0X0X0X0X0X0X0X0X0X0X0X0X0X0XO O : 9 9 9 9 9 9 # O = Y Y Y Y Y Y ` [ [ [ [ [ [ [ [ [ [ [ [ [ [ [ [ [ [ [ [ [ [ [ [ [ [ [ [ [ P n n F.F.F.a a d V.V.H.H.H.H.H.H.H.H.H.H.H.j a a e.5 G H H H H b o ; 5  .q.yXyXyXyXyXyXOXX.T C 7 S.;X0X0X0X0X0X0X0X0X0X0X0X0X0X0X0X0X0X0X0X0X0XI.[.5X5X6.>.2.2.2.,.Z.ZXAXAXAXAXAXAXAXkXG.Z.g g g g Z.VXAXAXAXAXAXAXAXAXdXZ.P.P.L.Z._.AXAXAXAXAXAXAXdXZ.A.A.A.Z.`.zXAXAXAXAXAXAXAXdX>.1.2.2.g g AXAXAXAXAXAXAXAXAXAXAXAXAXAXAXAXAXAXBXZ.P.P.A.h  XAXAXAXAXAXAXAXG.g g Z.kXAXAXAXAXAXAXAXAXAXAXAXAXAXAXzXg 2.2.2.2.2.,.g *X5XR.I.0X0X0X0X0X0X0X0X0X0X0X0X0X0X0X0X0X0X0X*Xa a V.`.H.H.H.H.H.H.H.H.H.a a a a a N.F.F.F.F.F. .n n L L L L L U Y Y Y Y Y Y Y Y Y Y Y Y Y Y Y Y Y Y Y Y Y n n n R [ [ [ [ [ [ [ [ [ [ [ [ [ [ [ [ [ [ [ [ [ [ [ [ [ [ [ [ [ [ [ [ [ [ [ [ [ [ [ [ [ [ [ [ [ [ [ [ ` Y Y Y Y ; O O 9 9 9 9 9 : O O 8 8 % % O O O O O O O + + % % & & > > < < < < 1 9 9 9 9 9 9 9 9 9 9 9 9 9 9 9 9 9 9 9 9 9 9 9 9 9 9 9 9 9 9 9 9 9 9 9 9 9 9 9 9 9 9 < < < < : % % $ $ # # O O O O O O O O @ - - - ; A A S S S S U Y Y Y Y Y ` ` ` ` ` ` ` ` ` ` ` ` _ _ Y Y Y Y Y Y Y Y Y Y Y Y Y Y Y Y Y Y Y Y Y Y Y Y ` ` ` ` ` ` ` ` ` ` ' ' [ [ [ [ [ [ [ [ [ [ [ [ [ [ [ [ [ [ [ [ [ [ [ [ [ [ [ [ [ [ [ [ [ [ [ [ [ [ [ [ [ [ [ [ [ ",
"0X0X0X0X0X0X0X0X0X0X0XcXbXbXbXbXbXbXbXbXbXbXbXbXbXbXbXbXbXbXbXbXbXbXbXbXbXbXbXbXbXbXbXbXbXbXjX0X0X0X0X0X0X0X0X0X0X0X0X0X0X0X0X0X0X0X0X0X0X0X0X0X0X0X0XjXbXbXbXbXbXbXbXbXbXbXbXbXbXbXbXbXbXbXbXcXjX0X0X0X0X0X0X0X0X0X0X0X0X0X0X0X0X0X0X0X0X0X0X0X0X0X0X0X0X0X0X0X0X0X0X0X0X0X0X0X0X0X0X0X0X0X0X0X0X0X0X0X0X0X0X0X0X0X0X0X0X0X0X0X0X0X0X0X0X0X0X0X0X0X0X0X0X0X0X0X0X0X0X0X0X0X0X0X0XO O : 9 9 9 9 9 9 # O = Y Y Y Y Y Y ` [ [ [ [ [ [ [ [ [ [ [ [ [ [ [ [ [ [ [ [ [ [ [ [ [ [ [ [ [ P n n F.F.F.a a d V.V.H.H.H.H.H.H.H.H.H.H.H.j a a 7 6 H H H H +.@.F ; 5  .y.yXyXyXyXuXyXOX..G G C 7  .~.0X0X0X0X0X0X0X0X0X0X0X0X0X0X0X0X0X0X0X0XI.[.5X5X6.h 2.2.2.h 1XAXAXAXAXAXAXAXVXZ.g g g g g g g G.lXAXAXAXAXAXAXAXlXZ.P.P.L.Z._.AXAXAXAXAXAXAXVX1X1X1XkXkXVXAXAXAXAXAXAXAXAXZ.>.2.2.2.g g AXAXAXAXAXAXAXAXAXAXAXAXAXVXVXzXzXzX1XZ.P.P.6.g  XAXAXAXAXAXAXAXG.g g g Z.kXAXAXAXAXAXAXAXAXAXAXAXAXAXzXg 2.2.2.2.2.,.g *X5XR.I.0X0X0X0X0X0X0X0X0X0X0X0X0X0X0X0X0X0XjX[.a a V.`.H.H.H.H.H.H.H.H.H.a a a a a N.F.F.F.F.F. .n n L L L L L U Y Y Y Y Y Y Y Y Y Y Y Y Y Y Y Y Y Y Y Y Y n n n R [ [ [ [ [ [ [ [ [ [ [ [ [ [ [ [ [ [ [ [ [ [ [ [ [ [ [ [ [ [ [ [ [ [ [ [ [ [ [ [ [ [ [ [ [ [ [ [ ` Y Y Y Y ; O O 9 9 9 9 9 : O O O O O O + % % % & > > < < < < 1 1 9 9 9 9 9 9 9 9 9 9 9 9 9 9 9 9 9 9 9 9 9 9 9 9 9 9 9 9 9 9 9 9 9 9 9 9 9 9 9 9 9 9 < < < < : % % $ $ # # O O O O O O O O @ - - - ; A A S S S S U Y Y Y Y Y Y Y Y Y Y Y Y _ _ ` ` ` _ Y Y Y Y Y Y Y Y Y Y Y Y Y Y Y Y Y Y Y Y Y Y Y Y Y Y Y Y ` ` ` ` ` ` ` ' [ [ [ [ [ [ [ [ [ [ [ [ [ [ [ [ [ [ [ [ [ [ [ [ [ [ [ [ [ [ [ [ [ [ [ [ [ [ [ [ [ [ [ [ [ [ [ [ [ [ ` ` ` ",
"0X0X0X0X0X0X0X0X0X0XjXbXbXbXbXbXbXbXbXbXbXbXbXbXbXbXbXbXbXbXbXbXbXbXbXbXbXbXbXbXbXbXbXbXbXjX0X0X0X0X0X0X0X0X0X0X0X0X0X0X0X0X0X0X0X0X0X0X0X0X0X0X0X0X0XcXbXbXbXbXbXbXbXbXbXbXbXbXbXbXbXbXbXbXcXjX0X0X0X0X0X0X0X0X0X0X0X0X0X0X0X0X0X0X0X0X0X0X0X0X0X0X0X0X0X0X0X0X0X0X0X0X0X0X0X0X0X0X0X0X0X0X0X0X0X0X0X0X0X0X0X0X0X0X0X0X0X0X0X0X0X0X0X0X0X0X0X0X0X0X0X0X0X0X0X0X0X0X0X0X0X0X0X0X0XO O : 9 9 9 9 9 9 # O = Y Y Y Y Y Y ' [ [ [ [ [ [ [ [ [ [ [ [ [ [ [ [ [ [ [ [ [ [ [ [ [ [ [ [ [ P n n F.F.F.a a j V.V.H.H.H.H.H.H.H.H.H.H.H.j a a 5 C H H H +.#.#.+.C 6 7 X.OXyXyXuXuXyXK. .H +.G F 6 7 ~.0X0X0X0X0X0X0X0X0X0X0X0X0X0X0X0X0X0X0XI.[.5X5X6.>.2.2.1.g zXAXAXAXAXAXAXAX`.g g g g g g g g k T.AXAXAXAXAXAXAXZXZ.L.P.L.Z._.AXAXAXAXAXAXAXAXZXZXZXAXAXAXAXAXAXAXAXAXAXkXg ,.2.2.2.g g AXAXAXAXAXAXAXAXVXfX X X X`.`.T.T.T.G.A.P.i.,.g  XAXAXAXAXAXAXAXG.g g g g Z.VXAXAXAXAXAXAXAXAXAXAXAXAXzXg 2.2.2.2.2.,.g *X5XR.I.0X0X0X0X0X0X0X0X0X0X0X0X0X0X0X0X0XjXjX[.a a V.`.H.H.H.H.H.H.H.H.H.a a a a a V.F.F.F.F.F. .n n L L L L L U Y Y Y Y Y Y Y Y Y Y Y Y Y Y Y Y Y Y Y Y Y n n n R [ [ [ [ [ [ [ [ [ [ [ [ [ [ [ [ [ [ [ [ [ [ [ [ [ [ [ [ [ [ [ [ [ [ [ [ [ [ [ [ [ [ [ [ [ [ [ [ ` Y Y Y Y ; O O 9 9 9 9 9 < & % & & > > < < < < 9 9 9 9 9 9 9 9 9 9 9 9 9 9 9 9 9 9 9 9 9 9 9 9 9 9 9 9 9 9 9 9 9 9 9 9 9 9 9 9 9 9 9 9 1 < < < : & & $ $ # # O O O O O O O O @ - - - ; A A S S S S U Y Y Y Y Y Y Y Y Y Y ~ ~ Y Y Y Y Y Y Y Y Y Y Y Y Y Y Y Y Y Y Y Y Y Y Y Y Y Y Y Y Y Y Y Y Y Y Y Y ` ` ` ` ` ` ` ' [ [ [ [ [ [ [ [ [ [ [ [ [ [ [ [ [ [ [ [ [ [ [ [ [ [ [ [ [ [ [ [ [ [ [ [ [ [ [ [ [ [ [ [ [ [ [ [ ` ` ` ` ` ` ` ` ` ` ",
"0X0X0X0X0X0X0X0X0XjXbXbXbXbXbXbXbXbXbXbXbXbXbXbXbXbXbXbXbXbXbXbXbXbXbXbXbXbXbXbXbXbXbXbXcX0X0X0X0X0X0X0X0X0X0X0X0X0X0X0X0X0X0X0X0X0X0X0X0X0X0X0X0X0XcXbXbXbXbXbXbXbXbXbXbXbXbXbXbXbXbXbXbXbXjX0X0X0X0X0X0X0X0X0X0X0X0X0X0X0X0X0X0X0X0X0X0X0X0X0X0X0X0X0X0X0X0X0X0X0X0X0X0X0X0X0X0X0X0X0X0X0X0X0X0X0X0X0X0X0X0X0X0X0X0X0X0X0X0X0X0X0X0X0X0X0X0X0X0X0X0X0X0X0X0X0X0X0X0X0X0X0X0X0X0XO O : 9 9 9 9 9 9 # O = Y Y Y Y Y Y [ [ [ [ [ [ [ [ [ [ [ [ [ [ [ [ [ [ [ [ [ [ [ [ [ [ [ [ [ [ P n n F.F.F.a a j V.V.H.H.H.H.H.H.H.H.H.H.H.j a a 6 H H H H +.#.#.#.+.H C A Q t.OXyXyXyXW S H b H +.F V 7 S.;X0X0X0X0X0X0X0X0X0X0X0X0X0X0X0X0X0XI.[.5X5X6.>.2.2.1.g ZXAXAXAXAXAXAXVX5.g g >.>.>.h g h Z.Z.AXAXAXAXAXAXAXAXZ.L.P.L.Z._.AXAXAXAXAXAXAXAXAXAXAXAXAXAXAXAXAXAXAXAXkXZ.g 1.2.2.2.g g AXAXAXAXAXAXAXAX`.G.Z.Z.Z.Z.Z.Z.Z.Z.Z.L.L.3.,.g  XAXAXAXAXAXAXAXG.h g g g g G.AXAXAXAXAXAXAXAXAXAXAXAXzXg 2.2.2.2.2.,.g *X5XR.I.0X0X0X0X0X0X0X0X0X0X0X0X0X0X0X0X0XjXjX*Xa a V._.H.H.H.H.H.H.H.H.H.a a a a a F.F.F.F.F.F. .n n L L L L L U Y Y Y Y Y Y Y Y Y Y Y Y Y Y Y Y Y Y Y Y Y n n n R [ [ [ [ [ [ [ [ [ [ [ [ [ [ [ [ [ [ [ [ [ [ [ [ [ [ [ [ [ [ [ [ [ [ [ [ [ [ [ [ [ [ [ [ [ [ [ [ _ Y Y Y Y ; O O 9 9 9 9 9 9 1 < 1 1 9 9 9 9 9 9 9 9 9 9 9 9 9 9 9 9 9 9 9 9 9 9 9 9 9 9 9 9 9 9 9 9 9 9 9 9 9 9 9 9 9 9 9 < < < < : & & % $ # # O O O O O O O O @ - = - ; A A S S S S U Y Y Y Y Y Y Y Y Y Y Y Y Y Y Y Y Y ~ Y Y Y Y Y Y Y Y Y Y Y Y Y Y Y Y Y Y Y Y Y Y Y Y Y Y Y Y Y Y Y Y Y ` ` ` ` ` ` ` [ [ [ [ [ [ [ [ [ [ [ [ [ [ [ [ [ [ [ [ [ [ [ [ [ [ [ [ [ [ [ [ [ [ [ [ [ [ [ [ [ [ [ [ [ [ [ ` ` ` ` ` ` ` ` ` ` _ Y Y Y Y Y ",
"0X0X0X0X0X0X0X0X0XcXbXbXbXbXbXbXbXbXbXbXbXbXbXbXbXbXbXbXbXbXbXbXbXbXbXbXbXbXbXbXbXbXbXcXjX0X0X0X0X0X0X0X0X0X0X0X0X0X0X0X0X0X0X0X0X0X0X0X0X0X0X0X0XjXbXbXbXbXbXbXbXbXbXbXbXbXbXbXbXbXbXbXbXcX0X0X0X0X0X0X0X0X0X0X0X0X0X0X0X0X0X0X0X0X0X0X0X0X0X0X0X0X0X0X0X0X0X0X0X0X0X0X0X0X0X0X0X0X0X0X0X0X0X0X0X0X0X0X0X0X0X0X0X0X0X0X0X0X0X0X0X0X0X0X0X0X0X0X0X0X0X0X0X0X0X0X0X0X0X0X0X0X0X0X0XO O : 9 9 9 9 9 9 # O = Y Y Y Y Y Y [ [ [ [ [ [ [ [ [ [ [ [ [ [ [ [ [ [ [ [ [ [ [ [ [ [ [ [ [ [ P n n F.F.F.a a d V.V.H.H.H.H.H.H.H.H.H.H.H.j a a V H H H +.#.#.#.#.#.#.+.H F A Q yXyXOX5 F H H +.+.+.H C 7  .0X0X0X0X0X0X0X0X0X0X0X0X0X0X0X0X0XI.[.5X5X6.>.2.2.>.Z.AXAXAXAXAXAXAXzXg >.,.1.1.1.,.,.5.Z.Z.AXAXAXAXAXAXAXVXZ.L.P.L.Z._.AXAXAXAXAXAXAXAXAXAXAXAXAXAXAXAXAXAXAXkXZ.g h 2.2.2.2.g g AXAXAXAXAXAXAXAXZ.Z.Z.Z.Z.Z.Z.Z.Z.Z.Z.I.7.2.,.g  XAXAXAXAXAXAXAXG.>.>.g g g g 1XAXAXAXAXAXAXAXAXAXAXAXzXg 2.2.2.2.2.,.g *X5XR.I.0X0X0X0X0X0X0X0X0X0X0X0X0X0X0X0X0X0X0X[.a a V.).H.H.H.H.H.H.H.H.H.a a a a a F.F.F.F.F.F. .n n L L L L L U Y Y Y Y Y Y Y Y Y Y Y Y Y Y Y Y Y Y Y Y Y n n n R [ [ [ [ [ [ [ [ [ [ [ [ [ [ [ [ [ [ [ [ [ [ [ [ [ [ [ [ [ [ [ [ [ [ [ [ [ [ [ [ [ [ [ [ [ [ [ [ Y Y Y Y Y ; O O 9 9 9 9 9 9 9 9 9 9 9 9 9 9 9 9 9 9 9 9 9 9 9 9 9 9 9 9 9 9 9 9 9 9 9 9 9 9 9 9 9 9 9 9 9 9 9 < < < : & & $ $ # # O O O O O O O O @ - - - ; A A S S S S U Y Y Y Y Y Y Y Y Y Y Y Y Y Y Y Y Y Y Y Y Y Y Y Y ~ ~ Y Y Y Y Y Y Y Y Y Y Y Y Y Y Y Y Y Y Y Y Y Y Y Y Y Y Y ` ` ` ` ` ` ` ' [ [ [ [ [ [ [ [ [ [ [ [ [ [ [ [ [ [ [ [ [ [ [ [ [ [ [ [ [ [ [ [ [ [ [ [ [ [ [ [ [ [ [ [ ` ` ` ` ` ` ` ` ` ` _ Y Y Y Y Y Y Y Y Y Y Y Y ",
"0X0X0X0X0X0X0X0XjXbXbXbXbXbXbXbXbXbXbXbXbXbXbXbXbXbXbXbXbXbXbXbXbXbXbXbXbXbXbXbXbXbXbXjX0X0X0X0X0X0X0X0X0X0X0X0X0X0X0X0X0X0X0X0X0X0X0X0X0X0X0X0XjXbXbXbXbXbXbXbXbXbXbXbXbXbXbXbXbXbXbXbXcXjX0X0X0X0X0X0X0X0X0X0X0X0X0X0X0X0X0X0X0X0X0X0X0X0X0X0X0X0X0X0X0X0X0X0X0X0X0X0X0X0X0X0X0X0X0X0X0X0X0X0X0X0X0X0X0X0X0X0X0X0X0X0X0X0X0X0X0X0X0X0X0X0X0X0X0X0X0X0X0X0X0X0X0X0X0X0X0X0X0X0X0XO O : 9 9 9 9 9 9 # O = Y Y Y Y Y Y [ [ [ [ [ [ [ [ [ [ [ [ [ [ [ [ [ [ [ [ [ [ [ [ [ [ [ [ [ [ P n n F.F.F.a a d V.V.H.H.H.H.H.H.H.H.H.H.H.j a a 6 K K K L J J J J J T T T T 7 7 K.yXO.5 G H +.@.@.#.#.H C 5 ;X0X0X0X0X0X0X0X0X0X0X0X0X0X0X0X0XI.[.5X5X6.>.2.2.h G.AXAXAXAXAXAXAXzXg 1.2.2.2.2.2.7.A.Z.Z.AXAXAXAXAXAXAXBXZ.L.P.L.Z._.AXAXAXAXAXAXAXAXAXAXAXAXAXAXAXAXAXAXkXZ.g g ,.2.2.2.2.g g AXAXAXAXAXAXAXAX`.T.T.`.`.`.1X1XkXkX1X6.3.2.,.g  XAXAXAXAXAXAXAXG.>.1.>.g g g 5.kXAXAXAXAXAXAXAXAXAXAXzXg 2.2.2.2.2.,.g *X5XR.I.0X0X0X0X0X0X0X0X0X0X0X0X0X0X0X0X0X0X0X[.a a H.).H.H.H.H.H.H.H.H.H.a a a a a F.F.F.F.F.F.D n n L L L L L U Y Y Y Y Y Y Y Y Y Y Y Y Y Y Y Y Y Y Y Y Y n n n R [ [ [ [ [ [ [ [ [ [ [ [ [ [ [ [ [ [ [ [ [ [ [ [ [ [ [ [ [ [ [ [ [ [ [ [ [ [ [ [ [ [ [ [ [ [ [ ` Y Y Y Y Y ; O O 9 9 9 9 9 9 9 9 9 9 9 9 9 9 9 9 9 9 9 9 9 9 9 9 9 9 9 9 9 9 9 9 9 9 9 9 9 9 9 9 < < < : : & & $ # # O O O O O O O O @ - - - ; A A S S S S U Y Y Y Y Y Y Y Y Y Y Y Y Y Y Y Y Y Y Y Y Y Y Y Y Y Y Y Y Y Y Y Y Y Y Y Y Y Y Y Y Y Y Y Y Y Y Y Y Y Y Y Y Y Y Y ` ` ` ` ` ` ` ` [ [ [ [ [ [ [ [ [ [ [ [ [ [ [ [ [ [ [ [ [ [ [ [ [ [ [ [ [ [ [ [ [ [ [ [ [ [ [ [ [ [ [ [ [ [ [ ` ` ` ` ` ` _ Y Y Y Y Y Y Y Y Y Y Y Y Y Y Y Y Y Y ",
"0X0X0X0X0X0X0XjXbXbXbXbXbXbXbXbXbXbXbXbXbXbXbXbXbXbXbXbXbXbXbXbXbXbXbXbXbXbXbXbXbXbXcX0X0X0X0X0X0X0X0X0X0X0X0X0X0X0X0X0X0X0X0X0X0X0X0X0X0X0X0X0XcXbXbXbXbXbXbXbXbXbXbXbXbXbXbXbXbXbXbXbXjX0X0X0X0X0X0X0X0X0X0X0X0X0X0X0X0X0X0X0X0X0X0X0X0X0X0X0X0X0X0X0X0X0X0X0X0X0X0X0X0X0X0X0X0X0X0X0X0X0X0X0X0X0X0X0X0X0X0X0X0X0X0X0X0X0X0X0X0X0X0X0X0X0X0X0X0X0X0X0X0X0X0X0X0X0X0X0X0X0X0X0X0XO O : 9 9 9 9 9 9 # O = Y Y Y Y Y Y [ [ [ [ [ [ [ [ [ [ [ [ [ [ [ [ [ [ [ [ [ [ [ [ [ [ [ [ [ [ P n n F.F.F.a a d V.V.H.H.H.H.H.H.H.H.H.V.N.d a a a t t t t t t t t t a a a a a a f yX6 6 H +.#.#.#.#.#.+.F 5 /.0X0X0X0X0X0X0X0X0X0X0X0X0X0X0X0XI.^.5X5X6.>.2.1.g G.AXAXAXAXAXAXAXzXg 2.2.2.2.2.3.L.L.Z.T.AXAXAXAXAXAXAXBXZ.P.P.L.Z._.AXAXAXAXAXAXAXAXAXAXAXAXAXAXAXVXkX_.Z.g g >.1.2.2.2.2.g 5.AXAXAXAXAXAXAXAXVXzXzXVXVXVXZXZXAXAXzXh 2.2.,.g  XAXAXAXAXAXAXAXG.>.2.1.>.g g g Z.kXAXAXAXAXAXAXAXAXAXzXg 2.2.2.2.2.,.g *X5XR.I.0X0X0X0X0X0X0X0X0X0X0X0X0X0X0X0X0X0X0X[.a a ).).H.H.H.H.H.H.H.H.F.a a a a a F.F.F.F.F.F.A n n L L L L L U Y Y Y Y Y Y Y Y Y Y Y Y Y Y Y Y Y Y Y Y Y n n n R [ [ [ [ [ [ [ [ [ [ [ [ [ [ [ [ [ [ [ [ [ [ [ [ [ [ [ [ [ [ [ [ [ [ [ [ [ [ [ [ [ [ [ [ [ [ [ ` Y Y Y Y Y ; O O 9 9 9 9 9 9 9 9 9 9 9 9 9 9 9 9 9 9 9 9 9 9 9 9 9 9 9 9 9 9 9 9 9 < < < : : & & $ # # O O O O O O O O @ - - - ; A A S S S S U Y Y Y Y Y Y Y Y ~ Y Y Y Y Y Y Y Y Y ~ Y Y Y Y Y Y Y Y Y Y Y Y Y Y Y Y Y Y Y Y Y Y Y Y Y Y Y Y Y Y Y Y Y Y Y Y Y Y ` ` ` ` ` ` ` ` ' [ [ [ [ [ [ [ [ [ [ [ [ [ [ [ [ [ [ [ [ [ [ [ [ [ [ [ [ [ [ [ [ [ [ [ [ [ [ [ [ [ [ [ [ [ [ [ [ [ [ [ ` Y Y Y Y Y Y Y Y Y Y Y Y Y Y Y Y Y Y Y Y Y Y Y Y ",
"0X0X0X0X0X0X0XcXbXbXbXbXbXbXbXbXbXbXbXbXbXbXbXbXbXbXbXbXbXbXbXbXbXbXbXbXbXbXbXbXbXcXjX0X0X0X0X0X0X0X0X0X0X0X0X0X0X0X0X0X0X0X0X0X0X0X0X0X0X0X0XjXbXbXbXbXbXbXbXbXbXbXbXbXbXbXbXbXbXbXbXjX0X0X0X0X0X0X0X0X0X0X0X0X0X0X0X0X0X0X0X0X0X0X0X0X0X0X0X0X0X0X0X0X0X0X0X0X0X0X0X0X0X0X0X0X0X0X0X0X0X0X0X0X0X0X0X0X0X0X0X0X0X0X0X0X0X0X0X0X0X0X0X0X0X0X0X0X0X0X0X0X0X0X0X0X0X0X0X0X0X0X0X0X0XO O : 9 9 9 9 9 9 # O = Y Y Y Y Y Y [ [ [ [ [ [ [ [ [ [ [ [ [ [ [ [ [ [ [ [ [ [ [ [ [ [ [ [ [ [ P n n F.F.V.a a d V.V.H.H.H.H.H.H.F.V.l j d a a a a a a a a a a a d d d d d k k a a OX5 C +.#.#.H +.#.#.#.F 5 /.0X0X0X0X0X0X0X0X0X0X0X0X0X0X0X0XI.[.5X5X6.>.2.1.g G.AXAXAXAXAXAXAXZXg ,.2.2.2.3.L.P.L.Z.zXAXAXAXAXAXAXAX1XA.P.P.L.Z._.AXAXAXAXAXAXAXAXzXzXfXfX X X XT.Z.g g g h 1.2.2.2.2.2.k Z.AXAXAXAXAXAXAXAXAXAXAXAXAXAXAXAXAXAXzXg 2.2.,.g  XAXAXAXAXAXAXAXG.>.2.2.1.h g g g Z.kXAXAXAXAXAXAXAXAXzXg 2.2.2.2.2.,.g *X5XR.I.0X0X0X0X0X0X0X0X0X0X0X0X0X0X0X0X0X0X0X[.a a ).).H.H.H.H.H.H.H.H.V.a a a a a F.F.F.F.F.F.A n n L L L L L U Y Y Y Y Y Y Y Y Y Y Y Y Y Y Y Y Y Y Y Y Y n n n R [ [ [ [ [ [ [ [ [ [ [ [ [ [ [ [ [ [ [ [ [ [ [ [ [ [ [ [ [ [ [ [ [ [ [ [ [ [ [ [ [ [ [ [ [ [ [ ` Y Y Y Y Y ; O O 9 9 9 9 9 9 9 9 9 9 9 9 9 9 9 9 9 9 9 9 9 9 9 9 9 9 < < < : : & & % # # O O O O O O O O @ - - - ; A A S S S S U Y Y Y Y Y Y Y Y Y Y Y Y Y Y Y ~ ~ Y Y Y Y Y Y Y Y Y Y Y Y Y Y Y Y Y Y Y Y Y Y Y Y Y Y Y Y Y Y Y Y Y Y Y Y Y Y Y Y Y Y ` ` ` ` ` ` ` ` ' [ [ [ [ [ [ [ [ [ [ [ [ [ [ [ [ [ [ [ [ [ [ [ [ [ [ [ [ [ [ [ [ [ [ [ [ [ [ [ [ [ [ [ [ [ [ [ [ [ [ [ [ [ [ [ [ ` Y Y Y Y Y Y Y Y Y Y Y Y Y Y Y Y Y Y Y Y Y Y Y Y ",
"0X0X0X0X0X0XcXbXbXbXbXbXbXbXbXbXbXbXbXbXbXbXbXbXbXbXbXbXbXbXbXbXbXbXbXbXbXbXbXbXbXjX0X0X0X0X0X0X0X0X0X0X0X0X0X0X0X0X0X0X0X0X0X0X0X0X0X0X0X0XjXbXbXbXbXbXbXbXbXbXbXbXbXbXbXbXbXbXbXbXcX0X0X0X0X0X0X0X0X0X0X0X0X0X0X0X0X0X0X0X0X0X0X0X0X0X0X0X0X0X0X0X0X0X0X0X0X0X0X0X0X0X0X0X0X0X0X0X0X0X0X0X0X0X0X0X0X0X0X0X0X0X0X0X0X0X0X0X0X0X0X0X0X0X0X0X0X0X0X0X0X0X0X0X0X0X0X0X0X0X0X0X0X0X0XO O : 9 9 9 9 9 9 # O = Y Y Y Y Y Y [ [ [ [ [ [ [ [ [ [ [ [ [ [ [ [ [ [ [ [ [ [ [ [ [ [ [ [ [ [ P n n F.F.N.a a d V.V.H.H.H.H.H.H.l j a d l l l k k k l l l l l l N.V.V.V.V.V.F.d a O.6 H #.#.H V V #.#.#.F 5 /.0X0X0X0X0X0X0X0X0X0X0X0X0X0X0X0XI.[.5X5X6.h 2.1.g 5.AXAXAXAXAXAXAXAXfXw.,.1.2.7.L.L.T.1XAXAXAXAXAXAXAXAXG.I.P.P.L.Z._.AXAXAXAXAXAXAXzXT.T.G.G.Z.Z.5.h g g g >.,.2.2.2.2.2.3.Z.Z.AXAXAXAXAXAXAXAXAXAXAXAXAXAXAXAXAXAXzXg 2.2.,.g  XAXAXAXAXAXAXAXG.h 2.2.2.,.g g g g Z.VXVXVXkXkXkXkX1X`.g 2.2.2.2.2.,.g *X5XR.I.0X0X0X0X0X0X0X0X0X0X0X0X0X0X0X0X0X0X0X[.a a ).).H.H.H.H.H.H.H.H.V.a a a a a F.F.F.F.F.F.A n M L L L L L U Y Y Y Y Y Y Y Y Y Y Y Y Y Y Y Y Y Y Y Y Y n n n R [ [ [ [ [ [ [ [ [ [ [ [ [ [ [ [ [ [ [ [ [ [ [ [ [ [ [ [ [ [ [ [ [ [ [ [ [ [ [ [ [ [ [ [ [ [ [ ' Y Y Y Y Y ; O O 9 9 9 9 9 9 9 9 9 9 9 9 9 9 9 9 9 9 9 1 < < : : & & % # + O O O O O O O O @ - - - ; A A S S S S U Y Y Y Y Y Y Y Y Y Y Y Y Y Y Y Y Y Y Y Y Y Y Y Y Y Y Y Y Y Y Y Y Y Y Y Y Y Y Y Y Y Y Y Y Y Y Y Y Y Y Y Y Y Y Y Y Y Y Y Y ` ` ` ` ` ` ` ` ` [ [ [ [ [ [ [ [ [ [ [ [ [ [ [ [ [ [ [ [ [ [ [ [ [ [ [ [ [ [ [ [ [ [ [ [ [ [ [ [ [ [ [ [ [ [ [ [ [ [ [ [ [ [ [ [ [ [ [ [ [ [ ` Y Y Y Y Y Y Y Y Y Y Y Y Y Y Y Y Y Y Y Y Y Y Y Y ",
"0X0X0X0X0XjXbXbXbXbXbXbXbXbXbXbXbXbXbXbXbXbXbXbXbXbXbXbXbXbXbXbXbXbXbXbXbXbXbXbXcX0X0X0X0X0X0X0X0X0X0X0X0X0X0X0X0X0X0X0X0X0X0X0X0X0X0X0X0X0XcXbXbXbXbXbXbXbXbXbXbXbXbXbXbXbXbXbXbXcXjX0X0X0X0X0X0X0X0X0X0X0X0X0X0X0X0X0X0X0X0X0X0X0X0X0X0X0X0X0X0X0X0X0X0X0X0X0X0X0X0X0X0X0X0X0X0X0X0X0X0X0X0X0X0X0X0X0X0X0X0X0X0X0X0X0X0X0X0X0X0X0X0X0X0X0X0X0X0X0X0X0X0X0X0X0X0X0X0X0X0X0X0X0X0XO O : 9 9 9 9 9 9 # O = Y Y Y Y Y Y [ [ [ [ [ [ [ [ [ [ [ [ [ [ [ [ [ [ [ [ [ [ [ [ [ [ [ [ [ [ P n n F.F.N.a a d V.V.H.H.H.H.H.H.j a d H.).).).V.V.V.H.H.H.H.F.F.F.H.H.H.H.H.H.j a 6 C +.#.+.V o 5 H #.#.G 5 /.0XjX0X0X0X0X0X0X0X0X0X0X0X0X0X0XA.[.5X5X6.h 2.,.g g AXAXAXAXAXAXAXAXAX1Xw.>.,.R.Z.[.zXZXAXAXAXAXAXAXAXzXZ.L.P.P.L.Z._.AXAXAXAXAXAXAXdXZ.Z.Z.Z.Z.Z.h g g g >.1.2.2.2.2.2.2.7.Z.Z.AXAXAXAXAXAXAXAXAXAXAXAXAXAXAXAXAXAXzXg 2.2.,.g  XAXAXAXAXAXAXAXG.h 2.2.2.2.>.g g g g T.T.T.Z.Z.Z.Z.5.5.>.2.2.2.2.2.,.g *X5XR.I.0X0X0X0X0X0X0X0X0X0X0X0X0X0X0X0X0X0X0X[.a a ).H.H.H.H.H.H.H.H.H.V.a a a a a F.F.F.F.F.F.A n M L L L L L U Y Y Y Y Y Y Y Y Y Y Y Y Y Y Y Y Y Y Y Y Y n n n R [ [ [ [ [ [ [ [ [ [ [ [ [ [ [ [ [ [ [ [ [ [ [ [ [ [ [ [ [ [ [ [ [ [ [ [ [ [ [ [ [ [ [ [ [ [ [ [ Y Y Y Y Y ; O O 9 9 9 9 9 9 9 9 9 9 9 9 < < < > > & & % # # O O O O O O O O @ - = = ; A A S S S S U Y Y ~ Y Y Y Y Y Y Y Y Y Y Y Y Y Y Y Y Y Y Y Y Y Y Y Y Y Y Y Y Y Y Y Y Y Y Y Y Y Y Y Y Y Y Y Y Y Y Y Y Y Y Y Y Y Y Y Y Y Y ` ` ` ` ` ` ` ` ` ' [ [ [ [ [ [ [ [ [ [ [ [ [ [ [ [ [ [ [ [ [ [ [ [ [ [ [ [ [ [ [ [ [ [ [ [ [ [ [ [ [ [ [ [ [ [ [ [ [ [ [ [ [ [ [ [ [ [ [ [ [ [ [ [ [ [ [ ` Y Y Y Y Y Y Y Y Y Y Y Y Y Y Y Y Y Y Y Y Y Y Y Y ",
"0X0X0X0XjXbXbXbXbXbXbXbXbXbXbXbXbXbXbXbXbXbXbXbXbXbXbXbXbXbXbXbXbXbXbXbXbXbXbXcXjX0X0X0X0X0X0X0X0X0X0X0X0X0X0X0X0X0X0X0X0X0X0X0X0X0X0X0X0XcXbXbXbXbXbXbXbXbXbXbXbXbXbXbXbXbXbXbXbXjX0X0X0X0X0X0X0X0X0X0X0X0X0X0X0X0X0X0X0X0X0X0X0X0X0X0X0X0X0X0X0X0X0X0X0X0X0X0X0X0X0X0X0X0X0X0X0X0X0X0X0X0X0X0X0X0X0X0X0X0X0X0X0X0X0X0X0X0X0X0X0X0X0X0X0X0X0X0X0X0X0X0X0X0X0X0X0X0X0X0X0X0X0X0X0XO O : 9 9 9 9 9 9 # O = Y Y Y Y Y Y [ [ [ [ [ [ [ [ [ [ [ [ [ [ [ [ [ [ [ [ [ [ [ [ [ [ [ [ [ [ P n n F.F.N.a a f V.V.H.H.H.H.H.H.j a j |.|.|.|.H.H.H.H.H.H.H.H.F.F.H.H.H.H.H.H.j a 5 H #.#.C o c 5 F #.#.G 5 1XjXjXjX0X0X0X0X0X0X0X0X0X0X0X0X0XI.[.5X5X6.h 2.,.g g kXAXAXAXAXAXAXAXAXZXkX`. XfXkXVXAXAXAXAXAXAXAXAXVXT.Z.P.P.P.L.Z._.AXAXAXAXAXAXAXdXZ.Z.Z.Z.Z.5.g g >.,.1.2.2.2.2.2.2.3.L.Z.Z.AXAXAXAXAXAXAXAXAXAXAXAXAXAXAXAXAXAXzXg 2.2.,.g  XVXkXkXkX1X1X_.5.>.2.2.2.2.1.>.g g g g g g g g g g g g 1.2.2.2.2.2.,.g *X5XR.I.0X0X0X0X0X0X0X0X0X0X0X0X0X0X0X0X0X0X0X~.a a ).H.H.H.H.H.H.H.H.H.V.a a a a a F.F.F.F.F.F.A n M L L L L L U Y Y Y Y Y Y Y Y Y Y Y Y Y Y Y Y Y Y Y Y Y n n n R [ [ [ [ [ [ [ [ [ [ [ [ [ [ [ [ [ [ [ [ [ [ [ [ [ [ [ [ [ [ [ [ [ [ [ [ [ [ [ [ [ [ [ [ [ [ [ [ Y Y Y Y Y ; O O 9 9 9 9 9 < < < : : & & % # # O + O O O O O O @ - - - ; A A S S S S U Y Y Y Y Y Y Y Y Y Y Y Y Y Y Y Y Y Y Y Y Y Y Y Y Y Y Y Y Y Y Y Y Y Y Y Y Y Y Y Y Y Y Y Y Y Y Y Y Y Y Y Y Y Y Y Y Y Y Y Y Y Y ` ` ` ` ` ` ` ` ` ' [ [ [ [ [ [ [ [ [ [ [ [ [ [ [ [ [ [ [ [ [ [ [ [ [ [ [ [ [ [ [ [ [ [ [ [ [ [ [ [ [ [ [ [ [ [ [ [ [ [ [ [ [ [ [ [ [ [ [ [ [ [ [ [ [ [ [ [ [ [ [ [ [ ` Y Y Y Y Y Y Y Y Y Y Y Y Y Y Y Y Y Y Y Y Y Y Y Y ",
"0X0X0X0XcXbXbXbXbXbXbXbXbXbXbXbXbXbXbXbXbXbXbXbXbXbXbXbXbXbXbXbXbXbXbXbXbXbXbXjX0X0X0X0X0X0X0X0X0X0X0X0X0X0X0X0X0X0X0X0X0X0X0X0X0X0X0X0XjXbXbXbXbXbXbXbXbXbXbXbXbXbXbXbXbXbXbXbXcX0X0X0X0X0X0X0X0X0X0X0X0X0X0X0X0X0X0X0X0X0X0X0X0X0X0X0X0X0X0X0X0X0X0X0X0X0X0X0X0X0X0X0X0X0X0X0X0X0X0X0X0X0X0X0X0X0X0X0X0X0X0X0X0X0X0X0X0X0X0X0X0X0X0X0X0X0X0X0X0X0X0X0X0X0X0X0X0X0X0X0X0X0X0X0X0XO O : 9 9 9 9 9 9 # O = Y Y Y Y Y Y [ [ [ [ [ [ [ [ [ [ [ [ [ [ [ [ [ [ [ [ [ [ [ [ [ [ [ [ [ [ P n n F.F.N.a a j V.V.H.H.H.H.H.H.d a k |.|.|.|.H.H.H.H.H.H.H.H.F.F.F.H.H.H.H.H.j a 6 +.#.H 6 C G 5 V #.#.G 5 jXjXjXjX0X0X0X0X0X0X0X0X0X0X0X0X0XI.[.5X5X6.h 2.1.g g Z.AXAXAXAXAXAXAXAXAXAXZXZXZXAXAXAXAXAXAXAXAXAXAX1XZ.I.P.P.P.L.Z._.AXAXAXAXAXAXAXdXZ.Z.A.A.6.,.>.,.1.2.2.2.2.2.2.2.3.L.P.Z.Z.AXAXAXAXAXAXAXAXAXAXAXAXAXVXVXkXkXkXdXg 2.2.,.g Z.G.Z.Z.Z.5.5.g h 1.2.2.2.2.2.1.>.g g g g g g g g g g g 2.2.2.2.2.2.,.g *X5XR.I.0X0X0X0X0X0X0X0X0X0X0X0X0X0X0X0X0X0X0XT.a a H.H.H.H.H.H.H.H.H.H.V.a a a a a F.F.F.F.F.F.A n M L L L L L U Y Y Y Y Y Y Y Y Y Y Y Y Y Y Y Y Y Y Y Y Y n n n R [ [ [ [ [ [ [ [ [ [ [ [ [ [ [ [ [ [ [ [ [ [ [ [ [ [ [ [ [ [ [ [ [ [ [ [ [ [ [ [ [ [ [ [ [ [ [ [ ` Y Y Y Y ; O O < : : & & % # # O O O O O O O O @ - - - ; A A S / / / / ` ` ` ~ ~ Y Y Y Y Y Y Y Y Y Y Y Y Y Y Y Y Y Y Y Y Y Y Y Y Y Y Y Y Y Y Y Y Y ~ Y Y Y Y Y Y Y Y Y Y Y Y Y Y Y Y Y Y Y Y Y Y Y Y ` ` ` ` ` ` ` ` ` ` ' [ [ [ [ [ [ [ [ [ [ [ [ [ [ [ [ [ [ [ [ [ [ [ [ [ [ [ [ [ [ [ [ [ [ [ [ [ [ [ [ [ [ [ [ [ [ [ [ [ [ [ [ [ [ [ [ [ [ [ [ [ [ [ [ [ [ [ [ [ [ [ [ [ [ [ [ [ [ ` Y Y Y Y Y Y Y Y Y Y Y Y Y Y Y Y Y Y Y Y Y Y Y Y ",
"0X0X0XjXbXbXbXbXbXbXbXbXbXbXbXbXbXbXbXbXbXbXbXbXbXbXbXbXbXbXbXbXbXbXbXbXbXbXjX0X0X0X0X0X0X0X0X0X0X0X0X0X0X0X0X0X0X0X0X0X0X0X0X0X0X0X0XjXbXbXbXbXbXbXbXbXbXbXbXbXbXbXbXbXbXbXbXcXjX0X0X0X0X0X0X0X0X0X0X0X0X0X0X0X0X0X0X0X0X0X0X0X0X0X0X0X0X0X0X0X0X0X0X0X0X0X0X0X0X0X0X0X0X0X0X0X0X0X0X0X0X0X0X0X0X0X0X0X0X0X0X0X0X0X0X0X0X0X0X0X0X0X0X0X0X0X0X0X0X0X0X0X0X0X0X0X0X0X0X0X0X0X0X0X0XO O : 9 9 9 9 9 9 # O = Y Y Y Y Y Y [ [ [ [ [ [ [ [ [ [ [ [ [ [ [ [ [ [ [ [ [ [ [ [ [ [ [ [ [ [ P n n F.F.N.a a d V.V.H.H.H.H.H.H.a a l |.|.|.|.H.H.H.H.H.H.H.H.F.F.F.H.H.H.H.H.j a C #.+.V 5 C F V 5 H #.G 5 jX0X0X0X0X0X0X0X0X0X0X0X0X0X0X0X0XI.[.5X5X6.>.2.1.g g g kXAXAXAXAXAXAXAXAXAXAXAXAXAXAXAXAXAXAXAXAXAXzXG.Z.L.P.P.P.L.Z._.AXAXAXAXAXAXAXdXZ.L.L.i.3.1.1.2.2.2.2.2.2.2.2.2.7.P.P.Z.Z.AXAXAXVXVXzXzXzXfXfXfX X X`._.Z.Z.Z.Z.>.2.2.,.g g g g g g g g g >.2.2.2.2.2.2.2.1.>.g g g g g g h h >.>.2.2.2.2.2.2.,.g *X5XR.I.0X0X0X0X0X0X0X0X0X0X0X0X0X0X0X0X0X0X0XT.a a H.H.H.H.H.H.H.H.H.H.V.a a a a a F.F.F.F.F.F.A n M L L L L L U Y Y Y Y Y Y Y Y Y Y Y Y Y Y Y Y Y Y Y Y Y n n n R [ [ [ [ [ [ [ [ [ [ [ [ [ [ [ [ [ [ [ [ [ [ [ [ [ [ [ [ [ [ [ [ [ [ [ [ [ [ [ [ [ [ [ [ [ [ [ [ ` Y Y Y Y ; O O # O O O O O O O O @ - - - ; A A S / / / / [ [ [ [ ` ` ` ` ~ Y Y Y Y Y Y Y Y Y Y Y Y Y Y Y Y Y Y Y Y Y Y Y Y Y Y Y Y Y Y Y Y Y Y Y Y Y Y Y Y Y Y Y Y Y Y Y Y Y Y Y Y Y Y ` ` ` ` ` ` ` ` ` ` ' [ [ [ [ [ [ [ [ [ [ [ [ [ [ [ [ [ [ [ [ [ [ [ [ [ [ [ [ [ [ [ [ [ [ [ [ [ [ [ [ [ [ [ [ [ [ [ [ [ [ [ [ [ [ [ [ [ [ [ [ [ [ [ [ [ [ [ [ [ [ [ [ [ [ [ [ [ [ [ [ [ [ [ [ [ ` Y Y Y Y Y Y Y Y Y Y Y Y Y Y Y Y Y Y Y Y Y Y Y Y ",
"0X0XjXbXbXbXbXbXbXbXbXbXbXbXbXbXbXbXbXbXbXbXbXbXbXbXbXbXbXbXbXbXbXbXbXbXbXcX0X0X0X0X0X0X0X0X0X0X0X0X0X0X0X0X0X0X0X0X0X0X0X0X0X0X0X0X0XcXbXbXbXbXbXbXbXbXbXbXbXbXbXbXbXbXbXbXbXjX0X0X0X0X0X0X0X0X0X0X0X0X0X0X0X0X0X0X0X0X0X0X0X0X0X0X0X0X0X0X0X0X0X0X0X0X0X0X0X0X0X0X0X0X0X0X0X0X0X0X0X0X0X0X0X0X0X0X0X0X0X0X0X0X0X0X0X0X0X0X0X0X0X0X0X0X0X0X0X0X0X0X0X0X0X0X0X0X0X0X0X0X0X0X0X0X0XO O : 9 9 9 9 9 9 # O = Y Y Y Y Y Y [ [ [ [ [ [ [ [ [ [ [ [ [ [ [ [ [ [ [ [ [ [ [ [ [ [ [ [ [ [ P n n F.F.N.a a d V.V.H.H.H.H.H.H.a a l |.|.|.|.H.H.H.H.H.H.H.H.F.F.F.F.H.H.H.H.j a +.#.C 5 5 6 6 6 5 V #.b 5 0X0X0X0X0X0X0X0X0X0X0X0X0X0X0X0X0XI.[.5X5X6.>.2.2.h g g Z.VXAXAXAXAXAXAXAXAXAXAXAXAXAXAXAXAXAXAXAXzXT.Z.A.P.P.P.P.L.Z._.AXAXAXAXAXAXAXdXA.P.L.3.2.2.2.2.2.2.2.2.2.2.2.3.L.P.P.Z.Z. X X X`.`.T.T.T.G.G.G.Z.Z.Z.h h g g g 1.2.2.,.g g g g g g g g g ,.2.2.2.2.2.2.2.2.1.>.>.>.,.,.,.,.,.1.1.2.2.2.2.2.2.,.g *X5XR.I.0X0X0X0X0X0X0X0X0X0X0X0X0X0X0X0X0X0X0XT.a a H.H.H.H.H.H.H.H.H.H.V.a a a a a F.F.F.F.F.F.A n M L L L L L Y Y Y Y Y Y Y Y Y Y Y Y Y Y Y Y Y Y Y Y Y Y n n n R [ [ [ [ [ [ [ [ [ [ [ [ [ [ [ [ [ [ [ [ [ [ [ [ [ [ [ [ [ [ [ [ [ [ [ [ [ [ [ [ [ [ [ [ [ [ [ [ ` Y Y Y Y ; O O O O @ = = = ; A A S / / / / [ [ [ [ [ [ ` ` ` ` ` ` _ Y Y Y Y Y Y Y Y Y Y Y Y Y Y Y Y Y Y Y Y Y Y Y Y Y Y Y Y Y Y Y Y Y Y Y Y Y Y Y Y Y Y Y Y Y Y Y Y Y Y ` ` ` ` ` ` ` ` ` ` ` ' [ [ [ [ [ [ [ [ [ [ [ [ [ [ [ [ [ [ [ [ [ [ [ [ [ [ [ [ [ [ [ [ [ [ [ [ [ [ [ [ [ [ [ [ [ [ [ [ [ [ [ [ [ [ [ [ [ [ [ [ [ [ [ [ [ [ [ [ [ [ [ [ [ [ [ [ [ [ [ [ [ [ [ [ [ [ [ [ [ [ [ ` Y Y Y Y Y Y Y Y Y Y Y Y Y Y Y Y Y Y Y Y Y Y Y Y ",
"0X0XcXbXbXbXbXbXbXbXbXbXbXbXbXbXbXbXbXbXbXbXbXbXbXbXbXbXbXbXbXbXbXbXbXbXcXjX0X0X0X0X0X0X0X0X0X0X0X0X0X0X0X0X0X0X0X0X0X0X0X0X0X0X0X0XjXbXbXbXbXbXbXbXbXbXbXbXbXbXbXbXbXbXbXbXjX0X0X0X0X0X0X0X0X0X0X0X0X0X0X0X0X0X0X0X0X0X0X0X0X0X0X0X0X0X0X0X0X0X0X0X0X0X0X0X0X0X0X0X0X0X0X0X0X0X0X0X0X0X0X0X0X0X0X0X0X0X0X0X0X0X0X0X0X0X0X0X0X0X0X0X0X0X0X0X0X0X0X0X0X0X0X0X0X0X0X0X0X0X0X0X0X0X0XO O : 9 9 9 9 9 9 # O = Y Y Y Y Y Y [ [ [ [ [ [ [ [ [ [ [ [ [ [ [ [ [ [ [ [ [ [ [ [ [ [ [ [ [ [ P n n F.F.N.a a d V.V.H.H.H.H.H.H.a a l |.|.|.|.H.H.H.H.H.H.F.H.F.F.F.F.H.H.H.H.j t @.H 6 6 6 5 5 5 5 5 +.G 5 0X0X0X0X0X0X0X0X0X0X0X0X0X0X0X0X0XI.[.5X5X6.>.2.2.>.g g g `.AXAXAXAXAXAXAXAXAXAXAXAXAXAXAXAXAXAXzXT.Z.Z.L.P.P.P.P.L.Z._.AXAXAXAXAXAXAXdXA.P.7.2.2.2.2.2.2.2.2.2.2.2.3.L.P.P.P.Z.Z.Z.Z.Z.Z.Z.Z.Z.Z.Z.Z.Z.Z.Z.5.g h g g g 2.2.2.,.g g g g h h >.>.>.,.2.2.2.2.2.2.2.2.2.1.1.1.2.2.2.2.2.2.2.2.2.2.2.2.2.,.g *X5XR.I.0X0X0X0X0X0X0X0X0X0X0X0X0X0X0X0X0X0X0XT.a a H.H.H.H.H.H.H.H.H.H.V.a a a a d F.F.F.F.F.F.A n M L L L L L Y Y Y Y Y Y Y Y Y Y Y Y Y Y Y Y Y Y Y Y Y Y n n n R [ [ [ [ [ [ [ [ [ [ [ [ [ [ [ [ [ [ [ [ [ [ [ [ [ [ [ [ [ [ [ [ [ [ [ [ [ [ [ [ [ [ [ [ [ [ [ [ ` Y Y Y Y S ; ; A A S S S S R ` ` ` ` ` ` ` ` ` ` ` ` ` _ ` ` Y Y Y Y Y Y Y ~ ~ Y Y Y Y Y Y Y Y Y Y Y Y Y Y Y Y Y Y Y Y Y Y Y Y Y Y Y Y Y Y Y Y Y Y Y Y Y Y ` ` ` ` ` ` ` ` ` ` ` ' [ [ [ [ [ [ [ [ [ [ [ [ [ [ [ [ [ [ [ [ [ [ [ [ [ [ [ [ [ [ [ [ [ [ [ [ [ [ [ [ [ [ [ [ [ [ [ [ [ [ [ [ [ [ [ [ [ [ [ [ [ [ [ [ [ [ [ [ [ [ [ [ [ [ [ [ [ [ [ [ [ [ [ [ [ [ [ [ [ [ [ [ [ [ [ [ [ [ ` Y Y Y Y Y Y Y Y Y Y Y Y Y Y Y Y Y Y Y Y Y Y Y Y ",
"0XcXbXbXbXbXbXbXbXbXbXbXbXbXbXbXbXbXbXbXbXbXbXbXbXbXbXbXbXbXbXbXbXbXbXbXjX0X0X0X0X0X0X0X0X0X0X0X0X0X0X0X0X0X0X0X0X0X0X0X0X0X0X0X0XjXbXbXbXbXbXbXbXbXbXbXbXbXbXbXbXbXbXbXbXcX0X0X0X0X0X0X0X0X0X0X0X0X0X0X0X0X0X0X0X0X0X0X0X0X0X0X0X0X0X0X0X0X0X0X0X0X0X0X0X0X0X0X0X0X0X0X0X0X0X0X0X0X0X0X0X0X0X0X0X0X0X0X0X0X0X0X0X0X0X0X0X0X0X0X0X0X0X0X0X0X0X0X0X0X0X0X0X0X0X0X0X0X0X0X0X0X0X0X0XO O : 9 9 9 9 9 9 # O = Y Y Y Y Y Y [ [ [ [ [ [ [ [ [ [ [ [ [ [ [ [ [ [ [ [ [ [ [ [ [ [ [ [ [ [ P n n F.F.N.a a d V.V.H.H.H.H.H.H.a a l |.|.|.|.H.H.H.H.H.H.F.H.F.F.F.F.H.H.H.H.d D +.V V H H G G G 6 5 G F 7 0X0X0X0X0X0X0X0X0X0X0X0X0X0X;X~.~.I.[.5X5X6.>.2.2.1.g g g 5.1XVXAXAXAXAXAXAXAXAXAXAXAXAXAXAXAXzXT.Z.Z.I.P.P.P.P.P.L.Z._.AXVXVXzXzXzXfXT.A.i.3.2.2.2.2.2.2.2.2.2.2.2.7.P.P.P.P.Z.Z.Z.Z.Z.Z.Z.Z.Z.Z.Z.Z.Z.Z.5.h g h h h >.2.2.2.,.>.,.,.,.,.,.1.1.1.1.2.2.2.2.2.2.2.2.2.2.2.2.2.2.2.2.2.2.2.2.2.2.2.2.2.,.g *X5XR.I.0X0X0X0X0X0X0X0X0X0X0X0X0X0X0X0X0X0X0XT.a a H.H.H.H.H.H.H.H.H.H.V.a a a a j F.F.F.F.F.F.A n M L L L L L Y Y Y Y Y Y Y Y Y Y Y Y Y Y Y Y Y Y Y Y Y Y n n n R [ [ [ [ [ [ [ [ [ [ [ [ [ [ [ [ [ [ [ [ [ [ [ [ [ [ [ [ [ [ [ [ [ [ [ [ [ [ [ [ [ [ [ [ [ [ [ [ ` Y Y Y Y Y U U Y Y Y Y Y Y Y Y Y Y Y Y Y Y Y Y Y Y Y Y Y Y Y Y Y Y Y Y Y Y Y Y Y Y Y Y Y Y Y Y Y Y Y Y Y Y Y Y Y Y Y Y Y Y Y Y Y Y Y Y Y Y ` ` ` ` ` ` ` ` ` ` ` ` ' [ [ [ [ [ [ [ [ [ [ [ [ [ [ [ [ [ [ [ [ [ [ [ [ [ [ [ [ [ [ [ [ [ [ [ [ [ [ [ [ [ [ [ [ [ [ [ [ [ [ [ [ [ [ [ [ [ [ [ [ [ [ [ [ [ [ [ [ [ [ [ [ [ [ [ [ [ [ [ [ [ [ [ [ [ [ [ [ [ [ [ [ [ [ [ [ [ [ [ [ [ [ [ [ [ ` Y Y Y Y Y Y Y Y Y Y Y Y Y Y Y Y Y Y Y Y Y Y Y Y ",
"jXbXbXbXbXbXbXbXbXbXbXbXbXbXbXbXbXbXbXbXbXbXbXbXbXbXbXbXbXbXbXbXbXbXbXcX0X0X0X0X0X0X0X0X0X0X0X0X0X0X0X0X0X0X0X0X0X0X0X0X0X0X0X0XjXcXbXbXbXbXbXbXbXbXbXbXbXbXbXbXbXbXbXbXcXjX0X0X0X0X0X0X0X0X0X0X0X0X0X0X0X0X0X0X0X0X0X0X0X0X0X0X0X0X0X0X0X0X0X0X0X0X0X0X0X0X0X0X0X0X0X0X0X0X0X0X0X0X0X0X0X0X0X0X0X0X0X0X0X0X0X0X0X0X0X0X0X0X0X0X0X0X0X0X0X0X0X0X0X0X0X0X0X0X0X0X0X0X0X0X0X0X0X0X0XO O : 9 9 9 9 9 9 # O = Y Y Y Y Y Y [ [ [ [ [ [ [ [ [ [ [ [ [ [ [ [ [ [ [ [ [ [ [ [ [ [ [ [ [ [ P n n F.F.N.a a d V.V.H.H.H.H.H.H.a a l |.|.|.|.H.H.H.H.H.H.F.H.H.V.V.V.H.H.H.H.a D C 6 +.#.#.#.#.#.V 5 F C  .jXjX0XjX0X0X0X;X~.~.~.J.e.e...W W I.%X5X5X6.>.2.2.2.>.g g g 5.T.kXAXAXAXAXAXAXAXAXAXAXAXAXzX XT.Z.Z.A.L.P.P.P.P.P.L.Z.G. X`.`.T.T.T.G.Z.L.3.2.2.2.2.2.2.2.2.2.2.2.3.L.P.P.P.P.Z.Z.Z.Z.Z.Z.Z.Z.Z.Z.Z.A.A.Z.,.>.,.,.,.,.1.2.2.2.1.1.2.2.2.2.2.2.2.2.2.2.2.2.2.2.2.2.2.2.2.2.2.2.2.2.2.2.2.2.2.2.2.2.2.2.,.g *X5XR.I.0X0X0X0X0X0X0X0X0X0X0X0X0X0X0X0X0X0X0XT.a a ).H.H.H.H.H.H.H.H.H.V.a a a a j F.F.F.F.F.F.A n M L L L L L Y Y Y Y Y Y Y Y Y Y Y Y Y Y Y Y Y Y Y Y Y Y n n n R [ [ [ [ [ [ [ [ [ [ [ [ [ [ [ [ [ [ [ [ [ [ [ [ [ [ [ [ [ [ [ [ [ [ [ [ [ [ [ [ [ [ [ [ [ [ [ [ ' Y Y Y Y Y Y Y Y Y Y Y Y Y Y Y Y Y Y Y Y Y Y Y Y Y Y Y Y Y Y Y Y Y Y Y Y Y Y Y Y Y Y Y Y Y Y Y Y Y Y Y Y Y Y Y Y Y Y Y Y Y ` ` ` ` ` ` ` ` ` ` ` ` ` ' [ [ [ [ [ [ [ [ [ [ [ [ [ [ [ [ [ [ [ [ [ [ [ [ [ [ [ [ [ [ [ [ [ [ [ [ [ [ [ [ [ [ [ [ [ [ [ [ [ [ [ [ [ [ [ [ [ [ [ [ [ [ [ [ [ [ [ [ [ [ [ [ [ [ [ [ [ [ [ [ [ [ [ [ [ [ [ [ [ [ [ [ [ [ [ [ [ [ [ [ [ [ [ [ [ [ [ [ [ [ [ [ ` Y Y Y Y Y Y Y Y Y Y Y Y Y Y Y Y Y Y Y Y Y Y Y Y ",
"cXbXbXbXbXbXbXbXbXbXbXbXbXbXbXbXbXbXbXbXbXbXbXbXbXbXbXbXbXbXbXbXbXbXcXjX0X0X0X0X0X0X0X0X0X0X0X0X0X0X0X0X0X0X0X0X0X0X0X0X0X0X0X0XcXbXbXbXbXbXbXbXbXbXbXbXbXbXbXbXbXbXbXbXjX0X0X0X0X0X0X0X0X0X0X0X0X0X0X0X0X0X0X0X0X0X0X0X0X0X0X0X0X0X0X0X0X0X0X0X0X0X0X0X0X0X0X0X0X0X0X0X0X0X0X0X0X0X0X0X0X0X0X0X0X0X0X0X0X0X0X0X0X0X0X0X0X0X0X0X0X0X0X0X0X0X0X0X0X0X0X0X0X0X0X0X0X0X0X0X0X0X0X0X0XO O : 9 9 9 9 9 9 # O = Y Y Y Y Y ` [ [ [ [ [ [ [ [ [ [ [ [ [ [ [ [ [ [ [ [ [ [ [ [ [ [ [ [ [ [ P n n F.F.N.a a d V.V.H.H.H.H.H.H.a a l |.|.|.|.H.H.H.H.H.H.F.H.H.V.F.V.F.H.H.H.a 7 6 F #.#.#.#.#.#.V 5 C V  .jX0X1X~.~.J.e...W W W 7 6 6 V C C I.%X5X5X6.h 2.2.2.1.>.g g g g Z.dXVXVXAXAXAXAXAXAXVXzX XT.Z.Z.Z.A.L.P.P.P.P.P.P.L.Z.Z.Z.Z.Z.Z.Z.Z.Z.A.6.2.2.2.2.2.2.2.2.2.2.2.3.L.P.P.P.P.P.A.A.A.A.A.A.I.I.I.L.L.L.L.6.1.1.2.2.2.2.2.2.2.2.2.2.2.2.2.2.2.2.2.2.2.2.2.2.2.2.2.2.2.2.2.2.2.2.2.2.2.2.2.2.2.2.2.2.2.2.,.g *X5XR.I.0X0X0X0X0X0X0X0X0X0X0X0X0X0X0X0X0X0X0XT.a a `.H.H.H.H.H.H.H.H.H.N.a a a a j F.F.F.F.F.F.A n M L L L L L Y Y Y Y Y Y Y Y Y Y Y Y Y Y Y Y Y Y Y Y Y Y n n n R [ [ [ [ [ [ [ [ [ [ [ [ [ [ [ [ [ [ [ [ [ [ [ [ [ [ [ [ [ [ [ [ [ [ [ [ [ [ [ [ [ [ [ [ [ [ [ [ [ Y Y Y Y Y Y Y Y Y Y Y Y Y Y Y Y Y Y Y Y Y Y Y Y Y Y Y Y Y Y Y Y Y Y Y Y Y Y Y Y Y Y Y Y Y Y Y Y Y Y Y Y Y ` ` ` ` ` ` ` ` ` ` ` ` ' ' [ [ [ [ [ [ [ [ [ [ [ [ [ [ [ [ [ [ [ [ [ [ [ [ [ [ [ [ [ [ [ [ [ [ [ [ [ [ [ [ [ [ [ [ [ [ [ [ [ [ [ [ [ [ [ [ [ [ [ [ [ [ [ [ [ [ [ [ [ [ [ [ [ [ [ [ [ [ [ [ [ [ [ [ [ [ [ [ [ [ [ [ [ [ [ [ [ [ [ [ [ [ [ [ [ [ [ [ [ [ [ [ [ [ [ [ [ [ [ ' ` Y Y Y Y Y Y Y Y Y Y Y Y Y Y Y Y Y Y Y Y Y Y Y Y ",
"bXbXbXbXbXbXbXbXbXbXbXbXbXbXbXbXbXbXbXbXbXbXbXbXbXbXbXbXbXbXbXbXbXbXjX0X0X0X0X0X0X0X0X0X0X0X0X0X0X0X0X0X0X0X0X0X0X0X0X0X0X0X0XjXbXbXbXbXbXbXbXbXbXbXbXbXbXbXbXbXbXbXbXcX0X0X0X0X0X0X0X0X0X0X0X0X0X0X0X0X0X0X0X0X0X0X0X0X0X0X0X0X0X0X0X0X0X0X0X0X0X0X0X0X0X0X0X0X0X0X0X0X0X0X0X0X0X0X0X0X0X0X0X0X0X0X0X0X0X0X0X0X0X0X0X0X0X0X0X0X0X0X0X0X0X0X0X0X0X0X0X0X0X0X0X0X0X0X0X0X0X0X0X0X0XO O : 9 9 9 9 9 9 # O = Y Y Y Y Y ` [ [ [ [ [ [ [ [ [ [ [ [ [ [ [ [ [ [ [ [ [ [ [ [ [ [ [ [ [ [ P n n F.F.N.a a d V.V.H.H.H.H.H.H.a a l |.|.|.|.H.H.H.H.H.H.H.H.H.F.F.F.F.H.H.H.a a V +.#.#.#.#.#.#.V 7 D 5 7 e.e...W W 7 6 V C C C C F F H +.+.I.%X5X5X6.>.2.2.2.2.1.h g g g g A.`.`. XfXfXfXfX X`.T.Z.Z.Z.Z.A.L.P.P.P.P.P.P.P.L.Z.Z.Z.Z.Z.Z.Z.Z.Z.6.3.2.2.2.2.2.2.2.2.2.2.2.i.P.P.P.P.P.P.L.L.L.L.L.L.P.P.P.P.P.P.i.3.2.2.2.2.2.2.2.2.2.2.2.2.2.2.2.2.2.2.2.2.2.2.2.2.2.2.2.2.2.2.2.2.2.2.2.2.2.2.2.2.2.2.2.2.2.2.,.g *X5XR.I.0X0X0X0X0X0X0X0X0X0X0X0X0X0X0X0X0X0X0XT.a a |.).H.H.H.H.H.H.H.H.N.a a a a j F.F.F.F.F.F.A n M L L L L L Y Y Y Y Y Y Y Y Y Y Y Y Y Y Y Y Y Y Y Y Y Y n n n R [ [ [ [ [ [ [ [ [ [ [ [ [ [ [ [ [ [ [ [ [ [ [ [ [ [ [ [ [ [ [ [ [ [ [ [ [ [ [ [ [ [ [ [ [ [ [ [ [ ` Y Y Y Y Y Y Y Y Y Y Y Y Y Y Y Y Y Y Y Y Y Y Y Y Y Y Y Y Y Y Y Y Y Y Y Y Y Y Y Y Y Y Y ` ` ` ` ` ` ` ` ` ` ` ` ` ' ' [ [ [ [ [ [ [ [ [ [ [ [ [ [ [ [ [ [ [ [ [ [ [ [ [ [ [ [ [ [ [ [ [ [ [ [ [ [ [ [ [ [ [ [ [ [ [ [ [ [ [ [ [ [ [ [ [ [ [ [ [ [ [ [ [ [ [ [ [ [ [ [ [ [ [ [ [ [ [ [ [ [ [ [ [ [ [ [ [ [ [ [ [ [ [ [ [ [ [ [ [ [ [ [ [ [ [ [ [ [ [ [ [ [ [ [ [ [ [ [ [ [ [ [ [ [ [ [ ` Y Y Y Y Y Y Y Y Y Y Y Y Y Y Y Y Y Y Y Y Y Y Y Y ",
"bXbXbXbXbXbXbXbXbXbXbXbXbXbXbXbXbXbXbXbXbXbXbXbXbXbXbXbXbXbXbXbXbXjX0X0X0X0X0X0X0X0X0X0X0X0X0X0X0X0X0X0X0X0X0X0X0X0X0X0X0X0XjXcXbXbXbXbXbXbXbXbXbXbXbXbXbXbXbXbXbXbXcXjX0X0X0X0X0X0X0X0X0X0X0X0X0X0X0X0X0X0X0X0X0X0X0X0X0X0X0X0X0X0X0X0X0X0X0X0X0X0X0X0X0X0X0X0X0X0X0X0X0X0X0X0X0X0X0X0X0X0X0X0X0X0X0X0X0X0X0X0X0X0X0X0X0X0X0X0X0X0X0X0X0X0X0X0X0X0X0X0X0X0X0X0X0X0X0X0X0X0X0X0X0XO O : 9 9 9 9 9 9 # O = Y Y Y Y Y ` [ [ [ [ [ [ [ [ [ [ [ [ [ [ [ [ [ [ [ [ [ [ [ [ [ [ [ [ [ [ P n n F.F.N.a a d V.V.H.H.H.H.H.H.a a l |.|.|.|.H.H.H.H.H.H.H.H.H.F.F.F.F.H.H.H.a 7 +.#.#.#.#.#.#.#.V 7 7 6 6 6 V C V C F F H +.+.+.+.#.#.#.#.#.I.*X5X5X6.>.2.2.2.2.2.,.h g g 5.Z.Z.Z.Z.G.G.G.G.Z.Z.Z.Z.Z.Z.A.L.P.P.P.P.P.P.P.P.L.Z.Z.Z.Z.Z.Z.Z.Z.Z.,.2.2.2.2.2.2.2.2.2.2.2.7.P.P.P.P.P.P.P.P.P.P.P.P.P.P.P.P.P.P.L.3.2.2.2.2.2.2.2.2.2.2.2.2.2.2.2.2.2.2.2.2.2.2.2.2.2.2.2.2.2.2.2.2.2.2.2.2.2.2.2.2.2.2.2.2.2.2.2.,.g *X5XR.I.0X0X0X0X0X0X0X0X0X0X0X0X0X0X0X0X0X0X0XT.a a |.).H.H.H.H.H.H.H.H.N.a a a a j F.F.F.F.F.F.A n M L L L L L Y Y Y Y Y Y Y Y Y Y Y Y Y Y Y Y Y Y Y Y Y Y n n n R [ [ [ [ [ [ [ [ [ [ [ [ [ [ [ [ [ [ [ [ [ [ [ [ [ [ [ [ [ [ [ [ [ [ [ [ [ [ [ [ [ [ [ [ [ [ [ [ [ ` ` ` ` ` Y Y Y Y Y Y Y Y Y Y Y Y Y Y Y Y Y Y Y Y Y Y Y Y Y Y Y Y Y Y ` ` ` ` ` ` ` ` ` ` ` ` ` ` ' [ [ [ [ [ [ [ [ [ [ [ [ [ [ [ [ [ [ [ [ [ [ [ [ [ [ [ [ [ [ [ [ [ [ [ [ [ [ [ [ [ [ [ [ [ [ [ [ [ [ [ [ [ [ [ [ [ [ [ [ [ [ [ [ [ [ [ [ [ [ [ [ [ [ [ [ [ [ [ [ [ [ [ [ [ [ [ [ [ [ [ [ [ [ [ [ [ [ [ [ [ [ [ [ [ [ [ [ [ [ [ [ [ [ [ [ [ [ [ [ [ [ [ [ [ [ [ [ [ [ [ [ [ [ [ [ [ ` Y Y Y Y Y Y Y Y Y Y Y Y Y Y Y Y Y Y Y Y Y Y Y Y ",
"bXbXbXbXbXbXbXbXbXbXbXbXbXbXbXbXbXbXbXbXbXbXbXbXbXbXbXbXbXbXbXbXcX0X0X0X0X0X0X0X0X0X0X0X0X0X0X0X0X0X0X0X0X0X0X0X0X0X0X0X0X0XcXbXbXbXbXbXbXbXbXbXbXbXbXbXbXbXbXbXbXbXjX0X0X0X0X0X0X0X0X0X0X0X0X0X0X0X0X0X0X0X0X0X0X0X0X0X0X0X0X0X0X0X0X0X0X0X0X0X0X0X0X0X0X0X0X0X0X0X0X0X0X0X0X0X0X0X0X0X0X0X0X0X0X0X0X0X0X0X0X0X0X0X0X0X0X0X0X0X0X0X0X0X0X0X0X0X0X0X0X0X0X0X0X0X0X0X0X0X0X0X0X0X0XO O : 9 9 9 9 9 9 # O = Y Y Y Y Y ` [ [ [ [ [ [ [ [ [ [ [ [ [ [ [ [ [ [ [ [ [ [ [ [ [ [ [ [ [ [ P n n F.F.N.a a d V.V.H.H.H.H.H.H.a a l |.|.|.|.H.H.H.H.H.H.H.F.H.F.F.F.F.F.H.H.a D #.#.#.#.#.#.#.#.6 6 C C F F G +.+.+.#.#.#.#.#.#.#.#.#.#.#.#.I.[.5X5X6.>.2.2.2.2.2.2.,.>.k Z.Z.Z.Z.Z.Z.Z.Z.Z.Z.Z.Z.Z.A.A.L.P.P.P.P.P.P.P.P.P.L.A.A.A.A.I.I.I.L.3.1.2.2.2.2.2.2.2.2.2.2.3.L.P.P.P.P.P.P.P.P.P.P.P.P.P.P.P.P.P.P.7.2.2.2.2.2.2.2.2.2.2.2.2.2.2.2.2.2.2.2.2.2.2.2.2.2.2.2.2.2.2.2.2.2.2.2.2.2.2.2.2.2.2.2.2.2.2.2.2.,.g *X5XR.I.0X0X0X0X0X0X0X0X0X0X0X0X0X0X0X0X0X0X0XT.a a |.).H.H.H.H.H.H.H.H.N.a a a a j F.F.F.F.F.F.A n M L L L L L Y Y Y Y Y Y Y Y Y Y Y Y Y Y Y Y Y Y Y Y Y Y n n n R [ [ [ [ [ [ [ [ [ [ [ [ [ [ [ [ [ [ [ [ [ [ [ [ [ [ [ [ [ [ [ [ [ [ [ [ [ [ [ [ [ [ [ [ [ [ [ [ [ ' ' ` ` ` ` ` ` ` ` ` ` ` Y Y Y Y Y Y Y ` ` ` ` ` ` ` ` ` ` ` ` ` ` ` ` ` ` ` ` ' ' [ [ [ [ [ [ [ [ [ [ [ [ [ [ [ [ [ [ [ [ [ [ [ [ [ [ [ [ [ [ [ [ [ [ [ [ [ [ [ [ [ [ [ [ [ [ [ [ [ [ [ [ [ [ [ [ [ [ [ [ [ [ [ [ [ [ [ [ [ [ [ [ [ [ [ [ [ [ [ [ [ [ [ [ [ [ [ [ [ [ [ [ [ [ [ [ [ [ [ [ [ [ [ [ [ [ [ [ [ [ [ [ [ [ [ [ [ [ [ [ [ [ [ [ [ [ [ [ [ [ [ [ [ [ [ [ [ [ [ [ [ [ [ [ [ ` Y Y Y Y Y Y Y Y Y Y Y Y Y Y Y Y Y Y Y Y Y Y Y Y ",
"bXbXbXbXbXbXbXbXbXbXbXbXbXbXbXbXbXbXbXbXbXbXbXbXbXbXbXbXbXbXbXcXjX0X0X0X0X0X0X0X0X0X0X0X0X0X0X0X0X0X0X0X0X0X0X0X0X0X0X0X0XcXbXbXbXbXbXbXbXbXbXbXbXbXbXbXbXbXbXbXbXjX0X0X0X0X0X0X0X0X0X0X0X0X0X0X0X0X0X0X0X0X0X0X0X0X0X0X0X0X0X0X0X0X0X0X0X0X0X0X0X0X0X0X0X0X0X0X0X0X0X0X0X0X0X0X0X0X0X0X0X0X0X0X0X0X0X0X0X0X0X0X0X0X0X0X0X0X0X0X0X0X0X0X0X0X0X0X0X0X0X0X0X0X0X0X0X0X0X0X0X0X0X0X0XO O : 9 9 9 9 9 9 # O = Y Y Y Y Y ` [ [ [ [ [ [ [ [ [ [ [ [ [ [ [ [ [ [ [ [ [ [ [ [ [ [ [ [ [ [ P n n F.F.N.a a d V.V.H.H.H.H.H.H.a a l |.|.|.|.H.H.H.H.H.H.H.F.H.H.F.F.F.F.H.H.a D #.#.#.#.#.#.#.+.5 C +.+.#.#.#.#.#.#.#.#.#.#.#.#.#.#.#.#.#.#.I.[.5X5X6.>.2.2.2.2.2.2.2.3.Z.Z.Z.Z.Z.Z.Z.Z.Z.Z.Z.Z.A.A.L.L.P.P.P.P.P.P.P.P.P.P.P.L.L.L.L.P.P.P.7.2.2.2.2.2.2.2.2.2.2.2.3.L.P.P.P.P.P.P.P.P.P.P.P.P.P.P.P.P.P.P.i.3.2.2.2.2.2.2.2.2.2.2.2.2.2.2.2.2.2.2.2.2.2.2.2.2.2.2.2.2.2.2.2.2.2.2.2.2.2.2.2.2.2.2.2.2.2.2.2.2.,.g *X5XR.I.0X0X0X0X0X0X0X0X0X0X0X0X0X0X0X0X0X0X0XZ.a a |._.H.H.H.H.H.H.H.H.N.a a a a j F.F.F.F.F.F.A n M L L L L L Y Y Y Y Y Y Y Y Y Y Y Y Y Y Y Y Y Y Y Y Y Y n n n R [ [ [ [ [ [ [ [ [ [ [ [ [ [ [ [ [ [ [ [ [ [ [ [ [ [ [ [ [ [ [ [ [ [ [ [ [ [ [ [ [ [ [ [ [ [ [ [ [ [ [ [ [ [ [ [ ' ' ` ` ` ` ` ` ` ` ` ` ` ` ` ` ` ` ` ` ` ' ' ' [ [ [ [ [ [ [ [ [ [ [ [ [ [ [ [ [ [ [ [ [ [ [ [ [ [ [ [ [ [ [ [ [ [ [ [ [ [ [ [ [ [ [ [ [ [ [ [ [ [ [ [ [ [ [ [ [ [ [ [ [ [ [ [ [ [ [ [ [ [ [ [ [ [ [ [ [ [ [ [ [ [ [ [ [ [ [ [ [ [ [ [ [ [ [ [ [ [ [ [ [ [ [ [ [ [ [ [ [ [ [ [ [ [ [ [ [ [ [ [ [ [ [ [ [ [ [ [ [ [ [ [ [ [ [ [ [ [ [ [ [ [ [ [ [ [ [ [ [ [ [ [ [ [ [ [ ` Y Y Y Y Y Y Y Y Y Y Y Y Y Y Y Y Y Y Y Y Y Y Y Y ",
"bXbXbXbXbXbXbXbXbXbXbXbXbXbXbXbXbXbXbXbXbXbXbXbXbXbXbXbXbXbXbXjX0X0X0X0X0X0X0X0X0X0X0X0X0X0X0X0X0X0X0X0X0X0X0X0X0X0X0X0XjXbXbXbXbXbXbXbXbXbXbXbXbXbXbXbXbXbXbXbXcX0X0X0X0X0X0X0X0X0X0X0X0X0X0X0X0X0X0X0X0X0X0X0X0X0X0X0X0X0X0X0X0X0X0X0X0X0X0X0X0X0X0X0X0X0X0X0X0X0X0X0X0X0X0X0X0X0X0X0X0X0X0X0X0X0X0X0X0X0X0X0X0X0X0X0X0X0X0X0X0X0X0X0X0X0X0X0X0X0X0X0X0X0X0X0X0X0X0X0X0X0X0X0X0XO O : 9 9 9 9 9 9 # O = Y Y Y Y Y ` [ [ [ [ [ [ [ [ [ [ [ [ [ [ [ [ [ [ [ [ [ [ [ [ [ [ [ [ [ [ P n n F.F.N.a a d V.V.H.H.H.H.H.H.a a l |.|.|.|.H.H.H.H.H.H.H.F.H.H.F.F.F.F.H.H.a D #.#.#.#.#.#.#.H 5 G #.#.#.#.#.#.#.#.#.#.#.#.#.#.#.#.#.#.#.@.A.[.5X5X6.>.2.2.2.2.2.2.2.7.L.L.I.A.A.Z.Z.Z.A.A.A.I.L.L.P.P.P.P.P.P.P.P.P.P.P.P.P.P.P.P.P.P.P.i.3.2.2.2.2.2.2.2.2.2.2.2.7.P.P.P.P.P.P.P.P.P.P.P.P.P.P.P.P.P.P.L.3.2.2.2.2.2.2.2.2.2.2.2.2.2.2.2.2.2.2.2.2.2.2.2.2.2.2.2.2.2.2.2.2.2.2.2.2.2.2.2.2.2.2.2.2.2.2.2.2.2.,.g *X5XR.I.0X0X0X0X0X0X0X0X0X0X0X0X0X0X0X0X0X0X0X5.a a |.`.H.H.H.H.H.H.H.H.N.a a a a j F.F.F.F.F.F.A n M L L L L L Y Y Y Y Y Y Y Y Y Y Y Y Y Y Y Y Y Y Y Y Y Y n n n R [ [ [ [ [ [ [ [ [ [ [ [ [ [ [ [ [ [ [ [ [ [ [ [ [ [ [ [ [ [ [ [ [ [ [ [ [ [ [ [ [ [ [ [ [ [ [ [ [ [ [ [ [ [ [ [ [ [ [ [ [ [ [ ' [ [ [ [ [ [ [ [ [ [ [ [ [ [ [ [ [ [ [ [ [ [ [ [ [ [ [ [ [ [ [ [ [ [ [ [ [ [ [ [ [ [ [ [ [ [ [ [ [ [ [ [ [ [ [ [ [ [ [ [ [ [ [ [ [ [ [ [ [ [ [ [ [ [ [ [ [ [ [ [ [ [ [ [ [ [ [ [ [ [ [ [ [ [ [ [ [ [ [ [ [ [ [ [ [ [ [ [ [ [ [ [ [ [ [ [ [ [ [ [ [ [ [ [ [ [ [ [ [ [ [ [ [ [ [ [ [ [ [ [ [ [ [ [ [ [ [ [ [ [ [ [ [ [ [ [ [ [ [ [ [ [ [ [ [ [ [ [ [ [ [ [ ` Y Y Y Y Y Y Y Y Y Y Y Y Y Y Y Y Y Y Y Y Y Y Y Y ",
"bXbXbXbXbXbXbXbXbXbXbXbXbXbXbXbXbXbXbXbXbXbXbXbXbXbXbXbXbXbXcX0X0X0X0X0X0X0X0X0X0X0X0X0X0X0X0X0X0X0X0X0X0X0X0X0X0X0X0XjXcXbXbXbXbXbXbXbXbXbXbXbXbXbXbXbXbXbXbXcXjX0X0X0X0X0X0X0X0X0X0X0X0X0X0X0X0X0X0X0X0X0X0X0X0X0X0X0X0X0X0X0X0X0X0X0X0X0X0X0X0X0X0X0X0X0X0X0X0X0X0X0X0X0X0X0X0X0X0X0X0X0X0X0X0X0X0X0X0X0X0X0X0X0X0X0X0X0X0X0X0X0X0X0X0X0X0X0X0X0X0X0X0X0X0X0X0X0X0X0X0X0X0X0X0XO O : 9 9 9 9 9 9 # O = Y Y Y Y Y ` [ [ [ [ [ [ [ [ [ [ [ [ [ [ [ [ [ [ [ [ [ [ [ [ [ [ [ [ [ [ P n n F.F.N.a a d V.V.H.H.H.H.H.H.a a l |.|.|.|.H.H.H.H.H.H.H.F.H.H.F.F.F.F.H.H.a D #.#.#.#.#.#.#.H 5 H #.#.#.#.#.#.#.#.#.#.#.#.#.#.#.#.#.#.#.+.I.[.5X5X6.>.2.2.2.2.2.2.3.L.P.P.P.L.L.L.L.L.L.L.L.P.P.P.P.P.P.P.P.P.P.P.P.P.P.P.P.P.P.P.P.P.L.3.2.2.2.2.2.2.2.2.2.2.2.3.L.P.P.P.P.P.P.P.P.P.P.P.P.P.P.P.P.P.P.3.2.2.2.2.2.2.2.2.2.2.2.2.2.2.2.2.2.2.2.2.2.2.2.2.2.2.2.2.2.2.2.2.2.2.2.2.2.2.2.2.2.2.2.2.2.2.2.2.2.2.,.g *X5XR.I.0X0X0X0X0X0X0X0X0X0X0X0X0X0X0X0X0X0X0X5.a a |.|.H.H.H.H.H.H.H.H.N.a a a a j F.F.F.F.F.F.V n M L L L L L Y Y Y Y Y Y Y Y Y Y Y Y Y Y Y Y Y Y Y Y Y Y n n n R [ [ [ [ [ [ [ [ [ [ [ [ [ [ [ [ [ [ [ [ [ [ [ [ [ [ [ [ [ [ [ [ [ [ [ [ [ [ [ [ [ [ [ [ [ [ [ [ [ [ [ [ [ [ [ [ [ [ [ [ [ [ [ [ [ [ [ [ [ [ [ [ [ [ [ [ [ [ [ [ [ [ [ [ [ [ [ [ [ [ [ [ [ [ [ [ [ [ [ [ [ [ [ [ [ [ [ [ [ [ [ [ [ [ [ [ [ [ [ [ [ [ [ [ [ [ [ [ [ [ [ [ [ [ [ [ [ [ [ [ [ [ [ [ [ [ [ [ [ [ [ [ [ [ [ [ [ [ [ [ [ [ [ [ [ [ [ [ [ [ [ [ [ [ [ [ [ [ [ [ [ [ [ [ [ [ [ [ [ [ [ [ [ [ [ [ [ [ [ [ [ [ [ [ [ [ [ [ [ [ [ [ [ [ [ [ [ [ [ [ [ [ [ [ [ [ [ [ [ [ [ [ [ [ [ [ ` Y Y Y Y Y Y Y Y Y Y Y Y Y Y Y Y Y Y Y Y Y Y Y Y ",
"bXbXbXbXbXbXbXbXbXbXbXbXbXbXbXbXbXbXbXbXbXbXbXbXbXbXbXbXbXcXjX0X0X0X0X0X0X0X0X0X0X0X0X0X0X0X0X0X0X0X0X0X0X0X0X0X0X0X0XcXbXbXbXbXbXbXbXbXbXbXbXbXbXbXbXbXbXbXbXjX0X0X0X0X0X0X0X0X0X0X0X0X0X0X0X0X0X0X0X0X0X0X0X0X0X0X0X0X0X0X0X0X0X0X0X0X0X0X0X0X0X0X0X0X0X0X0X0X0X0X0X0X0X0X0X0X0X0X0X0X0X0X0X0X0X0X0X0X0X0X0X0X0X0X0X0X0X0X0X0X0X0X0X0X0X0X0X0X0X0X0X0X0X0X0X0X0X0X0X0X0X0X0X0X0XO O : 9 9 9 9 9 9 # O = Y Y Y Y Y ` [ [ [ [ [ [ [ [ [ [ [ [ [ [ [ [ [ [ [ [ [ [ [ [ [ [ [ [ [ [ P n n F.F.N.a a d V.V.H.H.H.H.H.H.a a l |.|.|.|.H.H.H.H.H.H.H.F.H.H.F.F.F.F.F.F.a D #.#.#.#.#.#.#.G 5 +.#.#.#.#.#.#.#.#.#.#.#.#.#.#.#.#.#.#.#.G I.[.5X5X6.>.2.2.2.2.2.3.L.P.P.P.P.P.P.P.P.P.P.P.P.P.P.P.P.P.P.P.P.P.P.P.P.P.P.P.P.P.P.P.P.P.7.2.2.2.2.2.2.2.2.2.2.2.3.L.P.P.P.P.P.P.P.P.P.P.P.P.P.P.P.P.P.P.7.2.2.2.2.2.2.2.2.2.2.2.2.2.2.2.2.2.2.2.2.2.2.2.2.2.2.2.2.2.2.2.2.2.2.2.2.2.2.2.2.2.2.2.2.2.2.2.2.2.2.2.,.g *X5XR.I.0X0X0X0X0X0X0X0X0X0X0X0X0X0X0X0X0X0X0X5.a a |.|.H.H.H.H.H.H.H.H.N.a a a a j F.F.F.F.F.F.n n M L L L L L Y Y Y Y Y Y Y Y Y Y Y Y Y Y Y Y Y Y Y Y Y Y n n n R [ [ [ [ [ [ [ [ [ [ [ [ [ [ [ [ [ [ [ [ [ [ [ [ [ [ [ [ [ [ [ [ [ [ [ [ [ [ [ [ [ [ [ [ [ [ [ [ [ [ [ [ [ [ [ [ [ [ [ [ [ [ [ [ [ [ [ [ [ [ [ [ [ [ [ [ [ [ [ [ [ [ [ [ [ [ [ [ [ [ [ [ [ [ [ [ [ [ [ [ [ [ [ [ [ [ [ [ [ [ [ [ [ [ [ [ [ [ [ [ [ [ [ [ [ [ [ [ [ [ [ [ [ [ [ [ [ [ [ [ [ [ [ [ [ [ [ [ [ [ [ [ [ [ [ [ [ [ [ [ [ [ [ [ [ [ [ [ [ [ [ [ [ [ [ [ [ [ [ [ [ [ [ [ [ [ [ [ [ [ [ [ [ [ [ [ [ [ [ [ [ [ [ [ [ [ [ [ [ [ [ [ [ [ [ [ [ [ [ [ [ [ [ [ [ [ [ [ [ [ [ [ [ [ [ [ ` Y Y Y Y Y Y Y Y Y Y Y Y Y Y Y Y Y Y Y Y Y Y Y Y ",
"bXbXbXbXbXbXbXbXbXbXbXbXbXbXbXbXbXbXbXbXbXbXbXbXbXbXbXbXbXjX0X0X0X0X0X0X0X0X0X0X0X0X0X0X0X0X0X0X0X0X0X0X0X0X0X0X0X0XjXbXbXbXbXbXbXbXbXbXbXbXbXbXbXbXbXbXbXbXcX0X0X0X0X0X0X0X0X0X0X0X0X0X0X0X0X0X0X0X0X0X0X0X0X0X0X0X0X0X0X0X0X0X0X0X0X0X0X0X0X0X0X0X0X0X0X0X0X0X0X0X0X0X0X0X0X0X0X0X0X0X0X0X0X0X0X0X0X0X0X0X0X0X0X0X0X0X0X0X0X0X0X0X0X0X0X0X0X0X0X0X0X0X0X0X0X0X0X0X0X0X0X0X0X0X0XO O : 9 9 9 9 9 9 # O = Y Y Y Y Y ` [ [ [ [ [ [ [ [ [ [ [ [ [ [ [ [ [ [ [ [ [ [ [ [ [ [ [ [ [ [ P n n F.F.N.a a d V.V.H.H.H.H.H.H.a a l |.|.|.|.H.H.H.H.H.H.H.F.H.H.F.F.F.F.F.V.a D #.#.#.#.#.#.#.C 5 #.#.#.#.#.#.#.#.#.#.#.#.#.#.#.#.#.#.#.+.C A.[.5X5X6.h 2.2.2.2.2.7.P.P.P.P.P.P.P.P.P.P.P.P.P.P.P.P.P.P.P.P.P.P.P.P.P.P.P.P.P.P.P.P.P.i.3.2.2.2.2.2.2.2.2.2.2.2.7.P.P.P.P.P.P.P.P.P.P.P.P.P.P.P.P.P.P.L.3.2.2.2.2.2.2.2.2.2.2.2.2.2.2.2.2.2.2.2.2.2.2.2.2.2.2.2.2.2.2.2.2.2.2.2.2.2.2.2.2.2.2.2.2.2.2.2.2.2.2.2.,.g *X5XR.I.0X0X0X0X0X0X0X0X0X0X0X0X0X0X0X0X0X0X0X5.a a |.|.H.H.H.H.H.H.H.H.N.a a a a j F.F.F.F.F.F.n n N L L L L L Y Y Y Y Y Y Y Y Y Y Y Y Y Y Y Y Y Y Y Y Y Y n n n R [ [ [ [ [ [ [ [ [ [ [ [ [ [ [ [ [ [ [ [ [ [ [ [ [ [ [ [ [ [ [ [ [ [ [ [ [ [ [ [ [ [ [ [ [ [ [ [ [ [ [ [ [ [ [ [ [ [ [ [ [ [ [ [ [ [ [ [ [ [ [ [ [ [ [ [ [ [ [ [ [ [ [ [ [ [ [ [ [ [ [ [ [ [ [ [ [ [ [ [ [ [ [ [ [ [ [ [ [ [ [ [ [ [ [ [ [ [ [ [ [ [ [ [ [ [ [ [ [ [ [ [ [ [ [ [ [ [ [ [ [ [ [ [ [ [ [ [ [ [ [ [ [ [ [ [ [ [ [ [ [ [ [ [ [ [ [ [ [ [ [ [ [ [ [ [ [ [ [ [ [ [ [ [ [ [ [ [ [ [ [ [ [ [ [ [ [ [ [ [ [ [ [ [ [ [ [ [ [ [ [ [ [ [ [ [ [ [ [ [ [ [ [ [ [ [ [ [ [ [ [ [ [ [ [ ' ` Y Y Y Y Y Y Y Y Y Y Y Y Y Y Y Y Y Y Y Y Y Y Y Y ",
"bXbXbXbXbXbXbXbXbXbXbXbXbXbXbXbXbXbXbXbXbXbXbXbXbXbXbXbXcX0X0X0X0X0X0X0X0X0X0X0X0X0X0X0X0X0X0X0X0X0X0X0X0X0X0X0X0XjXcXbXbXbXbXbXbXbXbXbXbXbXbXbXbXbXbXbXbXcXjX0X0X0X0X0X0X0X0X0X0X0X0X0X0X0X0X0X0X0X0X0X0X0X0X0X0X0X0X0X0X0X0X0X0X0X0X0X0X0X0X0X0X0X0X0X0X0X0X0X0X0X0X0X0X0X0X0X0X0X0X0X0X0X0X0X0X0X0X0X0X0X0X0X0X0X0X0X0X0X0X0X0X0X0X0X0X0X0X0X0X0X0X0X0X0X0X0X0X0X0X0X0X0X0X0X0XO O : 9 9 9 9 9 9 # O = Y Y Y Y Y ` [ [ [ [ [ [ [ [ [ [ [ [ [ [ [ [ [ [ [ [ [ [ [ [ [ [ [ [ [ [ P n n F.F.N.a a d V.V.H.H.H.H.H.H.a a l |.|.|.|.H.H.H.H.H.H.H.F.H.H.H.F.F.F.F.V.a D #.#.#.#.#.#.#.V 6 #.#.#.#.#.#.#.#.#.#.#.#.#.#.#.#.#.#.#.G 6 I.[.5X5X6.h 2.2.2.2.7.L.P.P.P.P.P.P.P.P.P.P.P.P.P.P.P.P.P.P.P.P.P.P.P.P.P.P.P.P.P.P.P.P.L.3.2.2.2.2.2.2.2.2.2.2.2.3.L.P.P.P.P.P.P.P.P.P.P.P.P.P.P.P.P.P.L.3.2.2.2.2.2.2.2.2.2.2.2.2.2.2.2.2.2.2.2.2.2.2.2.2.2.2.2.2.2.2.2.2.2.2.2.2.2.2.2.2.2.2.2.2.2.2.2.2.2.2.2.2.,.g *X5XR.I.0X0X0X0X0X0X0X0X0X0X0X0X0X0X0X0X0X0X0X5.a a |.|.H.H.H.H.H.H.H.H.N.a a a a j F.F.F.F.F.F.n n Z L L L L L Y Y Y Y Y Y Y Y Y Y Y Y Y Y Y Y Y Y Y Y Y Y n n n R [ [ [ [ [ [ [ [ [ [ [ [ [ [ [ [ [ [ [ [ [ [ [ [ [ [ [ [ [ [ [ [ [ [ [ [ [ [ [ [ [ [ [ [ [ [ [ [ [ [ [ [ [ [ [ [ [ [ [ [ [ [ [ [ [ [ [ [ [ [ [ [ [ [ [ [ [ [ [ [ [ [ [ [ [ [ [ [ [ [ [ [ [ [ [ [ [ [ [ [ [ [ [ [ [ [ [ [ [ [ [ [ [ [ [ [ [ [ [ [ [ [ [ [ [ [ [ [ [ [ [ [ [ [ [ [ [ [ [ [ [ [ [ [ [ [ [ [ [ [ [ [ [ [ [ [ [ [ [ [ [ [ [ [ [ [ [ [ [ [ [ [ [ [ [ [ [ [ [ [ [ [ [ [ [ [ [ [ [ [ [ [ [ [ [ [ [ [ [ [ [ [ [ [ [ [ [ [ [ [ [ [ [ [ [ [ [ [ [ [ [ [ [ [ [ [ [ [ [ [ [ [ [ [ [ [ ` Y Y Y Y Y Y Y Y Y Y Y Y Y Y Y Y Y Y Y Y Y Y Y Y ",
"bXbXbXbXbXbXbXbXbXbXbXbXbXbXbXbXbXbXbXbXbXbXbXbXbXbXbXcXjX0X0X0X0X0X0X0X0X0X0X0X0X0X0X0X0X0X0X0X0X0X0X0X0X0X0X0XjXcXbXbXbXbXbXbXbXbXbXbXbXbXbXbXbXbXbXbXcXjX0X0X0X0X0X0X0X0X0X0X0X0X0X0X0X0X0X0X0X0X0X0X0X0X0X0X0X0X0X0X0X0X0X0X0X0X0X0X0X0X0X0X0X0X0X0X0X0X0X0X0X0X0X0X0X0X0X0X0X0X0X0X0X0X0X0X0X0X0X0X0X0X0X0X0X0X0X0X0X0X0X0X0X0X0X0X0X0X0X0X0X0X0X0X0X0X0X0X0X0X0X0X0X0X0X0X0XO O : 9 9 9 9 9 9 # O = Y Y Y Y Y ` [ [ [ [ [ [ [ [ [ [ [ [ [ [ [ [ [ [ [ [ [ [ [ [ [ [ [ [ [ [ P n n F.F.N.a a d V.V.H.H.H.H.H.F.a a l |.|.|.|.H.H.H.H.H.H.H.F.H.H.H.F.F.F.V.V.a D #.#.#.#.#.#.#.6 V #.#.#.#.#.#.#.#.#.#.#.#.#.#.#.#.#.#.+.G 6 I.[.5X5X6.>.2.2.2.3.L.P.P.P.P.P.P.P.P.P.P.P.P.P.P.P.P.P.P.P.P.P.P.P.P.P.P.P.P.P.P.P.P.P.3.2.2.2.2.2.2.2.2.2.2.2.3.L.P.P.P.P.P.P.P.P.P.P.P.P.P.P.P.P.P.P.7.2.2.2.2.2.2.2.2.2.2.2.2.2.2.2.2.2.2.2.2.2.2.2.2.2.2.2.2.2.2.2.2.2.2.2.2.2.2.2.2.2.2.2.2.2.2.2.2.2.2.2.1.1.>.g *X5XR.I.0X0X0X0X0X0X0X0X0X0X0X0X0X0X0X0X0X0X0X5.a a |.|.H.H.H.H.H.H.H.H.l a a a a j F.F.F.F.F.F.n n Z L L L L L Y Y Y Y Y Y Y Y Y Y Y Y Y Y Y Y Y Y Y Y Y Y n n n R [ [ [ [ [ [ [ [ [ [ [ [ [ [ [ [ [ [ [ [ [ [ [ [ [ [ [ [ [ [ [ [ [ [ [ [ [ [ [ [ [ [ [ [ [ [ [ [ [ [ [ [ [ [ [ [ [ [ [ [ [ [ [ [ [ [ [ [ [ [ [ [ [ [ [ [ [ [ [ [ [ [ [ [ [ [ [ [ [ [ [ [ [ [ [ [ [ [ [ [ [ [ [ [ [ [ [ [ [ [ [ [ [ [ [ [ [ [ [ [ [ [ [ [ [ [ [ [ [ [ [ [ [ [ [ [ [ [ [ [ [ [ [ [ [ [ [ [ [ [ [ [ [ [ [ [ [ [ [ [ [ [ [ [ [ [ [ [ [ [ [ [ [ [ [ [ [ [ [ [ [ [ [ [ [ [ [ [ [ [ [ [ [ [ [ [ [ [ [ [ [ [ [ [ [ [ [ [ [ [ [ [ [ [ [ [ [ [ [ [ [ [ [ [ [ [ [ [ [ [ [ [ [ [ [ [ ` Y Y Y Y Y Y Y Y Y Y Y Y Y Y Y Y Y Y Y Y Y Y Y Y ",
"bXbXbXbXbXbXbXbXbXbXbXbXbXbXbXbXbXbXbXbXbXbXbXbXbXbXcXjX0X0X0X0X0X0X0X0X0X0X0X0X0X0X0X0X0X0X0X0X0X0X0X0X0X0X0X0XcXbXbXbXbXbXbXbXbXbXbXbXbXbXbXbXbXbXbXbXjX0X0X0X0X0X0X0X0X0X0X0X0X0X0X0X0X0X0X0X0X0X0X0X0X0X0X0X0X0X0X0X0X0X0X0X0X0X0X0X0X0X0X0X0X0X0X0X0X0X0X0X0X0X0X0X0X0X0X0X0X0X0X0X0X0X0X0X0X0X0X0X0X0X0X0X0X0X0X0X0X0X0X0X0X0X0X0X0X0X0X0X0X0X0X0X0X0X0X0X0X0X0X0X0X0X0X0X0XO O : 9 9 9 9 9 9 # O = Y Y Y Y Y ` [ [ [ [ [ [ [ [ [ [ [ [ [ [ [ [ [ [ [ [ [ [ [ [ [ [ [ [ [ [ P n n F.F.N.a a d V.V.H.H.H.H.H.V.a a l |.|.|.|.H.H.H.H.H.H.H.F.H.H.H.F.F.F.F.N.a D #.#.#.#.#.#.+.5 C #.#.#.#.#.#.#.#.#.#.#.#.#.#.#.#.#.#.H C D I.*X5X5X6.>.2.2.3.L.P.P.P.P.P.P.P.P.P.P.P.P.P.P.P.P.P.P.P.P.P.P.P.P.P.P.P.P.P.P.P.P.P.7.2.2.2.2.2.2.2.2.2.2.2.2.7.P.P.P.P.P.P.P.P.P.P.P.P.P.P.P.P.P.P.i.3.2.2.2.2.2.2.2.2.2.2.2.2.2.2.2.2.2.2.2.2.2.2.2.2.2.2.2.2.2.2.2.2.2.2.2.2.2.2.2.2.2.1.1.,.,.,.,.,.>.>.>.>.>.h 5.*X5XR.I.0X0X0X0X0X0X0X0X0X0X0X0X0X0X0X0X0X0X0X5.a a |.|.).H.H.H.H.H.H.H.j a a a a k F.F.F.F.F.F.n n Z L L L L L Y Y Y Y Y Y Y Y Y Y Y Y Y Y Y Y Y Y Y Y Y Y n n n R [ [ [ [ [ [ [ [ [ [ [ [ [ [ [ [ [ [ [ [ [ [ [ [ [ [ [ [ [ [ [ [ [ [ [ [ [ [ [ [ [ [ [ [ [ [ [ [ [ [ [ [ [ [ [ [ [ [ [ [ [ [ [ [ [ [ [ [ [ [ [ [ [ [ [ [ [ [ [ [ [ [ [ [ [ [ [ [ [ [ [ [ [ [ [ [ [ [ [ [ [ [ [ [ [ [ [ [ [ [ [ [ [ [ [ [ [ [ [ [ [ [ [ [ [ [ [ [ [ [ [ [ [ [ [ [ [ [ [ [ [ [ [ [ [ [ [ [ [ [ [ [ [ [ [ [ [ [ [ [ [ [ [ [ [ [ [ [ [ [ [ [ [ [ [ [ [ [ [ [ [ [ [ [ [ [ [ [ [ [ [ [ [ [ [ [ [ [ [ [ [ [ [ [ [ [ [ [ [ [ [ [ [ [ [ [ [ [ [ [ [ [ [ [ [ [ [ [ [ [ [ [ [ [ [ [ ` Y Y Y Y Y Y Y Y Y Y Y Y Y Y Y Y Y Y Y Y Y Y Y Y ",
"bXbXbXbXbXbXbXbXbXbXbXbXbXbXbXbXbXbXbXbXbXbXbXbXbXbXjX0X0X0X0X0X0X0X0X0X0X0X0X0X0X0X0X0X0X0X0X0X0X0X0X0X0X0X0XjXbXbXbXbXbXbXbXbXbXbXbXbXbXbXbXbXbXbXbXcX0X0X0X0X0X0X0X0X0X0X0X0X0X0X0X0X0X0X0X0X0X0X0X0X0X0X0X0X0X0X0X0X0X0X0X0X0X0X0X0X0X0X0X0X0X0X0X0X0X0X0X0X0X0X0X0X0X0X0X0X0X0X0X0X0X0X0X0X0X0X0X0X0X0X0X0X0X0X0X0X0X0X0X0X0X0X0X0X0X0X0X0X0X0X0X0X0X0X0X0X0X0X0X0X0X0X0X0X0XO O : 9 9 9 9 9 9 # O = Y Y Y Y Y ` [ [ [ [ [ [ [ [ [ [ [ [ [ [ [ [ [ [ [ [ [ [ [ [ [ [ [ [ [ [ P n n F.F.N.a a d V.V.H.H.H.H.H.V.a a l |.|.|.|.H.H.H.H.H.H.H.F.H.H.H.F.F.F.F.N.a D #.#.#.#.#.#.H 5 G #.#.#.#.#.#.#.#.#.#.#.#.#.#.#.#.#.@.b V Q I.*X5X5X6.>.2.2.7.P.P.P.P.P.P.P.P.P.P.P.P.P.P.P.P.P.P.P.P.P.P.P.P.P.P.P.P.P.P.P.P.P.i.3.2.2.2.2.2.2.2.2.2.2.2.3.L.P.P.P.P.P.P.P.P.P.P.P.P.P.P.P.P.P.L.3.2.2.2.2.2.2.2.2.2.2.2.2.2.2.2.2.2.2.2.2.2.2.2.2.2.2.2.2.2.2.2.1.1.1.,.1.1.,.,.>.>.>.>.>.h h h h 5.5.Z.Z.Z.Z.I.^.,X5XR.I.0X0X0X0X0X0X0X0X0X0X0X0X0X0X0X0X0X0X0X5.a j |.|.).H.H.H.H.H.H.H.j a a a a l F.F.F.F.F.F.n n Z L L L L L Y Y Y Y Y Y Y Y Y Y Y Y Y Y Y Y Y Y Y Y Y Y n n n R [ [ [ [ [ [ [ [ [ [ [ [ [ [ [ [ [ [ [ [ [ [ [ [ [ [ [ [ [ [ [ [ [ [ [ [ [ [ [ [ [ [ [ [ [ [ [ [ [ [ [ [ [ [ [ [ [ [ [ [ [ [ [ [ [ [ [ [ [ [ [ [ [ [ [ [ [ [ [ [ [ [ [ [ [ [ [ [ [ [ [ [ [ [ [ [ [ [ [ [ [ [ [ [ [ [ [ [ [ [ [ [ [ [ [ [ [ [ [ [ [ [ [ [ [ [ [ [ [ [ [ [ [ [ [ [ [ [ [ [ [ [ [ [ [ [ [ [ [ [ [ [ [ [ [ [ [ [ [ [ [ [ [ [ [ [ [ [ [ [ [ [ [ [ [ [ [ [ [ [ [ [ [ [ [ [ [ [ [ [ [ [ [ [ [ [ [ [ [ [ [ [ [ [ [ [ [ [ [ [ [ [ [ [ [ [ [ [ [ [ [ [ [ [ [ [ [ [ [ [ [ [ [ [ [ [ ` Y Y Y Y Y Y Y Y Y Y Y Y Y Y Y Y Y Y Y Y Y Y Y Y ",
"bXbXbXbXbXbXbXbXbXbXbXbXbXbXbXbXbXbXbXbXbXbXbXbXbXcX0X0X0X0X0X0X0X0X0X0X0X0X0X0X0X0X0X0X0X0X0X0X0X0X0X0X0X0XjXcXbXbXbXbXbXbXbXbXbXbXbXbXbXbXbXbXbXbXcXjX0X0X0X0X0X0X0X0X0X0X0X0X0X0X0X0X0X0X0X0X0X0X0X0X0X0X0X0X0X0X0X0X0X0X0X0X0X0X0X0X0X0X0X0X0X0X0X0X0X0X0X0X0X0X0X0X0X0X0X0X0X0X0X0X0X0X0X0X0X0X0X0X0X0X0X0X0X0X0X0X0X0X0X0X0X0X0X0X0X0X0X0X0X0X0X0X0X0X0X0X0X0X0X0X0X0X0X0X0XO O : 9 9 9 9 9 9 # O = Y Y Y Y Y ` [ [ [ ' [ [ [ [ [ [ [ [ [ [ [ [ [ [ [ [ [ [ [ [ [ [ [ [ [ [ P n n F.F.N.a a d V.V.H.H.H.H.H.V.a a l |.|.|.|.H.H.H.H.H.H.H.F.H.H.H.F.F.F.F.N.a ..%.#.#.#.#.#.G 5 H #.#.#.#.#.#.#.#.#.#.#.#.#.#.#.#.#.+.H 6 X.I.*X5X5X6.>.2.3.L.P.P.P.P.P.P.P.P.P.P.P.P.P.P.P.P.P.P.P.P.P.P.P.P.P.P.P.P.P.P.P.P.L.3.2.2.2.2.2.2.2.2.2.2.2.3.i.P.P.P.P.P.P.P.P.P.P.P.P.P.P.P.P.P.P.7.2.2.2.2.2.2.2.2.2.2.2.2.2.2.2.2.2.2.2.2.2.2.1.1.,.,.1.1.,.,.>.>.>.>.>.h h h h 5.5.Z.Z.Z.I.I.E.E.E.^.^.*X*X*X*X,X5X5X5XR.I.0X0X0X0X0X0X0X0X0X0X0X0X0X0X0X0X0X0X0X5.a l |.|.).H.H.H.H.H.H.H.j a a a a l F.F.F.F.F.F.n n Z L L L L L Y Y Y Y Y Y Y Y Y Y Y Y Y Y Y Y Y Y Y Y Y Y n n n R [ [ [ [ [ [ [ [ [ [ [ [ [ [ [ [ [ [ [ [ [ [ [ [ [ [ [ [ [ [ [ [ [ [ [ [ [ [ [ [ [ [ [ [ [ [ [ [ [ [ [ [ [ [ [ [ [ [ [ [ [ [ [ [ [ [ [ [ [ [ [ [ [ [ [ [ [ [ [ [ [ [ [ [ [ [ [ [ [ [ [ [ [ [ [ [ [ [ [ [ [ [ [ [ [ [ [ [ [ [ [ [ [ [ [ [ [ [ [ [ [ [ [ [ [ [ [ [ [ [ [ [ [ [ [ [ [ [ [ [ [ [ [ [ [ [ [ [ [ [ [ [ [ [ [ [ [ [ [ [ [ [ [ [ [ [ [ [ [ [ [ [ [ [ [ [ [ [ [ [ [ [ [ [ [ [ [ [ [ [ [ [ [ [ [ [ [ [ [ [ [ [ [ [ [ [ [ [ [ [ [ [ [ [ [ [ [ [ [ [ [ [ [ [ [ [ [ [ [ [ [ [ [ [ [ [ ` Y Y Y Y Y Y Y Y Y Y Y Y Y Y Y Y Y Y Y Y Y Y Y Y ",
"bXbXbXbXbXbXbXbXbXbXbXbXbXbXbXbXbXbXbXbXbXbXbXbXcXjX0X0X0X0X0X0X0X0X0X0X0X0X0X0X0X0X0X0X0X0X0X0X0X0X0X0X0X0XcXbXbXbXbXbXbXbXbXbXbXbXbXbXbXbXbXbXbXbXjX0X0X0X0X0X0X0X0X0X0X0X0X0X0X0X0X0X0X0X0X0X0X0X0X0X0X0X0X0X0X0X0X0X0X0X0X0X0X0X0X0X0X0X0X0X0X0X0X0X0X0X0X0X0X0X0X0X0X0X0X0X0X0X0X0X0X0X0X0X0X0X0X0X0X0X0X0X0X0X0X0X0X0X0X0X0X0X0X0X0X0X0X0X0X0X0X0X0X0X0X0X0X0X0X0X0X0X0X0X0XO O : 9 9 9 9 9 9 # O = Y Y Y Y Y ` [ [ [ [ [ [ [ [ [ [ [ [ [ [ [ [ [ [ [ [ [ [ [ [ [ [ [ [ [ [ P n n F.F.N.a a d V.V.H.H.H.H.H.V.a a l |.|.|.|.H.H.H.H.H.H.H.F.H.H.H.H.F.F.F.N.a ~..X;.%.#.#.#.C 5 +.#.#.#.#.#.#.#.#.#.#.#.#.#.#.#.#.#.+.H 6 Q.I.*X5X5X6.>.3.i.P.P.P.P.P.P.P.P.P.P.P.P.P.P.P.P.P.P.P.P.P.P.P.P.P.P.P.P.P.P.P.P.P.7.2.2.2.2.2.2.2.2.2.2.2.2.i.P.P.P.P.P.P.P.P.P.P.P.P.P.P.P.P.P.P.i.3.2.2.2.2.2.2.2.2.2.2.2.2.1.1.,.,.1.,.,.>.>.>.>.>.h h h h h 5.5.Z.Z.Z.I.I.E.E.E.^.^.*X*X*X,X,X5X5X5X5X5X5X5X5X5X,X,X>X>XR.I.0X0X0X0X0X0X0X0X0X0X0X0X0X0X0X0XjX0XjX5.a l |.|.).H.H.H.H.H.H.H.j a a a a l F.F.F.F.F.F.n n Z L L L L L Y Y Y Y Y Y Y Y Y Y Y Y Y Y Y Y Y Y Y Y Y Y n n n R [ [ [ [ [ [ [ [ [ [ [ [ [ [ [ [ [ [ [ [ [ [ [ [ [ [ [ [ [ [ [ [ [ [ [ [ [ [ [ [ [ [ [ [ [ [ [ [ [ [ [ [ [ [ [ [ [ [ [ [ [ [ [ [ [ [ [ [ [ [ [ [ [ [ [ [ [ [ [ [ [ [ [ [ [ [ [ [ [ [ [ [ [ [ [ [ [ [ [ [ [ [ [ [ [ [ [ [ [ [ [ [ [ [ [ [ [ [ [ [ [ [ [ [ [ [ [ [ [ [ [ [ [ [ [ [ [ [ [ [ [ [ [ [ [ [ [ [ [ [ [ [ [ [ [ [ [ [ [ [ [ [ [ [ [ [ [ [ [ [ [ [ [ [ [ [ [ [ [ [ [ [ [ [ [ [ [ [ [ [ [ [ [ [ [ [ [ [ [ [ [ [ [ [ [ [ [ [ [ [ [ [ [ [ [ [ [ [ [ [ [ [ [ [ [ [ [ [ [ [ [ [ [ [ [ [ ` Y Y Y Y Y Y Y Y Y Y Y Y Y Y Y Y Y Y Y Y Y Y Y Y ",
"bXbXbXbXbXbXbXbXbXbXbXbXbXbXbXbXbXbXbXbXbXbXbXbXjX0X0X0X0X0X0X0X0X0X0X0X0X0X0X0X0X0X0X0X0X0X0X0X0X0X0X0X0XcXbXbXbXbXbXbXbXbXbXbXbXbXbXbXbXbXbXbXbXjX0X0X0X0X0X0X0X0X0X0X0X0X0X0X0X0X0X0X0X0X0X0X0X0X0X0X0X0X0X0X0X0X0X0X0X0X0X0X0X0X0X0X0X0X0X0X0X0X0X0X0X0X0X0X0X0X0X0X0X0X0X0X0X0X0X0X0X0X0X0X0X0X0X0X0X0X0X0X0X0X0X0X0X0X0X0X0X0X0X0X0X0X0X0X0X0X0X0X0X0X0X0X0X0X0X0X0X0X0X0X0XO O : 9 9 9 9 9 9 # O = Y Y Y Y Y ` [ [ [ [ [ [ [ [ [ [ [ [ [ [ [ [ [ [ [ [ [ [ [ [ [ [ [ [ [ [ P n n F.F.N.a a d V.V.H.H.H.H.H.V.a a l |.|.|.`.H.H.H.H.H.H.H.H.H.H.H.H.V.F.F.N.a O..X.X.X.X%.%.T 5 #.#.#.#.#.#.#.#.#.#.#.#.#.#.#.#.#.#.+.H 6 s.I.[.5X5X6.>.7.P.P.P.P.P.P.P.P.P.P.P.P.P.P.P.P.P.P.P.P.P.P.P.P.P.P.P.P.P.P.P.P.P.i.3.2.2.2.2.2.2.2.2.2.2.2.7.P.P.P.P.P.P.P.P.P.P.P.P.P.P.P.P.P.P.L.3.2.2.2.1.1.,.,.,.,.,.>.>.>.>.>.h h h h 5.5.Z.Z.Z.Z.I.I.E.E.E.^.^.*X*X*X,X,X5X5X5X5X5X5X5X5X5X,X,X>X>X>X*X*XE.E.E.E.E.R.R.I.E.0X0X0X0X0X0X0X0X0X0X0X0X0X0X0X0X0X0X0X5.a l |.|.).H.H.H.H.H.H.H.j a a a a l F.F.F.F.F.F.n n Z L L L L L Y Y Y Y Y Y Y Y Y Y Y Y Y Y Y Y Y Y Y Y Y Y n n n R [ [ [ [ [ [ [ [ [ [ [ [ [ [ [ [ [ [ [ [ [ [ [ [ [ [ [ [ [ [ [ [ [ [ [ [ [ [ [ [ [ [ [ [ [ [ [ [ [ [ [ [ [ [ [ [ [ [ [ [ [ [ [ [ [ [ [ [ [ [ [ [ [ [ [ [ [ [ [ [ [ [ [ [ [ [ [ [ [ [ [ [ [ [ [ [ [ [ [ [ [ [ [ [ [ [ [ [ [ [ [ [ [ [ [ [ [ [ [ [ [ [ [ [ [ [ [ [ [ [ [ [ [ [ [ [ [ [ [ [ [ [ [ [ [ [ [ [ [ [ [ [ [ [ [ [ [ [ [ [ [ [ [ [ [ [ [ [ [ [ [ [ [ [ [ [ [ [ [ [ [ [ [ [ [ [ [ [ [ [ [ [ [ [ [ [ [ [ [ [ [ [ [ [ [ [ [ [ [ [ [ [ [ [ [ [ [ [ [ [ [ [ [ [ [ [ [ [ [ [ [ [ [ [ [ [ ` Y Y Y Y Y Y Y Y Y Y Y Y Y Y Y Y Y Y Y Y Y Y Y Y ",
"bXbXbXbXbXbXbXbXbXbXbXbXbXbXbXbXbXbXbXbXbXbXbXcX0X0X0X0X0X0X0X0X0X0X0X0X0X0X0X0X0X0X0X0X0X0X0X0X0X0X0X0XjXbXbXbXbXbXbXbXbXbXbXbXbXbXbXbXbXbXbXbXcX0X0X0X0X0X0X0X0X0X0X0X0X0X0X0X0X0X0X0X0X0X0X0X0X0X0X0X0X0X0X0X0X0X0X0X0X0X0X0X0X0X0X0X0X0X0X0X0X0X0X0X0X0X0X0X0X0X0X0X0X0X0X0X0X0X0X0X0X0X0X0X0X0X0X0X0X0X0X0X0X0X0X0X0X0X0X0X0X0X0X0X0X0X0X0X0X0X0X0X0X0X0X0X0X0X0X0X0X0X0X0X0XO O : 9 9 9 9 9 9 # O = Y Y Y Y Y ` [ [ [ [ [ [ [ [ [ [ [ [ [ [ [ [ [ [ [ [ [ [ [ [ [ [ [ [ [ [ P n n F.F.N.a a d V.V.H.H.H.H.H.V.a a l |.|.|.`.H.H.H.H.H.H.H.H.F.H.H.H.F.F.F.N.a J..XtX.X.X-..XO.6 #.#.#.#.#.#.#.#.#.#.#.#.#.#.#.#.#.@.H H 6 t.I.*X5X5X6.,.L.P.P.P.P.P.P.P.P.P.P.P.P.P.P.P.P.P.P.P.P.P.P.P.P.P.P.P.P.P.P.P.P.L.3.2.2.2.2.2.2.2.2.2.2.2.3.L.P.P.P.P.P.P.P.P.P.P.P.P.L.L.L.L.L.L.6.,.>.>.>.>.>.h h h h 5.5.Z.Z.Z.I.I.E.E.E.^.^.*X*X*X*X,X,X5X5X5X5X5X5X5X5X,X,X>X>X>X>X*X*XE.E.E.E.E.R.R.R.I.R.R.E.E.E.E.^.^.*X2X0X0X0X0X0X0X0X0X0X0X0X0X0X0X0X0X0X0X0Xj a l |.|.).H.H.H.H.H.H.H.j a a a a l F.F.F.F.F.F.n n Z L L L L L Y Y Y Y Y Y Y Y Y Y Y Y Y Y Y Y Y Y Y Y Y Y n n n R [ [ [ [ [ [ [ [ [ [ [ [ [ [ [ [ [ [ [ [ [ [ [ [ [ [ [ [ [ [ [ [ [ [ [ [ [ [ [ [ [ [ [ [ [ [ [ [ [ [ [ [ [ [ [ [ [ [ [ [ [ [ [ [ [ [ [ [ [ [ [ [ [ [ [ [ [ [ [ [ [ [ [ [ [ [ [ [ [ [ [ [ [ [ [ [ [ [ [ [ [ [ [ [ [ [ [ [ [ [ [ [ [ [ [ [ [ [ [ [ [ [ [ [ [ [ [ [ [ [ [ [ [ [ [ [ [ [ [ [ [ [ [ [ [ [ [ [ [ [ [ [ [ [ [ [ [ [ [ [ [ [ [ [ [ [ [ [ [ [ [ [ [ [ [ [ [ [ [ [ [ [ [ [ [ [ [ [ [ [ [ [ [ [ [ [ [ [ [ [ [ [ [ [ [ [ [ [ [ [ [ [ [ [ [ [ [ [ [ [ [ [ [ [ [ [ [ [ [ [ [ [ [ [ [ ' ` Y Y Y Y Y Y Y Y Y Y Y Y Y Y Y Y Y Y Y Y Y Y Y Y ",
"bXbXbXbXbXbXbXbXbXbXbXbXbXbXbXbXbXbXbXbXbXbXcXjX0X0X0X0X0X0X0X0X0X0X0X0X0X0X0X0X0X0X0X0X0X0X0X0X0X0X0XjXcXbXbXbXbXbXbXbXbXbXbXbXbXbXbXbXbXbXbXcXjX0X0X0X0X0X0X0X0X0X0X0X0X0X0X0X0X0X0X0X0X0X0X0X0X0X0X0X0X0X0X0X0X0X0X0X0X0X0X0X0X0X0X0X0X0X0X0X0X0X0X0X0X0X0X0X0X0X0X0X0X0X0X0X0X0X0X0X0X0X0X0X0X0X0X0X0X0X0X0X0X0X0X0X0X0X0X0X0X0X0X0X0X0X0X0X0X0X0X0X0X0X0X0X0X0X0X0X0X0X0X0X0XO O : 9 9 9 9 9 9 # O = Y Y Y Y Y ` [ [ [ [ [ [ [ [ [ [ [ [ [ [ [ [ [ [ [ [ [ [ [ [ [ [ [ [ [ [ P n n F.F.N.a a j V.V.H.H.H.H.H.V.a a l |.|.|.`.H.H.H.H.H.H.H.H.F.H.H.H.F.F.F.l a J..XZX.X.X%.-.7 c #.#.#.#.#.#.#.#.#.#.#.#.#.#.#.#.@.+.H H 6 t.I.*X5X5XZ.6.P.P.P.P.P.P.P.P.P.P.P.P.P.P.P.P.P.P.P.P.P.P.P.P.P.P.P.P.P.P.P.P.P.7.2.2.2.2.2.2.2.2.2.2.2.3.i.P.P.P.L.L.L.L.L.I.I.A.A.A.A.A.Z.Z.Z.6.h 5.5.6.6.Z.I.I.E.E.E.^.^.*X*X*X,X,X5X5X5X5X5X5X5X5X5X,X,X>X>X>X*X*XE.E.E.E.E.R.R.R.R.I.R.R.E.E.E.[.[.*X*X*X;X;X2X2X3X3X9X9X0X0X0X0X0X0X0X0X0X0X0X0X0X0X0X0X0X0X0X0X0Xa a l |.|.).H.H.H.H.H.H.H.j a a a a l F.F.F.F.F.F.n n Z L L L L L Y Y Y Y Y Y Y Y Y Y Y Y Y Y Y Y Y Y Y Y Y Y n n n R [ [ [ [ [ [ [ [ [ [ [ [ [ [ [ [ [ [ [ [ [ [ [ [ [ [ [ [ [ [ [ [ [ [ [ [ [ [ [ [ [ [ [ [ [ [ [ [ [ [ [ [ [ [ [ [ [ [ [ [ [ [ [ [ [ [ [ [ [ [ [ [ [ [ [ [ [ [ [ [ [ [ [ [ [ [ [ [ [ [ [ [ [ [ [ [ [ [ [ [ [ [ [ [ [ [ [ [ [ [ [ [ [ [ [ [ [ [ [ [ [ [ [ [ [ [ [ [ [ [ [ [ [ [ [ [ [ [ [ [ [ [ [ [ [ [ [ [ [ [ [ [ [ [ [ [ [ [ [ [ [ [ [ [ [ [ [ [ [ [ [ [ [ [ [ [ [ [ [ [ [ [ [ [ [ [ [ [ [ [ [ [ [ [ [ [ [ [ [ [ [ [ [ [ [ [ [ [ [ [ [ [ [ [ [ [ [ [ [ [ [ [ [ [ [ [ [ [ [ [ [ [ [ [ [ [ ` Y Y Y Y Y Y Y Y Y Y Y Y Y Y Y Y Y Y Y Y Y Y Y Y ",
"bXbXbXbXbXbXbXbXbXbXbXbXbXbXbXbXbXbXbXbXbXbXjX0X0X0X0X0X0X0X0X0X0X0X0X0X0X0X0X0X0X0X0X0X0X0X0X0X0X0X0XcXbXbXbXbXbXbXbXbXbXbXbXbXbXbXbXbXbXbXbXjX0X0X0X0X0X0X0X0X0X0X0X0X0X0X0X0X0X0X0X0X0X0X0X0X0X0X0X0X0X0X0X0X0X0X0X0X0X0X0X0X0X0X0X0X0X0X0X0X0X0X0X0X0X0X0X0X0X0X0X0X0X0X0X0X0X0X0X0X0X0X0X0X0X0X0X0X0X0X0X0X0X0X0X0X0X0X0X0X0X0X0X0X0X0X0X0X0X0X0X0X0X0X0X0X0X0X0X0X0X0X0X0X0XO O : 9 9 9 9 9 9 # O = Y Y Y Y Y ` [ [ [ [ [ [ [ [ [ [ [ [ [ [ [ [ [ [ [ [ [ [ [ [ [ [ [ [ [ [ P n n F.F.N.a a k V.V.F.H.H.H.H.V.a a l |.|.|.`.H.H.H.H.H.H.H.H.F.H.H.H.H.F.F.l a J.;.xX.X.X#.+.5 C +.+.+.+.+.+.+.+.+.+.+.+.+.+.+.+.+.H H H V t.I.*X5X5XA.A.P.P.P.P.P.P.P.P.P.P.P.P.P.P.P.P.P.P.P.P.P.P.P.P.P.P.P.P.P.P.P.P.i.3.2.2.2.2.2.2.1.1.,.,.,.6.I.A.A.A.A.A.Z.Z.Z.Z.I.G.T.T.T.T.[.[.[.E.E.^.^.*X*X*X,X,X5X5X5X5X5X5X5X5X5X,X,X>X>X>X*X*XE.E.E.E.E.R.R.R.I.R.R.R.E.E.E.^.^.*X*X*X;X;X2X2X3X9X9X0X0X0X0X0X0X0XjXjXjX0X0X0X0X0X0X0X0X0X0X0X0X0X0X0X0X0X0X0X0X0X0Xa a l |.|.).H.H.H.H.H.H.H.j a a a a l F.F.F.F.F.F.n n Z L L L L L Y Y Y Y Y Y Y Y Y Y Y Y Y Y Y Y Y Y Y Y Y Y n n n R [ [ [ [ [ [ [ [ [ [ [ [ [ [ [ [ [ [ [ [ [ [ [ [ [ [ [ [ [ [ [ [ [ [ [ [ [ [ [ [ [ [ [ [ [ [ [ [ [ [ [ [ [ [ [ [ [ [ [ [ [ [ [ [ [ [ [ [ [ [ [ [ [ [ [ [ [ [ [ [ [ [ [ [ [ [ [ [ [ [ [ [ [ [ [ [ [ [ [ [ [ [ [ [ [ [ [ [ [ [ [ [ [ [ [ [ [ [ [ [ [ [ [ [ [ [ [ [ [ [ [ [ [ [ [ [ [ [ [ [ [ [ [ [ [ [ [ [ [ [ [ [ [ [ [ [ [ [ [ [ [ [ [ [ [ [ [ [ [ [ [ [ [ [ [ [ [ [ [ [ [ [ [ [ [ [ [ [ [ [ [ [ [ [ [ [ [ [ [ [ [ [ [ [ [ [ [ [ [ [ [ [ [ [ [ [ [ [ [ [ [ [ [ [ [ [ [ [ [ [ [ [ [ [ [ [ ` Y Y Y Y Y Y Y Y Y Y Y Y Y Y Y Y Y Y Y Y Y Y Y Y ",
"bXbXbXbXbXbXbXbXbXbXbXbXbXbXbXbXbXbXbXbXbXjX0X0X0X0X0X0X0X0X0X0X0X0X0X0X0X0X0X0X0X0X0X0X0X0X0X0X0X0XjXbXbXbXbXbXbXbXbXbXbXbXbXbXbXbXbXbXbXbXcX0X0X0X0X0X0X0X0X0X0X0X0X0X0X0X0X0X0X0X0X0X0X0X0X0X0X0X0X0X0X0X0X0X0X0X0X0X0X0X0X0X0X0X0X0X0X0X0X0X0X0X0X0X0X0X0X0X0X0X0X0X0X0X0X0X0X0X0X0X0X0X0X0X0X0X0X0X0X0X0X0X0X0X0X0X0X0X0X0X0X0X0X0X0X0X0X0X0X0X0X0X0X0X0X0X0X0X0X0X0X0X0X0X0XO O : 9 9 9 9 9 9 # O = Y Y Y Y Y ` [ [ [ [ [ [ [ [ [ [ [ [ [ [ [ [ [ [ [ [ [ [ [ [ [ [ [ [ [ [ P n n F.F.N.a a k V.V.F.H.H.H.H.V.a a l |.|.|.`.H.H.H.H.H.H.H.H.F.H.H.H.H.F.F.l a J..XtX.X.X#.H 5 F H H H +.+.+.+.+.+.+.+.+.+.+.+.H H H H +.C W I.[.5X5XT.A.P.P.P.P.P.P.P.P.P.P.P.P.P.P.P.P.P.P.P.P.P.P.P.P.P.P.P.P.P.L.L.L.3.,.,.,.,.>.>.>.>.>.h h ,.Z.T.G.T.T.T.[.[.[.[.[.;X;X3X3X3X3X0X0X5X5X5X5X5X5X5X5X,X,X>X>X>X>X*X*XE.E.E.E.E.R.R.R.I.E.R.E.E.E.E.^.^.*X*X;X;X;X3X3X3X9X9X0X0X0X0X0X0XjXjX0X0X0X0X0X0X0X0X0X0XjX0X0X0X0X0X0X0X0X0X0X0X0X0X0X0X0X0X0X0X0X0X0X0Xa a l |.|.).H.H.H.H.H.H.H.j a a a a l F.F.F.F.F.F.n n Z L L L L L Y Y Y Y Y Y Y Y Y Y Y Y Y Y Y Y Y Y Y Y Y Y n n n R [ [ [ [ [ [ [ [ [ [ [ [ [ [ [ [ [ [ [ [ [ [ [ [ [ [ [ [ [ [ [ [ [ [ [ [ [ [ [ [ [ [ [ [ [ [ [ [ [ [ [ [ [ [ [ [ [ [ [ [ [ [ [ [ [ [ [ [ [ [ [ [ [ [ [ [ [ [ [ [ [ [ [ [ [ [ [ [ [ [ [ [ [ [ [ [ [ [ [ [ [ [ [ [ [ [ [ [ [ [ [ [ [ [ [ [ [ [ [ [ [ [ [ [ [ [ [ [ [ [ [ [ [ [ [ [ [ [ [ [ [ [ [ [ [ [ [ [ [ [ [ [ [ [ [ [ [ [ [ [ [ [ [ [ [ [ [ [ [ [ [ [ [ [ [ [ [ [ [ [ [ [ [ [ [ [ [ [ [ [ [ [ [ [ [ [ [ [ [ [ [ [ [ [ [ [ [ [ [ [ [ [ [ [ [ [ [ [ [ [ [ [ [ [ [ [ [ [ [ [ [ [ [ [ [ [ ` Y Y Y Y Y Y Y Y Y Y Y Y Y Y Y Y Y Y Y Y Y Y Y Y ",
"bXbXbXbXbXbXbXbXbXbXbXbXbXbXbXbXbXbXbXbXcX0X0X0X0X0X0X0X0X0X0X0X0X0X0X0X0X0X0X0X0X0X0X0X0X0X0X0X0XjXcXbXbXbXbXbXbXbXbXbXbXbXbXbXbXbXbXbXbXcXjX0X0X0X0X0X0X0X0X0X0X0X0X0X0X0X0X0X0X0X0X0X0X0X0X0X0X0X0X0X0X0X0X0X0X0X0X0X0X0X0X0X0X0X0X0X0X0X0X0X0X0X0X0X0X0X0X0X0X0X0X0X0X0X0X0X0X0X0X0X0X0X0X0X0X0X0X0X0X0X0X0X0X0X0X0X0X0X0X0X0X0X0X0X0X0X0X0X0X0X0X0X0X0X0X0X0X0X0X0X0X0X0X0X0XO O : 9 9 9 9 9 9 # O = Y Y Y Y Y ` [ [ [ [ [ [ [ [ [ [ [ [ [ [ [ [ [ [ [ [ [ [ [ [ [ [ [ [ [ [ P n n F.F.N.a a k V.V.F.H.H.H.H.V.a a l |.|.|.`.H.H.H.H.H.H.H.H.F.H.H.H.H.F.F.k a J..XtX.X.X#.G 5 F H H H H H H H H H H H H H H H H H H +.+.F 6 I.[.5XcXT.A.P.P.P.P.P.P.P.P.P.P.P.P.P.P.P.P.P.P.P.L.L.L.L.L.I.I.A.A.A.A.Z.5.h >.>.h 5.5.r.r.r.I.I.E.[.[.;X;X3X3X3XhXhXcXcXcXcXcXcXcXcXcXhX4X>X>X>X*X*X*XE.E.E.E.R.R.R.R.U.R.U.E.E.E.^.^.*X*X*X;X;X2X2X2X2X4X4X0X0X0X0X0XjXjXjX0X0X0X0X0X0X0X0X0X0X0X0X0X0X0X0X0X0X0X0X0X0X0X0X0X0X0X0X0X0X0X0X0X0X0X0X0X0X0X0X0X0X0X0Xa a l |.|.).H.H.H.H.H.H.H.j a a a a l F.F.F.F.F.F.n n Z L L L L L Y Y Y Y Y Y Y Y Y Y Y Y Y Y Y Y Y Y Y Y Y Y n n n R [ [ [ [ [ [ [ [ [ [ [ [ [ [ [ [ [ [ [ [ [ [ [ [ [ [ [ [ [ [ [ [ [ [ [ [ [ [ [ [ [ [ [ [ [ [ [ [ [ [ [ [ [ [ [ [ [ [ [ [ [ [ [ [ [ [ [ [ [ [ [ [ [ [ [ [ [ [ [ [ [ [ [ [ [ [ [ [ [ [ [ [ [ [ [ [ [ [ [ [ [ [ [ [ [ [ [ [ [ [ [ [ [ [ [ [ [ [ [ [ [ [ [ [ [ [ [ [ [ [ [ [ [ [ [ [ [ [ [ [ [ [ [ [ [ [ [ [ [ [ [ [ [ [ [ [ [ [ [ [ [ [ [ [ [ [ [ [ [ [ [ [ [ [ [ [ [ [ [ [ [ [ [ [ [ [ [ [ [ [ [ [ [ [ [ [ [ [ [ [ [ [ [ [ [ [ [ [ [ [ [ [ [ [ [ [ [ [ [ [ [ [ [ [ [ [ [ [ [ [ [ [ [ [ [ [ ` Y Y Y Y Y Y Y Y Y Y Y Y Y Y Y Y Y Y Y Y ` ` ` ` ",
"0X0X0X0X0X0XjXjXcXcXcXcXbXbXbXbXbXbXbXcXjX0X0X0X0X0X0X0X0X0X0X0X0X0X0X0X0X0X0X0X0X0X0X0X0X0X0X0X0XcXbXbXbXbXbXbXbXbXbXbXbXbXbXbXbXbXbXbXbXjX0X0X0X0X0X0X0X0X0X0X0X0X0X0X0X0X0X0X0X0X0X0X0X0X0X0X0X0X0X0X0X0X0X0X0X0X0X0X0X0X0X0X0X0X0X0X0X0X0X0X0X0X0X0X0X0X0X0X0X0X0X0X0X0X0X0X0X0X0X0X0X0X0X0X0X0X0X0X0X0X0X0X0X0X0X0X0X0X0X0X0X0X0X0X0X0X0X0X0X0X0X0X0X0X0X0X0X0X0X0X0X0X0X0X0XO O : 9 9 9 9 9 9 # O = Y Y Y Y Y ` [ [ [ [ [ [ [ [ [ [ [ [ [ [ [ [ [ [ [ [ [ [ [ [ [ [ [ [ [ [ P n n F.F.N.a a k V.V.F.H.H.H.H.V.a a l |.|.|.`.H.H.H.H.H.H.H.H.F.H.H.H.H.F.F.l a O.tX.X-.-.#.C 5 V C C C F G G +.H H H H +.+.H H H H H H H +.V A.[.cXcXT.A.P.P.P.P.P.P.P.P.P.L.L.L.L.L.I.I.A.A.A.A.A.A.A.A.Z.T.A.T.T.T.I.I.I.E.E.E.E.^.*X*X*X,X,X5XcXcXcXcXcXcXcXcXhXhX4X4X4X1X1X;X;X;X*XE.R.R.R.I.R.R.R.E.E.E.^.^.*X*X*X;X;X2X2X2X9X9X0X0X0X0X0X0X0X0X0X0X0X0X0X0X0X0X0XjXjX0X0X0X0X0X0X0X0X0X0X0X0X0X0X0X0X0X0X0X0X0X0X0X0X0X0X0X0X0X0X0X0X0X0X0X0X0X0X0X0X0X0X0X0Xa a l |.|.).H.H.H.H.H.H.H.j a a a a l F.F.F.F.F.F.n n Z L L L L L Y Y Y Y Y Y Y Y Y Y Y Y Y Y Y Y Y Y Y Y Y Y n n n R [ [ [ [ [ [ [ [ [ [ [ [ [ [ [ [ [ [ [ [ [ [ [ [ [ [ [ [ [ [ [ [ [ [ [ [ [ [ [ [ [ [ [ [ [ [ [ [ [ [ [ [ [ [ [ [ [ [ [ [ [ [ [ [ [ [ [ [ [ [ [ [ [ [ [ [ [ [ [ [ [ [ [ [ [ [ [ [ [ [ [ [ [ [ [ [ [ [ [ [ [ [ [ [ [ [ [ [ [ [ [ [ [ [ [ [ [ [ [ [ [ [ [ [ [ [ [ [ [ [ [ [ [ [ [ [ [ [ [ [ [ [ [ [ [ [ [ [ [ [ [ [ [ [ [ [ [ [ [ [ [ [ [ [ [ [ [ [ [ [ [ [ [ [ [ [ [ [ [ [ [ [ [ [ [ [ [ [ [ [ [ [ [ [ [ [ [ [ [ [ [ [ [ [ [ [ [ [ [ [ [ [ [ [ [ [ [ [ [ [ [ [ [ [ [ [ [ [ [ [ [ [ [ [ [ [ ` Y Y Y Y Y Y Y Y Y Y Y Y Y Y ` ` ` ` ` ` ` ` ' [ ",
"<X<X<X2X2X2X4X4X9X9X9X9X0X0X0X0X0X0XjX9X9X9X9X0X0X0X0X0X0X0X0X0X0X0X0X0X0X0X0X0X0X0X0X0X0X0X0X0XcXbXbXbXbXbXbXbXbXbXbXbXbXbXbXbXbXbXbXbXjX0X0X0X0X0X0X0X0X0X0X0X0X0X0X0X0X0X0X0X0X0X0X0X0X0X0X0X0X0X0X0X0X0X0X0X0X0X0X0X0X0X0X0X0X0X0X0X0X0X0X0X0X0X0X0X0X0X0X0X0X0X0X0X0X0X0X0X0X0X0X0X0X0X0X0X0X0X0X0X0X0X0X0X0X0X0X0X0X0X0X0X0X0X0X0X0X0X0X0X0X0X0X0X0X0X0X0X0X0X0X0X0X0X0X0X0XO O : 9 9 9 9 9 9 # O = Y Y Y Y Y ` [ [ [ [ [ [ [ [ [ [ [ [ [ [ [ [ [ [ [ [ [ [ [ [ [ [ [ [ [ [ P n n F.F.N.a a k V.V.F.H.H.H.H.V.a a l |.|.|.`.H.H.H.H.H.H.H.H.F.H.H.H.H.H.F.l a O.mX.X;.%.#.V 5 7 6 6 6 V V V C C C C G G +.H H H H H H H H C A.*XcXcXT.A.L.L.L.L.I.I.A.A.A.A.A.Z.A.Z.Z.G.G.T.T.T._.[.*X*X*X;X;X3X3X1X*X,X,X5X5X5X5X5X5X5X5X,X2X4X4X4X4X1X1X;X;X;X*X*X[.[.[.[.[.[.*X*X^.E.^.^.*X*X;X;X;X1X1X1X9X4X0X0X0X0X0X0X0X0X0X0X0X0X0X0X0XjXjX0X0X0X0X0X0X0X0X0XjXjXjX0X0X0X0X0X0X0X0X0X0X0X0X0X0X0X0X0X0X0X0X0X0X0X0X0X0X0X0X0X0X0X0X0X0X0X0X0X0X0X0X0X0X0X0Xa a l |.|.).H.H.H.H.H.H.H.d a a a a l F.F.F.F.F.F.n n Z L L L L L Y Y Y Y Y Y Y Y Y Y Y Y Y Y Y Y Y Y Y Y Y Y n n n R [ [ [ [ [ [ [ [ [ [ [ [ [ [ [ [ [ [ [ [ [ [ [ [ [ [ [ [ [ [ [ [ [ [ [ [ [ [ [ [ [ [ [ [ [ [ [ [ [ [ [ [ [ [ [ [ [ [ [ [ [ [ [ [ [ [ [ [ [ [ [ [ [ [ [ [ [ [ [ [ [ [ [ [ [ [ [ [ [ [ [ [ [ [ [ [ [ [ [ [ [ [ [ [ [ [ [ [ [ [ [ [ [ [ [ [ [ [ [ [ [ [ [ [ [ [ [ [ [ [ [ [ [ [ [ [ [ [ [ [ [ [ [ [ [ [ [ [ [ [ [ [ [ [ [ [ [ [ [ [ [ [ [ [ [ [ [ [ [ [ [ [ [ [ [ [ [ [ [ [ [ [ [ [ [ [ [ [ [ [ [ [ [ [ [ [ [ [ [ [ [ [ [ [ [ [ [ [ [ [ [ [ [ [ [ [ [ [ [ [ [ [ [ [ [ [ [ [ [ [ [ [ [ [ [ [ ` Y Y Y Y Y Y Y Y Y ` ` ` ` ` ` ` ` ' [ [ [ [ [ [ ",
"<X<X<X<X<X<X<X<X<X<X<X<X<X<X2X2X2X2X,X=X>X>X>X,X,X,X2X2X2X4X4X4X9X9X0X0X0X0X0X0X0X0X0X0X0X0X0XcXbXbXbXbXbXbXbXbXbXbXbXbXbXbXbXbXbXbXbXcX0X0X0X0X0X0X0X0X0X0X0X0X0X0X0X0X0X0X0X0X0X0X0X0X0X0X0X0X0X0X0X0X0X0X0X0X0X0X0X0X0X0X0X0X0X0X0X0X0X0X0X0X0X0X0X0X0X0X0X0X0X0X0X0X0X0X0X0X0X0X0X0X0X0X0X0X0X0X0X0X0X0X0X0X0X0X0X0X0X0X0X0X0X0X0X0X0X0X0X0X0X0X0X0X0X0X0X0X0X0X0X0X0X0X0X0X0XO O : 9 9 9 9 9 9 # O = Y Y Y Y Y ` [ [ [ [ [ [ [ [ [ [ [ [ [ [ [ [ [ [ [ [ [ [ [ [ [ [ [ [ [ [ P n n F.F.N.a a k V.V.F.H.H.H.H.V.a a l |.|.|.`.H.H.H.H.H.H.H.H.F.H.H.H.H.H.F.l a O.;..X.X.X#.V 7 ~.J.e.e...7 7 6 6 6 6 V V C C F F F G G H H G U.;XcXcX[.Z.Z.Z.Z.A.Z.I.A.T.T.T._._.[.[.[.;X;X3X3X3XhXhXcXcXcXcXcXcXcX5X5X,X,X>X>X>X*X*X*XE.E.E.*X[.[.[.[.[.[.[.*X*X[.;X;X1X1X1X9X9XhX9X1X1X9X9X0X0X0X0X0X0X0XjXjXjXjX0X0X0X0X0X0X0X0X0X0X0X0X0X0X0X0X0X0X0X0X0X0X0X0X0X0X0X0X0X0X0X0X0X0X0X0X0X0X0X0X0X0X0X0X0X0X0X0X0X0X0X0X0X0X0X0X0X0X0X0X0X0X0X0X0X0X0X0X0X0X0X0Xa a l |.|.).H.H.H.H.H.H.H.a a a a a N.F.F.F.F.F.F.n n Z L L L L L Y Y Y Y Y Y Y Y Y Y Y Y Y Y Y Y Y Y Y Y Y Y n n n R [ [ [ [ [ [ [ [ [ [ [ [ [ [ [ [ [ [ [ [ [ [ [ [ [ [ [ [ [ [ [ [ [ [ [ [ [ [ [ [ [ [ [ [ [ [ [ [ [ [ [ [ [ [ [ [ [ [ [ [ [ [ [ [ [ [ [ [ [ [ [ [ [ [ [ [ [ [ [ [ [ [ [ [ [ [ [ [ [ [ [ [ [ [ [ [ [ [ [ [ [ [ [ [ [ [ [ [ [ [ [ [ [ [ [ [ [ [ [ [ [ [ [ [ [ [ [ [ [ [ [ [ [ [ [ [ [ [ [ [ [ [ [ [ [ [ [ [ [ [ [ [ [ [ [ [ [ [ [ [ [ [ [ [ [ [ [ [ [ [ [ [ [ [ [ [ [ [ [ [ [ [ [ [ [ [ [ [ [ [ [ [ [ [ [ [ [ [ [ [ [ [ [ [ [ [ [ [ [ [ [ [ [ [ [ [ [ [ [ [ [ [ [ [ [ [ [ [ [ [ [ [ [ [ [ [ ` Y Y Y Y ` ` ` ` ` ` ` ` ' [ [ [ [ [ [ [ [ [ [ [ ",
"<X<X<X<X<X<X<X<X<X<X<X<X<X<X<X<X<X,X&X&X&X&X&X&X&X&X=X=X=X=X=X=X>X>X>X,X,X,X2X2X2X4X4X9X9X9X0XcXbXbXbXbXbXbXbXbXbXbXbXbXbXbXbXbXbXbXcXjX0X0X0X0X0X0X0X0X0X0X0X0X0X0X0X0X0X0X0X0X0X0X0X0X0X0X0X0X0X0X0X0X0X0X0X0X0X0X0X0X0X0X0X0X0X0X0X0X0X0X0X0X0X0X0X0X0X0X0X0X0X0X0X0X0X0X0X0X0X0X0X0X0X0X0X0X0X0X0X0X0X0X0X0X0X0X0X0X0X0X0X0X0X0X0X0X0X0X0X0X0X0X0X0X0X0X0X0X0X0X0X0X0X0X0X0X0XO O : 9 9 9 9 9 9 # O = Y Y Y Y Y ` [ [ [ [ [ [ [ [ [ [ [ [ [ [ [ [ [ [ [ [ [ [ [ [ [ [ [ [ [ [ P n n F.F.N.a a k V.V.F.H.H.H.H.V.a a l |.|.|.`.H.H.H.H.H.H.H.H.F.H.H.H.H.H.F.l a T #.%.-..X#.6  .0X0X1X1X[.~.~.S.e.e.e.7 7 7 6 6 6 V V V C C J T.1XcXcXhXT._._.[.[.[.;X;X3X3X3XhXhXcXcXcXcXcXcXcXcXcXhXhX4X4X4X3X1X*XE.E.E.E.R.R.R.I.I.R.R.E.[.*X;X;X1X1X1X9X9XhXhXhXjXjXbXbXbXbXbXcXjX0X0X0X0X0X0X0X0X0X0X0XjXjX0XjX0X0X0X0X0X0X0X0X0X0X0X0X0X0X0X0X0X0X0X0X0X0X0X0X0X0X0X0X0X0X0X0X0X0X0X0X0X0X0X0X0X0X0X0X0X0X0X0X0X0X0X0X0X0X0X0X0X0X0X0X0X0X0X0X0X0X0X0X0X0X0X0Xa a N.|.|.).H.H.H.H.H.H.H.a a a a a N.F.F.F.F.F.B.n n Z L L L L L Y Y Y Y Y Y Y Y Y Y Y Y Y Y Y Y Y Y Y Y Y Y n n n R [ [ [ [ [ [ [ [ [ [ [ [ [ [ [ [ [ [ [ [ [ [ [ [ [ [ [ [ [ [ [ [ [ [ [ [ [ [ [ [ [ [ [ [ [ [ [ [ [ [ [ [ [ [ [ [ [ [ [ [ [ [ [ [ [ [ [ [ [ [ [ [ [ [ [ [ [ [ [ [ [ [ [ [ [ [ [ [ [ [ [ [ [ [ [ [ [ [ [ [ [ [ [ [ [ [ [ [ [ [ [ [ [ [ [ [ [ [ [ [ [ [ [ [ [ [ [ [ [ [ [ [ [ [ [ [ [ [ [ [ [ [ [ [ [ [ [ [ [ [ [ [ [ [ [ [ [ [ [ [ [ [ [ [ [ [ [ [ [ [ [ [ [ [ [ [ [ [ [ [ [ [ [ [ [ [ [ [ [ [ [ [ [ [ [ [ [ [ [ [ [ [ [ [ [ [ [ [ [ [ [ [ [ [ [ [ [ [ [ [ [ [ [ [ [ [ [ [ [ [ [ [ [ [ [ [ ` ` ` ` ` ` ` ` [ [ [ [ [ [ [ [ [ [ [ [ [ [ [ [ [ ",
"<X<X<X<X<X<X<X<X<X<X<X<X<X<X<X<X,X=X&X&X&X&X&X&X&X&X&X&X&X&X&X&X&X&X&X&X&X&X=X=X=X=X=X>X>X>X2X0X0X0X0X0X0XcXcXcXcXcXbXbXbXbXbXbXbXbXjX0X0X0X0X0X0X0X0X0X0X0X0X0X0X0X0X0X0X0X0X0X0X0X0X0X0X0X0X0X0X0X0X0X0X0X0X0X0X0X0X0X0X0X0X0X0X0X0X0X0X0X0X0X0X0X0X0X0X0X0X0X0X0X0X0X0X0X0X0X0X0X0X0X0X0X0X0X0X0X0X0X0X0X0X0X0X0X0X0X0X0X0X0X0X0X0X0X0X0X0X0X0X0X0X0X0X0X0X0X0X0X0X0X0X0X0X0X0XO O : 9 9 9 9 9 9 # O = Y Y Y Y Y ` [ [ [ [ [ [ [ [ [ [ [ [ [ [ [ [ [ [ [ [ [ [ [ [ [ [ [ [ [ [ P n n F.F.N.a a k V.V.F.H.H.H.H.V.a a l |.|.|.`.H.H.H.H.H.H.H.H.F.H.H.H.H.H.F.l a T #.#.#.#.+.5 o.0X0X0X0X0X0X0X0X1X1X1X~.~.~.J.e.e...7 7 6 6 Q E.1XcXcXcX3XhX0XcXcXcXcXcXcXcXcXhXhX4X4X4X4X3X1X;X;X;X*X*X[.[.[.[.[.R.E.E.E.E.^.^.*X*X*X;X;X3X9XhXjXjXbXbXbXbXbXbXbXbXbXbXbXbXbXbXbXjX0X0X0X0X0X0X0X0X0X0X0X0X0X0X0XjX0X0X0X0X0X0X0X0X0X0X0X0X0X0X0X0X0X0X0X0X0X0X0X0X0X0X0X0X0X0X0X0X0X0X0X0X0X0X0X0X0X0X0X0X0X0X0X0X0X0X0X0X0X0X0X0X0X0X0X0X0X0X0X0X0X0X0X0X0X0X0X0Xa a V.|.|.H.H.H.H.H.H.H.H.a a a a a N.F.F.F.F.F.o.n n K L L L L L Y Y Y Y Y Y Y Y Y Y Y Y Y Y Y Y Y Y Y Y Y Y n n n R [ [ [ [ [ [ [ [ [ [ [ [ [ [ [ [ [ [ [ [ [ [ [ [ [ [ [ [ [ [ [ [ [ [ [ [ [ [ [ [ [ [ [ [ [ [ [ [ [ [ [ [ [ [ [ [ [ [ [ [ [ [ [ [ [ [ [ [ [ [ [ [ [ [ [ [ [ [ [ [ [ [ [ [ [ [ [ [ [ [ [ [ [ [ [ [ [ [ [ [ [ [ [ [ [ [ [ [ [ [ [ [ [ [ [ [ [ [ [ [ [ [ [ [ [ [ [ [ [ [ [ [ [ [ [ [ [ [ [ [ [ [ [ [ [ [ [ [ [ [ [ [ [ [ [ [ [ [ [ [ [ [ [ [ [ [ [ [ [ [ [ [ [ [ [ [ [ [ [ [ [ [ [ [ [ [ [ [ [ [ [ [ [ [ [ [ [ [ [ [ [ [ [ [ [ [ [ [ [ [ [ [ [ [ [ [ [ [ [ [ [ [ [ [ [ [ [ [ [ [ [ [ [ [ [ [ ' ` ' [ [ [ [ [ [ [ [ [ [ [ [ [ [ [ [ [ [ [ [ [ [ ",
"<X<X<X<X<X<X<X<X<X<X<X<X<X<X<X<X=X&X&X&X&X&X&X&X&X&X&X&X&X&X&X&X&X&X&X&X&X&X&X&X&X&X&X&X&X=X,X<X<X2X2X2X2X4X4X9X9X9X0X0X0X0X0X0XcX9X4X9X9X9X0X0X0X0X0X0X0X0X0X0X0X0X0X0X0X0X0X0X0X0X0X0X0X0X0X0X0X0X0X0X0X0X0X0X0X0X0X0X0X0X0X0X0X0X0X0X0X0X0X0X0X0X0X0X0X0X0X0X0X0X0X0X0X0X0X0X0X0X0X0X0X0X0X0X0X0X0X0X0X0X0X0X0X0X0X0X0X0X0X0X0X0X0X0X0X0X0X0X0X0X0X0X0X0X0X0X0X0X0X0X0X0X0X0X0XO O : 9 9 9 9 9 9 # O = Y Y Y Y Y ` [ [ [ [ [ [ [ [ [ [ [ [ [ [ [ [ [ [ [ [ [ [ [ [ [ [ [ [ [ [ P n n F.F.N.a a k V.V.F.H.H.H.H.V.a a l |.|.|.`.H.H.H.H.H.H.H.H.F.H.H.H.H.H.H.k a T #.#.#.#.H 5 ~.0X0X0X0X0X0X0X0X0X0X0X0X0X0X0X1X1X}.~.~.J.e.o.E.1XcXcXcXcXhXhX4X4X4X1X3X3X;X;X*X*X[.[.[.[.[.[.[.*X*X*X;X;X1X1X1X1X;X1X1X1X1X4X4XjXjX0X0XjXcXbXbXbXbXbXbXbXbXbXbXbXbXbXbXbXbXbXbXcX0X0X0X0X0X0X0X0X0X0X0X0X0X0X0X0X0X0X0X0X0X0X0X0X0X0X0X0X0X0X0X0X0X0X0X0X0X0X0X0X0X0X0X0X0X0X0X0X0X0X0X0X0X0X0X0X0X0X0X0X0X0X0X0X0X0X0X0X0X0X0X0X0X0X0X0X0X0X0X0X0X0X0X0X0X0X0X0X0Xa a V.|.|.H.H.H.H.H.H.H.H.a a a a a N.F.F.F.F.F.o.n n K L L L L L Y Y Y Y Y Y Y Y Y Y Y Y Y Y Y Y Y Y Y Y Y Y n n n R [ [ [ [ [ [ [ [ [ [ [ [ [ [ [ [ [ [ [ [ [ [ [ [ [ [ [ [ [ [ [ [ [ [ [ [ [ [ [ [ [ [ [ [ [ [ [ [ [ [ [ [ [ [ [ [ [ [ [ [ [ [ [ [ [ [ [ [ [ [ [ [ [ [ [ [ [ [ [ [ [ [ [ [ [ [ [ [ [ [ [ [ [ [ [ [ [ [ [ [ [ [ [ [ [ [ [ [ [ [ [ [ [ [ [ [ [ [ [ [ [ [ [ [ [ [ [ [ [ [ [ [ [ [ [ [ [ [ [ [ [ [ [ [ [ [ [ [ [ [ [ [ [ [ [ [ [ [ [ [ [ [ [ [ [ [ [ [ [ [ [ [ [ [ [ [ [ [ [ [ [ [ [ [ [ [ [ [ [ [ [ [ [ [ [ [ [ [ [ [ [ [ [ [ [ [ [ [ [ [ [ [ [ [ [ [ [ [ [ [ [ [ [ [ [ [ [ [ [ [ [ [ [ [ [ [ [ [ [ [ [ [ [ [ [ [ [ [ [ [ [ [ [ [ [ [ [ [ [ [ [ ",
"<X<X<X<X<X<X<X<X<X<X<X<X<X<X<X>X&X&X&X&X&X&X&X&X&X&X&X&X&X&X&X&X&X&X&X&X&X&X&X&X&X&X&X&X&X,X<X<X<X<X<X<X<X<X<X<X<X<X<X<X<X2X2X2X<X>X=X>X>X>X,X,X,X2X2X2X4X4X9X9X9X9X0X0X0X0X0X0X0X0X0X0X0X0X0X0X0X0X0X0X0X0X0X0X0X0X0X0X0X0X0X0X0X0X0X0X0X0X0X0X0X0X0X0X0X0X0X0X0X0X0X0X0X0X0X0X0X0X0X0X0X0X0X0X0X0X0X0X0X0X0X0X0X0X0X0X0X0X0X0X0X0X0X0X0X0X0X0X0X0X0X0X0X0X0X0X0X0X0X0X0X0X0X0X0XO O : 9 9 9 9 9 9 # O = Y Y Y Y Y ` [ [ [ [ [ [ [ [ [ [ [ [ [ [ [ [ [ [ [ [ [ [ [ [ [ [ [ [ [ [ P n n F.F.N.a a k V.V.F.H.H.H.H.V.a a l |.|.|.`.H.H.H.H.H.H.H.H.F.H.H.H.H.H.H.j a T #.#.#.#.H 5 /.0X0X0X0X0X0X0X0X0X0X0X0X0X0X0X0X0X0X0X0XjX0X}.E.*X3X;X;X;X*X*X[.[.[.[.[.[.[.[.[.[.;X;X1X1X1X9X9XhXhXhXjXjXbXbXjX0X0X0X0X0X0XjXjX0X0X0X0XcXbXbXbXbXbXbXbXbXbXbXbXbXbXbXbXbXbXbXcXjX0X0X0X0X0X0X0X0X0X0X0X0X0X0X0X0X0X0X0X0X0X0X0X0X0X0X0X0X0X0X0X0X0X0X0X0X0X0X0X0X0X0X0X0X0X0X0X0X0X0X0X0X0X0X0X0X0X0X0X0X0X0X0X0X0X0X0X0X0X0X0X0X0X0X0X0X0X0X0X0X0X0X0X0X0X0X0XjXjXa a V.|.|.H.H.H.H.H.H.H.H.a a a a a N.F.F.F.F.F.o.n n K L L L L L Y Y Y Y Y Y Y Y Y Y Y Y Y Y Y Y Y Y Y Y Y Y n n n R [ [ [ [ [ [ [ [ [ [ [ [ [ [ [ [ [ [ [ [ [ [ [ [ [ [ [ [ [ [ [ [ [ [ [ [ [ [ [ [ [ [ [ [ [ [ [ [ [ [ [ [ [ [ [ [ [ [ [ [ [ [ [ [ [ [ [ [ [ [ [ [ [ [ [ [ [ [ [ [ [ [ [ [ [ [ [ [ [ [ [ [ [ [ [ [ [ [ [ [ [ [ [ [ [ [ [ [ [ [ [ [ [ [ [ [ [ [ [ [ [ [ [ [ [ [ [ [ [ [ [ [ [ [ [ [ [ [ [ [ [ [ [ [ [ [ [ [ [ [ [ [ [ [ [ [ [ [ [ [ [ [ [ [ [ [ [ [ [ [ [ [ [ [ [ [ [ [ [ [ [ [ [ [ [ [ [ [ [ [ [ [ [ [ [ [ [ [ [ [ [ [ [ [ [ [ [ [ [ [ [ [ [ [ [ [ [ [ [ [ [ [ [ [ [ [ [ [ [ [ [ [ [ [ [ [ [ [ [ [ [ [ [ [ [ [ [ [ [ [ [ [ [ [ [ [ [ [ [ [ [ ",
"<X<X<X<X<X<X<X<X<X<X<X<X<X<X,X&X&X&X&X&X&X&X&X&X&X&X&X&X&X&X&X&X&X&X&X&X&X&X&X&X&X&X&X&X>X<X<X<X<X<X<X<X<X<X<X<X<X<X<X<X<X<X<X,X&X&X&X&X&X&X&X&X&X=X=X=X=X:X>X>X>X>X,X,X2X2X2X2X4X4X9X9X9X0X0X0X0X0X0X0X0X0X0X0X0X0X0X0X0X0X0X0X0X0X0X0X0X0X0X0X0X0X0X0X0X0X0X0X0X0X0X0X0X0X0X0X0X0X0X0X0X0X0X0X0X0X0X0X0X0X0X0X0X0X0X0X0X0X0X0X0X0X0X0X0X0X0X0X0X0X0X0X0X0X0X0X0X0X0X0X0X0X0X0X0XO O : 9 9 9 9 9 9 # O = Y Y Y Y Y ` [ [ [ [ [ [ [ [ [ [ [ [ [ [ [ [ [ [ [ [ [ [ [ [ [ [ [ [ [ [ P n n F.F.N.a a k V.V.F.H.H.H.H.N.a a l |.|.|.`.H.H.H.H.H.H.H.H.H.F.H.H.H.H.H.j a T #.#.#.#.G 5 /.0X0X0X0X0X0X0X0X0X0X0X0X0X0X0X0X0X0X0XjXcXbXbX*X[.[.[.[.[.[.[.;X;X1X1X1X9X9XhXhXhXjXjXbXbXbXbXbXbXbXbXbXbXbXcX0X0X0X0X0X0X0XjXjX0XjX0XcXbXbXbXbXbXbXbXbXbXbXbXbXbXbXbXbXbXbXbXjX0X0X0X0X0X0X0X0X0X0X0X0X0X0X0X0X0X0X0X0X0X0X0X0X0X0X0X0X0X0X0X0X0X0X0X0X0X0X0X0X0X0X0X0X0X0X0X0X0X0X0X0X0X0X0X0X0X0X0X0X0X0X0X0X0X0X0X0X0X0X0X0X0X0X0X0X0X0X0X0X0X0X0X0X0X0X0XjXjX1Xa a V.|.|.H.H.H.H.H.H.H.H.a a a a a N.F.F.F.F.F.o.n n K L L L L L Y Y Y Y Y Y Y Y Y Y Y Y Y Y Y Y Y Y Y Y Y Y n n n R [ [ [ [ [ [ [ [ [ [ [ [ [ [ [ [ [ [ [ [ [ [ [ [ [ [ [ [ [ [ [ [ [ [ [ [ [ [ [ [ [ [ [ [ [ [ [ [ [ [ [ [ [ [ [ [ [ [ [ [ [ [ [ [ [ [ [ [ [ [ [ [ [ [ [ [ [ [ [ [ [ [ [ [ [ [ [ [ [ [ [ [ [ [ [ [ [ [ [ [ [ [ [ [ [ [ [ [ [ [ [ [ [ [ [ [ [ [ [ [ [ [ [ [ [ [ [ [ [ [ [ [ [ [ [ [ [ [ [ [ [ [ [ [ [ [ [ [ [ [ [ [ [ [ [ [ [ [ [ [ [ [ [ [ [ [ [ [ [ [ [ [ [ [ [ [ [ [ [ [ [ [ [ [ [ [ [ [ [ [ [ [ [ [ [ [ [ [ [ [ [ [ [ [ [ [ [ [ [ [ [ [ [ [ [ [ [ [ [ [ [ [ [ [ [ [ [ [ [ [ [ [ [ [ [ [ [ [ [ [ [ [ [ [ [ [ [ [ [ [ [ [ [ [ [ [ [ [ [ [ [ ",
"<X<X<X<X<X<X<X<X<X<X<X<X<X,X=X&X&X&X&X&X&X&X&X&X&X&X&X&X&X&X&X&X&X&X&X&X&X&X&X&X&X&X&X>X<X<X<X<X<X<X<X<X<X<X<X<X<X<X<X<X<X<X,X=X&X&X&X&X&X&X&X&X&X&X&X&X&X&X&X&X&X&X&X&X=X=X=X=X=X=X>X>X>X,X,X,X2X2X2X2X4X4X9X9X9X0X0X0X0X0X0X0X0X0X0X0X0X0X0X0X0X0X0X0X0X0X0X0X0X0X0X0X0X0X0X0X0X0X0X0X0X0X0X0X0X0X0X0X0X0X0X0X0X0X0X0X0X0X0X0X0X0X0X0X0X0X0X0X0X0X0X0X0X0X0X0X0X0X0X0X0X0X0X0X0XO O : 9 9 9 9 9 9 # O = Y Y Y Y Y ` [ [ [ [ [ [ [ [ [ [ [ [ [ [ [ [ [ [ [ [ [ [ [ [ [ [ [ [ [ [ P n n F.F.N.a a k V.V.F.H.H.H.H.N.a a l |.|.|.`.H.H.H.H.H.H.H.H.H.F.H.H.H.H.H.j a L #.#.#.#.C 5 1X0X0X0X0X0X0X0X0X0X0X0X0X0X0X0X0X0X0X0XcXbXbXbXhX1X4X9XhXhXhXhXjXjXbXbXbXbXbXbXbXbXbXbXbXbXbXbXbXbXbXbXbXbXcXjX0X0X0X0X0X0X0X0X0X0X0XjXbXbXbXbXbXbXbXbXbXbXbXbXbXbXbXbXbXbXbXcX0X0X0X0X0X0X0X0X0X0X0X0X0X0X0X0X0X0X0X0X0X0X0X0X0X0X0X0X0X0X0X0X0X0X0X0X0X0X0X0X0X0X0X0X0X0X0X0X0X0X0X0X0X0X0X0X0X0X0X0X0X0X0X0X0X0X0X0X0X0X0X0X0X0X0X0X0X0X0X0X0X0X0X0X0X0X0X0X0X0X*Xa a V.|.|.H.H.H.H.H.H.H.H.a a a a a N.F.F.F.F.F.o.n n K L L L L L Y Y Y Y Y Y Y Y Y Y Y Y Y Y Y Y Y Y Y Y Y Y n n n R [ [ [ [ [ [ [ [ [ [ [ [ [ [ [ [ [ [ [ [ [ [ [ [ [ [ [ [ [ [ [ [ [ [ [ [ [ [ [ [ [ [ [ [ [ [ [ [ [ [ [ [ [ [ [ [ [ [ [ [ [ [ [ [ [ [ [ [ [ [ [ [ [ [ [ [ [ [ [ [ [ [ [ [ [ [ [ [ [ [ [ [ [ [ [ [ [ [ [ [ [ [ [ [ [ [ [ [ [ [ [ [ [ [ [ [ [ [ [ [ [ [ [ [ [ [ [ [ [ [ [ [ [ [ [ [ [ [ [ [ [ [ [ [ [ [ [ [ [ [ [ [ [ [ [ [ [ [ [ [ [ [ [ [ [ [ [ [ [ [ [ [ [ [ [ [ [ [ [ [ [ [ [ [ [ [ [ [ [ [ [ [ [ [ [ [ [ [ [ [ [ [ [ [ [ [ [ [ [ [ [ [ [ [ [ [ [ [ [ [ [ [ [ [ [ [ [ [ [ [ [ [ [ [ [ [ [ [ [ [ [ [ [ [ [ [ [ [ [ [ [ [ [ [ [ [ [ [ [ [ [ ",
"<X<X<X<X<X<X<X<X<X<X<X<X<X>X&X&X&X&X&X&X&X&X&X&X&X&X&X&X&X&X&X&X&X&X&X&X&X&X&X&X&X&X=X,X<X<X<X<X<X<X<X<X<X<X<X<X<X<X<X<X<X<X>X&X&X&X&X&X&X&X&X&X&X&X&X&X&X&X&X&X&X&X&X&X&X&X&X&X&X&X&X&X&X&X&X&X=X=X=X=X=X=X>X>X>X,X,X,X2X2X2X4X4X0X9X9X9X0X0X0X0X0X0X0X0X0X0X0X0X0X0X0X0X0X0X0X0X0X0X0X0X0X0X0X0X0X0X0X0X0X0X0X0X0X0X0X0X0X0X0X0X0X0X0X0X0X0X0X0X0X0X0X0X0X0X0X0X0X0X0X0X0X0X0X0XO O : 9 9 9 9 9 9 # O = Y Y Y Y Y ` [ [ [ [ [ [ [ [ [ [ [ [ [ [ [ [ [ [ [ [ [ [ [ [ [ [ [ [ [ [ P n n F.F.N.a a k V.V.F.H.H.H.H.N.a a l |.|.|.`.H.H.H.H.H.H.H.H.H.F.H.H.H.H.H.j a J #.#.#.#.V 7 0X0X0X0X0X0X0X0X0X0X0X0X0X0X0X0X0X0X0XjXbXbXbXbXbXbXbXbXbXbXbXbXbXbXbXbXbXbXbXbXbXbXbXbXbXbXbXbXbXbXbXbXbXbXjX0X0X0X0X0X0X0X0X0X0X0X0XcXbXbXbXbXbXbXbXbXbXbXbXbXbXbXbXbXbXbXcXjX0X0X0X0X0X0X0X0X0X0X0X0X0X0X0X0X0X0X0X0X0X0X0X0X0X0X0X0X0X0X0X0X0X0X0X0X0X0X0X0X0X0X0X0X0X0X0X0X0X0X0X0X0X0X0X0X0X0X0X0X0X0X0X0X0X0X0X0X0X0X0X0X0X0X0X0X0X0X0X0X0X0X0X0X0X0X0X0X0X0X[.a a V.|.|.H.H.H.H.H.H.H.H.a a a a a N.F.F.F.F.F.o.n n K L L L L L Y Y Y Y Y Y Y Y Y Y Y Y Y Y Y Y Y Y Y Y Y Y n n n R [ [ [ [ [ [ [ [ [ [ [ [ [ [ [ [ [ [ [ [ [ [ [ [ [ [ [ [ [ [ [ [ [ [ [ [ [ [ [ [ [ [ [ [ [ [ [ [ [ [ [ [ [ [ [ [ [ [ [ [ [ [ [ [ [ [ [ [ [ [ [ [ [ [ [ [ [ [ [ [ [ [ [ [ [ [ [ [ [ [ [ [ [ [ [ [ [ [ [ [ [ [ [ [ [ [ [ [ [ [ [ [ [ [ [ [ [ [ [ [ [ [ [ [ [ [ [ [ [ [ [ [ [ [ [ [ [ [ [ [ [ [ [ [ [ [ [ [ [ [ [ [ [ [ [ [ [ [ [ [ [ [ [ [ [ [ [ [ [ [ [ [ [ [ [ [ [ [ [ [ [ [ [ [ [ [ [ [ [ [ [ [ [ [ [ [ [ [ [ [ [ [ [ [ [ [ [ [ [ [ [ [ [ [ [ [ [ [ [ [ [ [ [ [ [ [ [ [ [ [ [ [ [ [ [ [ [ [ [ [ [ [ [ [ [ [ [ [ [ [ [ [ [ [ [ [ [ [ [ [ [ ",
"<X<X<X<X<X<X<X<X<X<X<X<X,X&X&X&X&X&X&X&X&X&X&X&X&X&X&X&X&X&X&X&X&X&X&X&X&X&X&X&X&X&X,X<X<X<X<X<X<X<X<X<X<X<X<X<X<X<X<X<X<X,X&X&X&X&X&X&X&X&X&X&X&X&X&X&X&X&X&X&X&X&X&X&X&X&X&X&X&X&X&X&X&X&X&X&X&X&X&X&X&X&X&X&X&X&X&X&X=X=X=X=X=X>X>X>X>X,X,X2X2X2X2X4X4X9X9X9X0X0X0X0X0X0X0X0X0X0X0X0X0X0X0X0X0X0X0X0X0X0X0X0X0X0X0X0X0X0X0X0X0X0X0X0X0X0X0X0X0X0X0X0X0X0X0X0X0X0X0X0X0X0X0X0X0XO O : 9 9 9 9 9 9 # O = Y Y Y Y Y ` [ [ [ [ [ [ [ [ [ [ [ [ [ [ [ [ [ [ [ [ [ [ [ [ [ [ [ [ [ [ P n n F.F.N.a a k V.V.F.H.H.H.H.N.a a l |.|.|.`.H.H.H.H.H.H.H.H.H.F.H.H.H.H.H.j a J #.#.#.#.6  .0X0X0X0X0X0X0X0X0X0X0X0X0X0X0X0X0X0XjXcXbXbXbXbXbXbXbXbXbXbXbXbXbXbXbXbXbXbXbXbXbXbXbXbXbXbXbXbXbXbXbXbXbXcX0X0X0X0X0X0X0X0X0X0X0X0XcXbXbXbXbXbXbXbXbXbXbXbXbXbXbXbXbXbXbXbXjX0X0X0X0X0X0X0X0X0X0X0X0X0X0X0X0X0X0X0X0X0X0X0X0X0X0X0X0X0X0X0X0X0X0X0X0X0X0X0X0X0X0X0X0X0X0X0X0X0X0X0X0X0X0X0X0X0X0X0X0X0X0X0X0X0X0X0X0X0X0X0X0X0X0X0X0X0X0X0X0X0X0X0X0X0X0X0X0X0X0XjX*Xa a V.|.|.H.H.H.H.H.H.H.H.a a a a a N.F.F.F.F.F.o.n n K L L L L L Y Y Y Y Y Y Y Y Y Y Y Y Y Y Y Y Y Y Y Y Y Y n n n R [ [ [ [ [ [ [ [ [ [ [ [ [ [ [ [ [ [ [ [ [ [ [ [ [ [ [ [ [ [ [ [ [ [ [ [ [ [ [ [ [ [ [ [ [ [ [ [ [ [ [ [ [ [ [ [ [ [ [ [ [ [ [ [ [ [ [ [ [ [ [ [ [ [ [ [ [ [ [ [ [ [ [ [ [ [ [ [ [ [ [ [ [ [ [ [ [ [ [ [ [ [ [ [ [ [ [ [ [ [ [ [ [ [ [ [ [ [ [ [ [ [ [ [ [ [ [ [ [ [ [ [ [ [ [ [ [ [ [ [ [ [ [ [ [ [ [ [ [ [ [ [ [ [ [ [ [ [ [ [ [ [ [ [ [ [ [ [ [ [ [ [ [ [ [ [ [ [ [ [ [ [ [ [ [ [ [ [ [ [ [ [ [ [ [ [ [ [ [ [ [ [ [ [ [ [ [ [ [ [ [ [ [ [ [ [ [ [ [ [ [ [ [ [ [ [ [ [ [ [ [ [ [ [ [ [ [ [ [ [ [ [ [ [ [ [ [ [ [ [ [ [ [ [ [ [ [ [ [ [ [ ",
"<X<X<X<X<X<X<X<X<X<X<X,X=X&X&X&X&X&X&X&X&X&X&X&X&X&X&X&X&X&X&X&X&X&X&X&X&X&X&X&X&X>X<X<X<X<X<X<X<X<X<X<X<X<X<X<X<X<X<X<X,X=X&X&X&X&X&X&X&X&X&X&X&X&X&X&X&X&X&X&X&X&X&X&X&X&X&X&X&X&X&X&X&X&X&X&X&X&X&X&X&X&X&X&X&X&X&X&X&X&X&X&X&X&X&X&X&X&X&X=X=X=X=X=X=X>X>X>X,X,X,X2X2X2X2X4X4X9X9X9X0X0X0X0X0X0X0X0X0X0X0X0X0X0X0X0X0X0X0X0X0X0X0X0X0X0X0X0X0X0X0X0X0X0X0X0X0X0X0X0X0X0X0X0X0XO O : 9 9 9 9 9 9 # O = Y Y Y Y Y ` [ [ [ [ [ [ [ [ [ [ [ [ [ [ [ [ [ [ [ [ [ [ [ [ [ [ [ [ [ [ P n n F.F.N.a a k V.V.V.H.H.H.H.N.a a l |.|.|.`.H.H.H.H.H.H.H.H.H.F.H.H.H.H.H.j a J #.#.#.#.5  .jX0X0X0X0X0X0X0X0X0X0X0X0X0X0X0X0X0XcXbXbXbXbXbXbXbXbXbXbXbXbXbXbXbXbXbXbXbXbXbXbXbXbXbXbXbXbXbXbXbXbXbXcXjX0X0X0X0X0X0X0X0X0X0X0XjXbXbXbXbXbXbXbXbXbXbXbXbXbXbXbXbXbXbXbXcX0X0X0X0X0X0X0X0X0X0X0X0X0X0X0X0X0X0X0X0X0X0X0X0X0X0X0X0X0X0X0X0X0X0X0X0X0X0X0X0X0X0X0X0X0X0X0X0X0X0X0X0X0X0X0X0X0X0X0X0X0X0X0X0X0X0X0X0X0X0X0X0X0X0X0X0X0X0X0X0X0X0X0X0X0X0X0X0X0X0X0XjX*Xa a V.|.|.H.H.H.H.H.H.H.F.a a a a a N.F.F.F.F.F.o.n n K L L L L L Y Y Y Y Y Y Y Y Y Y Y Y Y Y Y Y Y Y Y Y Y Y n n n R [ [ [ [ [ [ [ [ [ [ [ [ [ [ [ [ [ [ [ [ [ [ [ [ [ [ [ [ [ [ [ [ [ [ [ [ [ [ [ [ [ [ [ [ [ [ [ [ [ [ [ [ [ [ [ [ [ [ [ [ [ [ [ [ [ [ [ [ [ [ [ [ [ [ [ [ [ [ [ [ [ [ [ [ [ [ [ [ [ [ [ [ [ [ [ [ [ [ [ [ [ [ [ [ [ [ [ [ [ [ [ [ [ [ [ [ [ [ [ [ [ [ [ [ [ [ [ [ [ [ [ [ [ [ [ [ [ [ [ [ [ [ [ [ [ [ [ [ [ [ [ [ [ [ [ [ [ [ [ [ [ [ [ [ [ [ [ [ [ [ [ [ [ [ [ [ [ [ [ [ [ [ [ [ [ [ [ [ [ [ [ [ [ [ [ [ [ [ [ [ [ [ [ [ [ [ [ [ [ [ [ [ [ [ [ [ [ [ [ [ [ [ [ [ [ [ [ [ [ [ [ [ [ [ [ [ [ [ [ [ [ [ [ [ [ [ [ [ [ [ [ [ [ [ [ [ [ [ [ [ [ ",
"<X<X<X<X<X<X<X<X<X<X<X>X&X&X&X&X&X&X&X&X&X&X&X&X&X&X&X&X&X&X&X&X&X&X&X&X&X&X&X&X=X,X<X<X<X<X<X<X<X<X<X<X<X<X<X<X<X<X<X<X=X&X&X&X&X&X&X&X&X&X&X&X&X&X&X&X&X&X&X&X&X&X&X&X&X&X&X&X&X&X&X&X&X&X&X&X&X&X&X&X&X&X&X&X&X&X&X&X&X&X&X&X&X&X&X&X&X&X&X&X&X&X&X&X&X&X&X&X&X&X&X=X=X=X=X=X=X>X>X>X,X,X,X2X2X2X4X4X9X9X9X9X0X0X0X0X0X0X0X0X0X0X0X0X0X0X0X0X0X0X0X0X0X0X0X0X0X0X0X0X0X0X0X0X0XO O : 9 9 9 9 9 9 # O = Y Y Y Y Y ` [ [ [ [ [ [ [ [ [ [ [ [ [ [ [ [ [ [ [ [ [ [ [ [ [ [ [ [ [ [ P n n F.F.N.a a k V.V.V.H.H.H.H.N.a a l |.|.|._.H.H.H.H.H.H.H.H.H.F.H.H.H.H.H.j a J #.#.#.+.5 o.jX0X0X0X0X0X0X0X0X0X0X0X0X0X0X0X0XcXbXbXbXbXbXbXbXbXbXbXbXbXbXbXbXbXbXbXbXbXbXbXbXbXbXbXbXbXbXbXbXbXbXbXjX0X0X0X0X0X0X0X0X0X0X0XjXcXbXbXbXbXbXbXbXbXbXbXbXbXbXbXbXbXbXbXcXjX0X0X0X0X0X0X0X0X0X0X0X0X0X0X0X0X0X0X0X0X0X0X0X0X0X0X0X0X0X0X0X0X0X0X0X0X0X0X0X0X0X0X0X0X0X0X0X0X0X0X0X0X0X0X0X0X0X0X0X0X0X0X0X0X0X0X0X0X0X0X0X0X0X0X0X0X0X0X0X0X0X0X0X0X0X0X0X0X0X0X0X0X[.a a V.|.|.H.H.H.H.H.H.H.V.a a a a a N.F.F.F.F.F.o.n n K L L L L L Y Y Y Y Y Y Y Y Y Y Y Y Y Y Y Y Y Y Y Y Y Y n n n R [ [ [ [ [ [ [ [ [ [ [ [ [ [ [ [ [ [ [ [ [ [ [ [ [ [ [ [ [ [ [ [ [ [ [ [ [ [ [ [ [ [ [ [ } } } } [ [ [ [ [ [ [ [ [ [ [ [ [ [ [ [ [ [ [ [ [ [ [ [ [ [ [ [ [ [ [ [ [ [ [ [ [ [ [ [ [ [ [ [ [ [ [ [ [ [ [ [ [ [ [ [ [ [ [ [ [ [ [ [ [ [ [ [ [ [ [ [ [ [ [ [ [ [ [ [ [ [ [ [ [ [ [ [ [ [ [ [ [ [ [ [ [ [ [ [ [ [ [ [ [ [ [ [ [ [ [ [ [ [ [ [ [ [ [ [ [ [ [ [ [ [ [ [ [ [ [ [ [ [ [ [ [ [ [ [ [ [ [ [ [ [ [ [ [ [ [ [ [ [ [ [ [ [ [ [ [ [ [ [ [ [ [ [ [ [ [ [ [ [ [ [ [ [ [ [ [ [ [ [ [ [ [ [ [ [ [ [ [ [ [ [ [ [ [ [ [ [ [ [ [ [ [ [ [ [ [ [ [ ",
"<X<X<X<X<X<X<X<X<X<X,X&X&X&X&X&X&X&X&X&X&X&X&X&X&X&X&X&X&X&X&X&X&X&X&X&X&X&X&X=X,X<X<X<X<X<X<X<X<X<X<X<X<X<X<X<X<X<X<X>X&X&X&X&X&X&X&X&X&X&X&X&X&X&X&X&X&X&X&X&X&X&X&X&X&X&X&X&X&X&X&X&X&X&X&X&X&X&X&X&X&X&X&X&X&X&X&X&X&X&X&X&X&X&X&X&X&X&X&X&X&X&X&X&X&X&X&X&X&X&X&X&X&X&X&X&X&X&X&X&X&X&X&X=X=X=X=X=X>X>X>X>X,X,X,X2X2X2X4X4X9X9X9X9X0X0X0X0X0X0X0X0X0X0X0X0X0X0X0X0X0X0X0X0X0XO O : 9 9 9 9 9 9 # O = Y Y Y Y Y ` [ [ [ [ [ [ [ [ [ [ [ [ [ [ [ [ [ [ [ [ [ [ [ [ [ [ [ [ [ [ P n n F.F.l a a k V.V.V.H.H.H.H.N.a a l |.|.|.).H.H.H.H.H.H.H.H.H.F.H.H.H.H.H.j a J #.#.#.H 5 ~.0X0X0X0X0X0X0X0X0X0X0X0X0X0X0X0XjXbXbXbXbXbXbXbXbXbXbXbXbXbXbXbXbXbXbXbXbXbXbXbXbXbXbXbXbXbXbXbXbXbXbXcX0X0X0X0X0X0X0X0X0X0X0X0XcXbXbXbXbXbXbXbXbXbXbXbXbXbXbXbXbXbXbXbXjX0X0X0X0X0X0X0X0X0X0X0X0X0X0X0X0X0X0X0X0X0X0X0X0X0X0X0X0X0X0X0X0X0X0X0X0X0X0X0X0X0X0X0X0X0X0X0X0X0X0X0X0X0X0X0X0X0X0X0X0X0X0X0X0X0X0X0X0X0X0X0X0X0X0X0X0X0X0X0X0X0X0X0X0X0X0X0X0X0X0X0X0X0X[.a a V.|.|.H.H.H.H.H.H.H.V.a a a a a N.F.F.F.F.F.o.n n K L L L L L ~ ~ ~ Y Y Y Y Y Y Y Y Y Y Y Y Y Y Y Y Y Y Y n n n R [ [ [ [ [ [ [ [ [ [ [ [ [ [ [ [ [ [ [ [ [ [ [ [ [ [ [ [ [ [ [ [ [ [ [ [ [ [ } } } } } } | | | | [ [ [ [ [ [ [ [ [ [ [ [ [ [ [ [ [ [ [ [ [ [ [ [ [ [ [ [ [ [ [ [ [ [ [ [ [ [ [ [ [ [ [ [ [ [ [ [ [ [ [ [ [ [ [ [ [ [ [ [ [ [ [ [ [ [ [ [ [ [ [ [ [ [ [ [ [ [ [ [ [ [ [ [ [ [ [ [ [ [ [ [ [ [ [ [ [ [ [ [ [ [ [ [ [ [ [ [ [ [ [ [ [ [ [ [ [ [ [ [ [ [ [ [ [ [ [ [ [ [ [ [ [ [ [ [ [ [ [ [ [ [ [ [ [ [ [ [ [ [ [ [ [ [ [ [ [ [ [ [ [ [ [ [ [ [ [ [ [ [ [ [ [ [ [ [ [ [ [ [ [ [ [ [ [ [ [ [ [ [ [ [ [ [ [ [ [ [ [ [ [ [ [ [ [ [ [ [ [ [ [ [ [ ",
"<X<X<X<X<X<X<X<X<X,X=X&X&X&X&X&X&X&X&X&X&X&X&X&X&X&X&X&X&X&X&X&X&X&X&X&X&X&X&X,X<X<X<X<X<X<X<X<X<X<X<X<X<X<X<X<X<X<X,X&X&X&X&X&X&X&X&X&X&X&X&X&X&X&X&X&X&X&X&X&X&X&X&X&X&X&X&X&X&X&X&X&X&X&X&X&X&X&X&X&X&X&X&X&X&X&X&X&X&X&X&X&X&X&X&X&X&X&X&X&X&X&X&X&X&X&X&X&X&X&X&X&X&X&X&X&X&X&X&X&X&X&X&X&X&X&X&X&X&X&X&X&X&X&X&X=X=X=X=X=X>X>X>X>X,X,X2X2X2X2X4X4X9X9X9X0X0X0X0X0X0X0X0X0X0XO O : 9 9 9 9 9 9 # O = Y Y Y Y Y ` [ [ [ [ [ [ [ [ [ [ [ [ [ [ [ [ [ [ [ [ [ [ [ [ [ [ [ [ [ [ P n n F.F.l a a k V.V.V.H.H.H.H.N.a a l |.|.|.).H.H.H.H.H.H.H.H.H.F.H.H.H.H.H.d a J #.#.#.H 5 /.0X0X0X0X0X0X0X0X0X0X0X0X0X0X0XjXcXbXbXbXbXbXbXbXbXbXbXbXbXbXbXbXbXbXbXbXbXbXbXbXbXbXbXbXbXbXbXbXbXbXcXjX0X0X0X0X0X0X0X0X0X0X0XjXbXbXbXbXbXbXbXbXbXbXbXbXbXbXbXbXbXbXbXjX0X0X0X0X0X0X0X0X0X0X0X0X0X0X0X0X0X0X0X0X0X0X0X0X0X0X0X0X0X0X0X0X0X0X0X0X0X0X0X0X0X0X0X0X0X0X0X0X0X0X0X0X0X0X0X0X0X0X0X0X0X0X0X0X0X0X0X0X0X0X0X0X0X0X0X0X0X0X0X0X0X0X0X0X0X0X0X0X0X0X0X0X0X0X[.a a H.|.`.H.H.H.H.H.H.H.V.a a a a a N.F.F.F.F.F.o.n n K L L L L U ^ ^ ~ ~ ~ ~ Y Y Y Y Y Y Y Y Y Y Y Y Y Y Y Y n n n R [ [ [ [ [ [ [ [ [ [ [ [ [ [ [ [ [ [ [ [ [ [ [ [ [ [ [ [ [ [ [ [ } } } } } } | | | | | | | | | | [ [ [ [ [ [ [ [ [ [ [ [ [ [ [ [ [ [ [ [ [ [ [ [ [ [ [ [ [ [ [ [ [ [ [ [ [ [ [ [ [ [ [ [ [ [ [ [ [ [ [ [ [ [ [ [ [ [ [ [ [ [ [ [ [ [ [ [ [ [ [ [ [ [ [ [ [ [ [ [ [ [ [ [ [ [ [ [ [ [ [ [ [ [ [ [ [ [ [ [ [ [ [ [ [ [ [ [ [ [ [ [ [ [ [ [ [ [ [ [ [ [ [ [ [ [ [ [ [ [ [ [ [ [ [ [ [ [ [ [ [ [ [ [ [ [ [ [ [ [ [ [ [ [ [ [ [ [ [ [ [ [ [ [ [ [ [ [ [ [ [ [ [ [ [ [ [ [ [ [ [ [ [ [ [ [ [ [ [ [ [ [ [ [ [ [ [ [ [ [ [ [ [ [ [ [ [ [ [ [ [ [ [ ",
"<X<X<X<X<X<X<X<X,X=X&X&X&X&X&X&X&X&X&X&X&X&X&X&X&X&X&X&X&X&X&X&X&X&X&X&X&X&X>X<X<X<X<X<X<X<X<X<X<X<X<X<X<X<X<X<X<X,X=X&X&X&X&X&X&X&X&X&X&X&X&X&X&X&X&X&X&X&X&X&X&X&X&X&X&X&X&X&X&X&X&X&X&X&X&X&X&X&X&X&X&X&X&X&X&X&X&X&X&X&X&X&X&X&X&X&X&X&X&X&X&X&X&X&X&X&X&X&X&X&X&X&X&X&X&X&X&X&X&X&X&X&X&X&X&X&X&X&X&X&X&X&X&X&X&X&X&X&X&X&X&X&X&X&X&X&X=X=X=X=X=X:X>X>X>X,X,X,X2X2X2X4X4X9X9XO O : 9 9 9 9 9 9 # O = Y Y Y Y Y ` [ [ [ [ [ [ [ [ [ [ [ [ [ [ [ [ [ [ [ [ [ [ [ [ [ [ [ [ [ [ P n n F.F.l a a k V.V.V.H.H.H.H.N.a a l |.|.|.).H.H.H.H.H.H.H.H.H.F.H.H.H.H.H.a a J #.#.#.G 5 /.0X0X0X0X0X0X0X0X0X0X0X0X0X0X0XcXbXbXbXbXbXbXbXbXbXbXbXbXbXbXbXbXbXbXbXbXbXbXbXbXbXbXbXbXbXbXbXbXbXcXjX0X0X0X0X0X0X0X0X0X0X0XjXcXbXbXbXbXbXbXbXbXbXbXbXbXbXbXbXbXbXbXcX0X0X0X0X0X0X0X0X0X0X0X0X0X0X0X0X0X0X0X0X0X0X0X0X0X0X0X0X0X0X0X0X0X0X0X0X0X0X0X0X0X0X0X0X0X0X0X0X0X0X0X0X0X0X0X0X0X0X0X0X0X0X0X0X0X0X0X0X0X0X0X0X0X0X0X0X0X0X0X0X0X0X0X0X0X0X0X0X0X0X0X0X0X0X0X[.a a ).|.`.H.H.H.H.H.H.H.V.a a a a a V.F.F.F.F.F.o.n n K L L L L U ^ ^ ^ ^ ^ ~ ~ ~ ~ Y Y Y Y Y Y Y Y Y Y Y Y Y n n n R [ [ [ [ [ [ [ [ [ [ [ [ [ [ [ [ [ [ [ [ [ [ [ [ [ [ } } } } } } | | | | | | | | | | | | | | | | [ [ [ [ [ [ [ [ [ [ [ [ [ [ [ [ [ [ [ [ [ [ [ [ [ [ [ [ [ [ [ [ [ [ [ [ [ [ [ [ [ [ [ [ [ [ [ [ [ [ [ [ [ [ [ [ [ [ [ [ [ [ [ [ [ [ [ [ [ [ [ [ [ [ [ [ [ [ [ [ [ [ [ [ [ [ [ [ [ [ [ [ [ [ [ [ [ [ [ [ [ [ [ [ [ [ [ [ [ [ [ [ [ [ [ [ [ [ [ [ [ [ [ [ [ [ [ [ [ [ [ [ [ [ [ [ [ [ [ [ [ [ [ [ [ [ [ [ [ [ [ [ [ [ [ [ [ [ [ [ [ [ [ [ [ [ [ [ [ [ [ [ [ [ [ [ [ [ [ [ [ [ [ [ [ [ [ [ [ [ [ [ [ [ [ [ [ [ [ [ [ [ [ [ [ [ [ [ [ [ [ [ [ ",
"<X<X<X<X<X<X<X<X>X&X&X&X&X&X&X&X&X&X&X&X&X&X&X&X&X&X&X&X&X&X&X&X&X&X&X&X&X=X,X<X<X<X<X<X<X<X<X<X<X<X<X<X<X<X<X<X<X>X&X&X&X&X&X&X&X&X&X&X&X&X&X&X&X&X&X&X&X&X&X&X&X&X&X&X&X&X&X&X&X&X&X&X&X&X&X&X&X&X&X&X&X&X&X&X&X&X&X&X&X&X&X&X&X&X&X&X&X&X&X&X&X&X&X&X&X&X&X&X&X&X&X&X&X&X&X&X&X&X&X&X&X&X&X&X&X&X&X&X&X&X&X&X&X&X&X&X&X&X&X&X&X&X&X&X&X&X&X&X&X&X&X&X&X&X&X&X&X&X=X=X&X=X=X>X>XO O : 9 9 9 9 9 9 # O = Y Y Y Y Y ` [ [ [ [ [ [ [ [ [ [ [ [ [ [ [ [ [ [ [ [ [ [ [ [ [ [ [ [ [ [ P n n F.F.l a a k V.V.V.H.H.H.H.N.a a l |.|.|.).H.H.H.H.H.H.H.H.H.F.H.H.H.H.H.a a J #.#.#.F 5 1X0X0X0X0X0X0X0X0X0X0X0X0X0X0XjXbXbXbXbXbXbXbXbXbXbXbXbXbXbXbXbXbXbXbXbXbXbXbXbXbXbXbXbXbXbXbXbXbXbXjX0X0X0X0X0X0X0X0X0X0X0X0XcXbXbXbXbXbXbXbXbXbXbXbXbXbXbXbXbXbXbXbXjX0X0X0X0X0X0X0X0X0X0X0X0X0X0X0X0X0X0X0X0X0X0X0X0X0X0X0X0X0X0X0X0X0X0X0X0X0X0X0X0X0X0X0X0X0X0X0X0X0X0X0X0X0X0X0X0X0X0X0X0X0X0X0X0X0X0X0X0X0X0X0X0X0X0X0X0X0X0X0X0X0X0X0X0X0X0X0X0X0X0X0X0X0X0X0X[.a a ).|.`.H.H.H.H.H.H.H.V.a a a a a F.F.F.F.F.F.o.n n K L L L L U ^ ^ ^ ^ ^ ^ ^ ^ ~ ~ ~ ~ Y Y Y Y Y Y Y Y Y Y n n n R [ [ [ [ [ [ [ [ [ [ [ [ [ [ [ [ [ [ [ [ } } } } } } | | | | | | | | | | | | | | | | | | | | | | [ [ [ [ [ [ [ [ [ [ [ [ [ [ [ [ [ [ [ [ [ [ [ [ [ [ [ [ [ [ [ [ [ [ [ [ [ [ [ [ [ [ [ [ [ [ [ [ [ [ [ [ [ [ [ [ [ [ [ [ [ [ [ [ [ [ [ [ [ [ [ [ [ [ [ [ [ [ [ [ [ [ [ [ [ [ [ [ [ [ [ [ [ [ [ [ [ [ [ [ [ [ [ [ [ [ [ [ [ [ [ [ [ [ [ [ [ [ [ [ [ [ [ [ [ [ [ [ [ [ [ [ [ [ [ [ [ [ [ [ [ [ [ [ [ [ [ [ [ [ [ [ [ [ [ [ [ [ [ [ [ [ [ [ [ [ [ [ [ [ [ [ [ [ [ [ [ [ [ [ [ [ [ [ [ [ [ [ [ [ [ [ [ [ [ [ [ [ [ [ [ [ [ [ [ [ [ [ [ [ [ [ [ ",
"<X<X<X<X<X<X<X,X&X&X&X&X&X&X&X&X&X&X&X&X&X&X&X&X&X&X&X&X&X&X&X&X&X&X&X&X&X,X<X<X<X<X<X<X<X<X<X<X<X<X<X<X<X<X<X<X,X&X&X&X&X&X&X&X&X&X&X&X&X&X&X&X&X&X&X&X&X&X&X&X&X&X&X&X&X&X&X&X&X&X&X&X&X&X&X&X&X&X&X&X&X&X&X&X&X&X&X&X&X&X&X&X&X&X&X&X&X&X&X&X&X&X&X&X&X&X&X&X&X&X&X&X&X&X&X&X&X&X&X&X&X&X&X&X&X&X&X&X&X&X&X&X&X&X&X&X&X&X&X&X&X&X&X&X&X&X&X&X&X&X&X&X&X&X&X&X&X&X&X&X&X&X&X&X&XO O : 9 9 9 9 9 9 # O = Y Y Y Y Y ` [ [ [ [ [ [ [ [ [ [ [ [ [ [ [ [ [ [ [ [ [ [ [ [ [ [ [ [ [ [ P n n F.F.l a a k V.V.V.H.H.H.H.N.a a l |.|.|.).H.H.H.H.H.H.H.H.H.F.H.H.H.H.H.a a J #.#.#.C 5 0X0X0X0X0X0X0X0X0X0X0X0X0X0XjXcXbXbXbXbXbXbXbXbXbXbXbXbXbXbXbXbXbXbXbXbXbXbXbXbXbXbXbXbXbXbXbXbXbXcX0X0X0X0X0X0X0X0X0X0X0X0XjXbXbXbXbXbXbXbXbXbXbXbXbXbXbXbXbXbXbXbXjX0X0X0X0X0X0X0X0X0X0X0X0X0X0X0X0X0X0X0X0X0X0X0X0X0X0X0X0X0X0X0X0X0X0X0X0X0X0X0X0X0X0X0X0X0X0X0X0X0X0X0X0X0X0X0X0X0X0X0X0X0X0X0X0X0X0X0X0X0X0X0X0X0X0X0X0X0X0X0X0X0X0X0X0X0X0X0X0X0X0X0X0X0X0X0X0X[.a a ).|.`.H.H.H.H.H.H.H.V.a a a a a F.F.F.F.F.F.o.n n K L L L L U ^ ^ ^ ^ ^ ^ ^ ^ ^ ^ ^ ~ ~ ~ ~ Y Y Y Y Y Y Y n n n R [ [ [ [ [ [ [ [ [ [ [ [ [ [ } } } } } } | | | | | | | | | | | | | | | | | | | | | | | | | | | | [ [ [ [ [ [ [ [ [ [ [ [ [ [ [ [ [ [ [ [ [ [ [ [ [ [ [ [ [ [ [ [ [ [ [ [ [ [ [ [ [ [ [ [ [ [ [ [ [ [ [ [ [ [ [ [ [ [ [ [ [ [ [ [ [ [ [ [ [ [ [ [ [ [ [ [ [ [ [ [ [ [ [ [ [ [ [ [ [ [ [ [ [ [ [ [ [ [ [ [ [ [ [ [ [ [ [ [ [ [ [ [ [ [ [ [ [ [ [ [ [ [ [ [ [ [ [ [ [ [ [ [ [ [ [ [ [ [ [ [ [ [ [ [ [ [ [ [ [ [ [ [ [ [ [ [ [ [ [ [ [ [ [ [ [ [ [ [ [ [ [ [ [ [ [ [ [ [ [ [ [ [ [ [ [ [ [ [ [ [ [ [ [ [ [ [ [ [ [ [ [ [ [ [ [ [ [ [ [ [ } } } ",
"<X<X<X<X<X<X,X=X&X&X&X&X&X&X&X&X&X&X&X&X&X&X&X&X&X&X&X&X&X&X&X&X&X&X&X&X>X<X<X<X<X<X<X<X<X<X<X<X<X<X<X<X<X<X<X,X=X&X&X&X&X&X&X&X&X&X&X&X&X&X&X&X&X&X&X&X&X&X&X&X&X&X&X&X&X&X&X&X&X&X&X&X&X&X&X&X&X&X&X&X&X&X&X&X&X&X&X&X&X&X&X&X&X&X&X&X&X&X&X&X&X&X&X&X&X&X&X&X&X&X&X&X&X&X&X&X&X&X&X&X&X&X&X&X&X&X&X&X&X&X&X&X&X&X&X&X&X&X&X&X&X&X&X&X&X&X&X&X&X&X&X&X&X&X&X&X&X&X&X&XY.Y.i.i.6.O O : 9 9 9 9 9 9 # O = Y Y Y Y Y ` [ [ [ [ [ [ [ [ [ [ [ [ [ [ [ [ [ [ [ [ [ [ [ [ [ [ [ [ [ [ P n n F.F.l a a k V.V.V.H.H.H.H.N.a a l |.|.|.).H.H.H.H.H.H.H.H.H.F.H.H.H.H.H.a a J #.#.#.c 7 0X0X0X0X0X0X0X0X0X0X0X0X0X0XcXbXbXbXbXbXbXbXbXbXbXbXbXbXbXbXbXbXbXbXbXbXbXbXbXbXbXbXbXbXbXbXbXbXcXjX0X0X0X0X0X0X0X0X0X0X0XjXcXbXbXbXbXbXbXbXbXbXbXbXbXbXbXbXbXbXbXcX0X0X0X0X0X0X0X0X0X0X0X0X0X0X0X0X0X0X0X0X0X0X0X0X0X0X0X0X0X0X0X0X0X0X0X0X0X0X0X0X0X0X0X0X0X0X0X0X0X0X0X0X0X0X0X0X0X0X0X0X0X0X0X0X0X0X0X0X0X0X0X0X0X0X0X0X0X0X0X0X0X0X0X0X0X0X0X0X0X0X0X0X0X0X0X0X0X[.a a ).|.`.H.H.H.H.H.H.H.V.a a a a a F.F.F.F.F.F.o.n n K L L L L U ^ ^ ^ ^ ^ ^ ^ ^ ^ ^ ^ ^ ^ ^ ~ ~ ~ ~ Y Y Y Y n n n R [ [ [ [ [ [ [ [ } } } } } } | | | | | | | | | | | | | | | | | | | | | | | | | | | | | | | | | | [ [ [ [ [ [ [ [ [ [ [ [ [ [ [ [ [ [ [ [ [ [ [ [ [ [ [ [ [ [ [ [ [ [ [ [ [ [ [ [ [ [ [ [ [ [ [ [ [ [ [ [ [ [ [ [ [ [ [ [ [ [ [ [ [ [ [ [ [ [ [ [ [ [ [ [ [ [ [ [ [ [ [ [ [ [ [ [ [ [ [ [ [ [ [ [ [ [ [ [ [ [ [ [ [ [ [ [ [ [ [ [ [ [ [ [ [ [ [ [ [ [ [ [ [ [ [ [ [ [ [ [ [ [ [ [ [ [ [ [ [ [ [ [ [ [ [ [ [ [ [ [ [ [ [ [ [ [ [ [ [ [ [ [ [ [ [ [ [ [ [ [ [ [ [ [ [ [ [ [ [ [ [ [ [ [ [ [ [ [ [ [ [ [ [ [ [ [ [ [ [ [ [ [ } } } } } } | | | ",
"<X<X<X<X<X<X>X&X&X&X&X&X&X&X&X&X&X&X&X&X&X&X&X&X&X&X&X&X&X&X&X&X&X&X&X=X<X<X<X<X<X<X<X<X<X<X<X<X<X<X<X<X<X<X,X=X&X&X&X&X&X&X&X&X&X&X&X&X&X&X&X&X&X&X&X&X&X&X&X&X&X&X&X&X&X&X&X&X&X&X&X&X&X&X&X&X&X&X&X&X&X&X&X&X&X&X&X&X&X&X&X&X&X&X&X&X&X&X&X&X&X&X&X&X&X&X&X&X&X&X&X&X&X&X&X&X&X&X&X&X&X&X&X&X&X&X&X&X&X&X&X&X&X&X&X&X&X&X&X&X&X&X&X&X&X&X&X&X&X&X&X&X&XY.i.i.i.6.:.:.y y 8 8 % O O > 9 9 9 9 9 9 # O = Y Y Y Y Y ` [ [ [ [ [ [ [ [ [ [ [ [ [ [ [ [ [ [ [ [ [ [ [ [ [ [ [ [ [ [ P n n F.F.l a a k V.V.V.H.H.H.H.N.a a l |.|.|.).H.H.H.H.H.H.H.H.H.H.H.H.H.H.H.a a J #.#.#.n  .0X0X0X0X0X0X0X0X0X0X0X0X0XjXbXbXbXbXbXbXbXbXbXbXbXbXbXbXbXbXbXbXbXbXbXbXbXbXbXbXbXbXbXbXbXbXbXbXjX0X0X0X0X0X0X0X0X0X0X0X0XcXbXbXbXbXbXbXbXbXbXbXbXbXbXbXbXbXbXbXcXjX0X0X0X0X0X0X0X0X0X0X0X0X0X0X0X0X0X0X0X0X0X0X0X0X0X0X0X0X0X0X0X0X0X0X0X0X0X0X0X0X0X0X0X0X0X0X0X0X0X0X0X0X0X0X0X0X0X0X0X0X0X0X0X0X0X0X0X0X0X0X0X0X0X0X0X0X0X0X0X0X0X0X0X0X0X0X0X0X0X0X0X0X0X0X0X0X0X^.a a ).|.`.H.H.H.H.H.H.H.V.a a a a a F.F.F.F.F.F.o.n n K L L L L U ^ ^ ^ ^ ^ ^ ^ ^ ^ ^ ^ ^ ^ ^ ^ ^ ^ ~ ~ ~ ~ Y n n n / [ [ } } } } } } | | | | | | | | | | | | | | | | | | | | | | | | | | | | | | | | | | | | | | | | [ [ [ [ [ [ [ [ [ [ [ [ [ [ [ [ [ [ [ [ [ [ [ [ [ [ [ [ [ [ [ [ [ [ [ [ [ [ [ [ [ [ [ [ [ [ [ [ [ [ [ [ [ [ [ [ [ [ [ [ [ [ [ [ [ [ [ [ [ [ [ [ [ [ [ [ [ [ [ [ [ [ [ [ [ [ [ [ [ [ [ [ [ [ [ [ [ [ [ [ [ [ [ [ [ [ [ [ [ [ [ [ [ [ [ [ [ [ [ [ [ [ [ [ [ [ [ [ [ [ [ [ [ [ [ [ [ [ [ [ [ [ [ [ [ [ [ [ [ [ [ [ [ [ [ [ [ [ [ [ [ [ [ [ [ [ [ [ [ [ [ [ [ [ [ [ [ [ [ [ [ [ [ [ [ [ [ [ [ [ [ [ [ [ [ [ [ [ } } } } } } | | | | | | | | | ",
"<X<X<X<X<X,X&X&X&X&X&X&X&X&X&X&X&X&X&X&X&X&X&X&X&X&X&X&X&X&X&X&X&X&X=X,X<X<X<X<X<X<X<X<X<X<X<X<X<X<X<X<X<X<X>X&X&X&X&X&X&X&X&X&X&X&X&X&X&X&X&X&X&X&X&X&X&X&X&X&X&X&X&X&X&X&X&X&X&X&X&X&X&X&X&X&X&X&X&X&X&X&X&X&X&X&X&X&X&X&X&X&X&X&X&X&X&X&X&X&X&X&X&X&X&X&X&X&X&X&X&X&X&X&X&X&X&X&X&X&X&X&X&X&X&X&X&X&X&X&X&X&X&X&X&X&X&X&X&X&X&X&X&X&X&X&XY.i.i.i.6.:.:.y 8 8 8 % O O O O O O O + # 1 9 9 9 9 9 9 # O = Y Y Y Y Y ` [ [ [ [ [ [ [ [ [ [ [ [ [ [ [ [ [ [ [ [ [ [ [ [ [ [ [ [ [ [ P n n F.F.l a a k V.V.V.H.H.H.H.N.a a l |.|.|._.H.H.H.H.H.H.H.H.H.H.F.H.H.H.H.a a J #.#.#.6  .0X0XjXjX0X0X0X0X0X0X0X0XjXbXbXbXbXbXbXbXbXbXbXbXbXbXbXbXbXbXbXbXbXbXbXbXbXbXbXbXbXbXbXbXbXbXbXcX0X0X0X0X0X0X0X0X0X0X0X0XjXbXbXbXbXbXbXbXbXbXbXbXbXbXbXbXbXbXbXbXjX0X0X0X0X0X0X0X0X0X0X0X0X0X0X0X0X0X0X0X0X0X0X0X0X0X0X0X0X0X0X0X0X0X0X0X0X0X0X0X0X0X0X0X0X0X0X0X0X0X0X0X0X0X0X0X0X0X0X0X0X0X0X0X0X0X0X0X0X0X0X0X0X0X0X0X0X0X0X0X0X0X0X0X0X0X0X0X0X0X0X0X0X0X0X0X0X0X0XT.a a ).|.`.H.H.H.H.H.H.H.V.a a a a a F.F.F.F.F.F.o.n n K L L L L U ^ ^ ^ ^ ^ ^ ^ ^ ^ ^ ^ ^ ^ ^ ^ ^ ^ ^ ^ ^ ~ Y n n M { } } } | | | | | | | | | | | | | | | | | | | | | | | | | | | | | | | | | | | | | | | | | | | | | [ [ [ [ [ [ [ [ [ [ [ [ [ [ [ [ [ [ [ [ [ [ [ [ [ [ [ [ [ [ [ [ [ [ [ [ [ [ [ [ [ [ [ [ [ [ [ [ [ [ [ [ [ [ [ [ [ [ [ [ [ [ [ [ [ [ [ [ [ [ [ [ [ [ [ [ [ [ [ [ [ [ [ [ [ [ [ [ [ [ [ [ [ [ [ [ [ [ [ [ [ [ [ [ [ [ [ [ [ [ [ [ [ [ [ [ [ [ [ [ [ [ [ [ [ [ [ [ [ [ [ [ [ [ [ [ [ [ [ [ [ [ [ [ [ [ [ [ [ [ [ [ [ [ [ [ [ [ [ [ [ [ [ [ [ [ [ [ [ [ [ [ [ [ [ [ [ [ [ [ [ [ [ [ [ [ [ [ [ [ [ [ } } } } } } | | | | | | | | | | | | | | | ",
"<X<X<X<X,X=X&X&X&X&X&X&X&X&X&X&X&X&X&X&X&X&X&X&X&X&X&X&X&X&X&X&X&X&X,X<X<X<X<X<X<X<X<X<X<X<X<X<X<X<X<X<X<X,X&X&X&X&X&X&X&X&X&X&X&X&X&X&X&X&X&X&X&X&X&X&X&X&X&X&X&X&X&X&X&X&X&X&X&X&X&X&X&X&X&X&X&X&X&X&X&X&X&X&X&X&X&X&X&X&X&X&X&X&X&X&X&X&X&X&X&X&X&X&X&X&X&X&X&X&X&X&X&X&X&X&X&X&X&X&X&X&X&X&X&X&X&X&X&X&X&X&X&X&X&X&X&X&X&XY.i.i.i.6.:.:.y 8 8 8 % O O O O O O O + # # & & : : > < 9 9 9 9 9 9 9 # O = Y Y Y Y Y ' [ [ [ [ [ [ [ [ [ [ [ [ [ [ [ [ [ [ [ [ [ [ [ [ [ [ [ [ [ [ P n n F.F.l a a k V.V.V.H.H.H.H.N.a a l |.|.|._.H.H.H.H.H.H.H.H.H.H.F.H.H.H.H.a a J #.#.#.5  .0XjXjXjX0X0X0X0X0X0X0XjXcXbXbXbXbXbXbXbXbXbXbXbXbXbXbXbXbXbXbXbXbXbXbXbXbXbXbXbXbXbXbXbXbXbXcXjX0X0X0X0X0X0X0X0X0X0X0XjXcXbXbXbXbXbXbXbXbXbXbXbXbXbXbXbXbXbXbXcX0X0X0X0X0X0X0X0X0X0X0X0X0X0X0X0X0X0X0X0X0X0X0X0X0X0X0X0X0X0X0X0X0X0X0X0X0X0X0X0X0X0X0X0X0X0X0X0X0X0X0X0X0X0X0X0X0X0X0X0X0X0X0X0X0X0X0X0X0X0X0X0X0X0X0X0X0X0X0X0X0X0X0X0X0X0X0X0X0X0X0X0X0X0X0X0X0X0X0XT.a a ).|.`.H.H.H.H.H.H.H.V.a a a a a F.F.F.F.F.F...n n K L L L L U ^ ^ ^ ^ ^ ^ ^ ^ ^ ^ ^ ^ ^ ^ ^ ^ ^ ^ ^ ^ ^ Y n n Z | | | | | | | | | | | | | | | | | | | | | | | | | | | | | | | | | | | | | | | | | | | | | | | | | [ [ [ [ [ [ [ [ [ [ [ [ [ [ [ [ [ [ [ [ [ [ [ [ [ [ [ [ [ [ [ [ [ [ [ [ [ [ [ [ [ [ [ [ [ [ [ [ [ [ [ [ [ [ [ [ [ [ [ [ [ [ [ [ [ [ [ [ [ [ [ [ [ [ [ [ [ [ [ [ [ [ [ [ [ [ [ [ [ [ [ [ [ [ [ [ [ [ [ [ [ [ [ [ [ [ [ [ [ [ [ [ [ [ [ [ [ [ [ [ [ [ [ [ [ [ [ [ [ [ [ [ [ [ [ [ [ [ [ [ [ [ [ [ [ [ [ [ [ [ [ [ [ [ [ [ [ [ [ [ [ [ [ [ [ [ [ [ [ [ [ [ [ [ [ [ [ [ [ [ [ [ [ [ [ [ } } } } } } | | | | | | | | | | | | | | | | | | | | | ",
"<X<X<X<X=X&X&X&X&X&X&X&X&X&X&X&X&X&X&X&X&X&X&X&X&X&X&X&X&X&X&X&X&X>X<X<X<X<X<X<X<X<X<X<X<X<X<X<X<X<X<X<X,X=X&X&X&X&X&X&X&X&X&X&X&X&X&X&X&X&X&X&X&X&X&X&X&X&X&X&X&X&X&X&X&X&X&X&X&X&X&X&X&X&X&X&X&X&X&X&X&X&X&X&X&X&X&X&X&X&X&X&X&X&X&X&X&X&X&X&X&X&X&X&X&X&X&X&X&X&X&X&X&X&X&X&X&X&X&X&X&X&X&X&X&X&X&X&X&X&X&XY.Y.i.i.6.6.:.:.y 8 8 8 * O O O O O O + + # # % : : : > < < 1 1 9 9 9 9 9 9 9 9 9 9 9 # O = Y Y Y Y Y [ [ [ [ [ [ [ [ [ [ [ [ [ [ [ [ [ [ [ [ [ [ [ [ [ [ [ [ [ [ [ P n n F.F.l a a k V.V.V.H.H.H.H.N.a a l |.|.|._.H.H.H.H.H.H.H.H.H.H.F.H.H.H.H.a a J #.#.#.5 o.0X0X0X0X0X0X0X0X0X0X0XcXbXbXbXbXbXbXbXbXbXbXbXbXbXbXbXbXbXbXbXbXbXbXbXbXbXbXbXbXbXbXbXbXbXbXjX0X0X0X0X0X0X0X0X0X0X0X0XcXbXbXbXbXbXbXbXbXbXbXbXbXbXbXbXbXbXbXcXjX0X0X0X0X0X0X0X0X0X0X0X0X0X0X0X0X0X0X0X0X0X0X0X0X0X0X0X0X0X0X0X0X0X0X0X0X0X0X0X0X0X0X0X0X0X0X0X0X0X0X0X0X0X0X0X0X0X0X0X0X0X0X0X0X0X0X0X0X0X0X0X0X0X0X0X0X0X0X0X0X0X0X0X0X0X0X0X0X0X0X0X0X0X0X0X0X0X0X0XT.a a ).|._.H.H.H.H.H.H.H.V.a a a a a F.F.F.F.F.F. .n n L L L L L U ^ ^ ^ ^ ^ ^ ^ ^ ^ ^ ^ ^ ^ ^ ^ ^ ^ ^ ^ ^ ^ Y n n Z | | | | | | | | | | | | | | | | | | | | | | | | | | | | | | | | | | | | | | | | | | | | | | | | | [ [ [ [ [ [ [ [ [ [ [ [ [ [ [ [ [ [ [ [ [ [ [ [ [ [ [ [ [ [ [ [ [ [ [ [ [ [ [ [ [ [ [ [ [ [ [ [ [ [ [ [ [ [ [ [ [ [ [ [ [ [ [ [ [ [ [ [ [ [ [ [ [ [ [ [ [ [ [ [ [ [ [ [ [ [ [ [ [ [ [ [ [ [ [ [ [ [ [ [ [ [ [ [ [ [ [ [ [ [ [ [ [ [ [ [ [ [ [ [ [ [ [ [ [ [ [ [ [ [ [ [ [ [ [ [ [ [ [ [ [ [ [ [ [ [ [ [ [ [ [ [ [ [ [ [ [ [ [ [ [ [ [ [ [ [ [ [ [ [ [ [ [ [ [ [ [ [ [ [ } } } } } } | | | | | | | | | | | | | | | | | | | | | | | | | | | ",
"<X<X<X>X&X&X&X&X&X&X&X&X&X&X&X&X&X&X&X&X&X&X&X&X&X&X&X&X&X&X&X&X=X,X<X<X<X<X<X<X<X<X<X<X<X<X<X<X<X<X<X<X>X&X&X&X&X&X&X&X&X&X&X&X&X&X&X&X&X&X&X&X&X&X&X&X&X&X&X&X&X&X&X&X&X&X&X&X&X&X&X&X&X&X&X&X&X&X&X&X&X&X&X&X&X&X&X&X&X&X&X&X&X&X&X&X&X&X&X&X&X&X&X&X&X&X&X&X&X&X&X&X&X&X&X&X&X&X&X&X&X&X&X&XY.Y.i.i.6.:.:.y y 8 8 * * O O O O O O + # # # % : : > > < < 1 9 9 9 9 9 9 9 9 9 9 9 9 9 9 9 9 9 9 9 # O = Y Y Y Y _ [ [ [ [ [ [ [ [ [ [ [ [ [ [ [ [ [ [ [ [ [ [ [ [ [ [ [ [ [ [ [ P n n F.F.l a a k V.V.V.H.H.H.H.l a a N.|.|.|.).H.H.H.H.H.H.H.H.H.H.F.H.H.H.F.a a J #.#.#.5 S.0X0X0X0X0X0X0X0X0X0XjXbXbXbXbXbXbXbXbXbXbXbXbXbXbXbXbXbXbXbXbXbXbXbXbXbXbXbXbXbXbXbXbXbXbXjX0X0X0X0X0X0X0X0X0X0X0X0XjXbXbXbXbXbXbXbXbXbXbXbXbXbXbXbXbXbXbXbXjX0X0X0X0X0X0X0X0X0X0X0X0X0X0X0X0X0X0X0X0X0X0X0X0X0X0X0X0X0X0X0X0X0X0X0X0X0X0X0X0X0X0X0X0X0X0X0X0X0X0X0X0X0X0X0X0X0X0X0X0X0X0X0X0X0X0X0X0X0X0X0X0X0X0X0X0X0X0X0X0X0X0X0X0X0X0X0X0X0X0X0X0X0X0X0X0X0X0X0X0XT.a a ).|.).H.H.H.H.H.H.H.N.a a a a a F.F.F.F.F.F. .n n L L L L L U ^ ^ ^ ^ ^ ^ ^ ^ ^ ^ ^ ^ ^ ^ ^ ^ ^ ^ ^ ^ ^ Y n n Z | | | | | | | | | | | | | | | | | | | | | | | | | | | | | | | | | | | | | | | | | | | | | | | | | [ [ [ [ [ [ [ [ [ [ [ [ [ [ [ [ [ [ [ [ [ [ [ [ [ [ [ [ [ [ [ [ [ [ [ [ [ [ [ [ [ [ [ [ [ [ [ [ [ [ [ [ [ [ [ [ [ [ [ [ [ [ [ [ [ [ [ [ [ [ [ [ [ [ [ [ [ [ [ [ [ [ [ [ [ [ [ [ [ [ [ [ [ [ [ [ [ [ [ [ [ [ [ [ [ [ [ [ [ [ [ [ [ [ [ [ [ [ [ [ [ [ [ [ [ [ [ [ [ [ [ [ [ [ [ [ [ [ [ [ [ [ [ [ [ [ [ [ [ [ [ [ [ [ [ [ [ [ [ [ [ [ [ [ [ [ [ [ [ [ [ [ [ [ } } } } } } | | | | | | | | | | | | | | | | | | | | | | | | | | | | | | | | | ",
"<X<X,X&X&X&X&X&X&X&X&X&X&X&X&X&X&X&X&X&X&X&X&X&X&X&X&X&X&X&X&X=X,X<X<X<X<X<X<X<X<X<X<X<X<X<X<X<X<X<X<X>X&X&X&X&X&X&X&X&X&X&X&X&X&X&X&X&X&X&X&X&X&X&X&X&X&X&X&X&X&X&X&X&X&X&X&X&X&X&X&X&X&X&X&X&X&X&X&X&X&X&X&X&X&X&X&X&X&X&X&X&X&X&X&X&X&X&X&X&X&X&X&X&X&X&X&X&X&X&X&X&X&X&X&X&X&XY.i.i.i.6.:.:.y y 8 8 * O O O O O O O + # # # % : : > < < < 1 9 9 9 9 9 9 9 9 9 9 9 9 9 9 9 9 9 9 9 9 9 9 9 9 9 1 # O = Y Y Y Y ` [ [ [ [ [ [ [ [ [ [ [ [ [ [ [ [ [ [ [ [ [ [ [ [ [ [ [ [ [ [ [ P n n F.F.l a a k V.V.V.H.H.H.H.j a a V.|.|.|.).H.H.H.H.H.H.H.H.H.H.F.H.H.H.V.a a J #.#.#.5 e.,X,X,X2X2X2X4X4X4X0XcXcXbXbXbXbXbXbXbXbXbXbXbXbXbXbXbXbXbXbXbXbXbXbXbXbXbXbXbXbXbXbXbXbXcX0X0X0X0X0X0X0X0X0X0X0X0XjXbXbXbXbXbXbXbXbXbXbXbXbXbXbXbXbXbXbXbXcX0X0X0X0X0X0X0X0X0X0X0X0X0X0X0X0X0X0X0X0X0X0X0X0X0X0X0X0X0X0X0X0X0X0X0X0X0X0X0X0X0X0X0X0X0X0X0X0X0X0X0X0X0X0X0X0X0X0X0X0X0X0X0X0X0X0X0X0X0X0X0X0X0X0X0X0X0X0X0X0X0X0X0X0X0X0X0X0X0X0X0X0X0X0X0X0X0X0X0X0X0XT.a a ).|.).H.H.H.H.H.H.H.N.a a a a a F.F.F.F.F.F. .n n L L L L L U ^ ^ ^ ^ ^ ^ ^ ^ ^ ^ ^ ^ ^ ^ ^ ^ ^ ^ ^ ^ ^ Y n n Z | | | | | | | | | | | | | | | | | | | | | | | | | | | | | | | | | | | | | | | | | | | | | | | | | [ [ [ [ [ [ [ [ [ [ [ [ [ [ [ [ [ [ [ [ [ [ [ [ [ [ [ [ [ [ [ [ [ [ [ [ [ [ [ [ [ [ [ [ [ [ [ [ [ [ [ [ [ [ [ [ [ [ [ [ [ [ [ [ [ [ [ [ [ [ [ [ [ [ [ [ [ [ [ [ [ [ [ [ [ [ [ [ [ [ [ [ [ [ [ [ [ [ [ [ [ [ [ [ [ [ [ [ [ [ [ [ [ [ [ [ [ [ [ [ [ [ [ [ [ [ [ [ [ [ [ [ [ [ [ [ [ [ [ [ [ [ [ [ [ [ [ [ [ [ [ [ [ [ [ [ [ [ [ [ [ [ [ [ [ [ [ [ } } } } } } | | | | | | | | | | | | | | | | | | | | | | | | | | | | | | | | | | | | | | | ",
"<X,X=X&X&X&X&X&X&X&X&X&X&X&X&X&X&X&X&X&X&X&X&X&X&X&X&X&X&X&X&X,X<X<X<X<X<X<X<X<X<X<X<X<X<X<X<X<X<X<X,X&X&X&X&X&X&X&X&X&X&X&X&X&X&X&X&X&X&X&X&X&X&X&X&X&X&X&X&X&X&X&X&X&X&X&X&X&X&X&X&X&X&X&X&X&X&X&X&X&X&X&X&X&X&X&X&X&X&X&X&X&X&X&X&X&X&X&X&X&X&X&X&X&X&X&X&X&X&X&XY.i.i.i.6.:.:.y 8 8 8 * O O O O O O O + # # # % : : > < < < 1 9 9 9 9 9 9 9 9 9 9 9 9 9 9 9 9 9 9 9 9 9 9 9 9 9 9 1 < < > : : % + O = Y Y Y _ ` [ [ [ [ [ [ [ [ [ [ [ [ [ [ [ [ [ [ [ [ [ [ [ [ [ [ [ [ [ [ [ P n n F.F.l a a k V.V.V.H.H.H.H.j a a V.|.|.|.).H.H.H.H.H.H.H.H.H.H.F.H.H.H.V.a a +.#.#.+.5 0.&X&X&X=X=X=X=X=X=X2X9X9X0X0X0XjXjXjXcXcXcXcXcXcXbXbXbXbXbXbXbXbXbXbXbXbXbXbXbXbXbXbXbXcXjX0X0X0X0X0X0X0X0X0X0X0XjXcXbXbXbXbXbXbXbXbXbXbXbXbXbXbXbXbXbXbXcXjX0X0X0X0X0X0X0X0X0X0X0X0X0X0X0X0X0X0X0X0X0X0X0X0X0X0X0X0X0X0X0X0X0X0X0X0X0X0X0X0X0X0X0X0X0X0X0X0X0X0X0X0X0X0X0X0X0X0X0X0X0X0X0X0X0X0X0X0X0X0X0X0X0X0X0X0X0X0X0X0X0X0X0X0X0X0X0X0X0X0X0X0X0X0X0X0X0X0X0X0X0XT.a a ).|.).H.H.H.H.H.H.H.N.a a a a a F.F.F.F.F.F. .n n L L L L L U ^ ^ ^ ^ ^ ^ ^ ^ ^ ^ ^ ^ ^ ^ ^ ^ ^ ^ ^ ^ ^ Y n n Z | | | | | | | | | | | | | | | | | | | | | | | | | | | | | | | | | | | | | | | | | | | | | | | | | [ [ [ [ [ [ [ [ [ [ [ [ [ [ [ [ [ [ [ [ [ [ [ [ [ [ [ [ [ [ [ [ [ [ [ [ [ [ [ [ [ [ [ [ [ [ [ [ [ [ [ [ [ [ [ [ [ [ [ [ [ [ [ [ [ [ [ [ [ [ [ [ [ [ [ [ [ [ [ [ [ [ [ [ [ [ [ [ [ [ [ [ [ [ [ [ [ [ [ [ [ [ [ [ [ [ [ [ [ [ [ [ [ [ [ [ [ [ [ [ [ [ [ [ [ [ [ [ [ [ [ [ [ [ [ [ [ [ [ [ [ [ [ [ [ [ [ [ [ [ [ [ [ [ [ [ [ [ [ [ [ [ } } } } } } | | | | | | | | | | | | | | | | | | | | | | | | | | | | | | | | | | | | | | | | | | | | | ",
"<X>X&X&X&X&X&X&X&X&X&X&X&X&X&X&X&X&X&X&X&X&X&X&X&X&X&X&X&X&X>X<X<X<X<X<X<X<X<X<X<X<X<X<X<X<X<X<X<X,X=X&X&X&X&X&X&X&X&X&X&X&X&X&X&X&X&X&X&X&X&X&X&X&X&X&X&X&X&X&X&X&X&X&X&X&X&X&X&X&X&X&X&X&X&X&X&X&X&X&X&X&X&X&X&X&X&X&X&X&X&X&X&X&X&X&X&X&X&X&X&X&X&XY.i.i.i.6.:.:.y 8 8 8 * O O O O O O O + # # # % : : > < < < 1 9 9 9 9 9 9 9 9 9 9 9 9 9 9 9 9 9 9 9 9 9 9 9 9 9 9 1 < < < > : : % # # + O O O O O ; Y Y _ ` [ [ [ [ [ [ [ [ [ [ [ [ [ [ [ [ [ [ [ [ [ [ [ [ [ [ [ [ [ [ [ [ P n n F.F.l a a k V.V.F.H.H.H.H.j a a V.|.|.|.).H.H.H.H.H.H.H.H.H.H.F.H.H.H.V.a a #.#.#.H 5 r.&X&X&X&X&X&X&X&X=X,X<X<X<X<X<X2X2X2X4X4X9X9X9X9X0X0XjXjXjXjXcXcXcXcXcXbXbXbXbXbXbXbXbXjX0X0X0X0X0X0X0X0X0X0X0X0XcXbXbXbXbXbXbXbXbXbXbXbXbXbXbXbXbXbXbXbXjX0X0X0X0X0X0X0X0X0X0X0X0X0X0X0X0X0X0X0X0X0X0X0X0X0X0X0X0X0X0X0X0X0X0X0X0X0X0X0X0X0X0X0X0X0X0X0X0X0X0X0X0X0X0X0X0X0X0X0X0X0X0X0X0X0X0X0X0X0X0X0X0X0X0X0X0X0X0X0X0X0X0X0X0X0X0X0X0X0X0X0X0X0X0X0X0X0X0X0X0X0XjXT.a a _.|.).H.H.H.H.H.H.H.N.a a a a a F.F.F.F.F.F. .n n L L L L L U ^ ^ ^ ^ ^ ^ ^ ^ ^ ^ ^ ^ ^ ^ ^ ^ ^ ^ ^ ^ ^ Y n n Z | | | | | | | | | | | | | | | | | | | | | | | | | | | | | | | | | | | | | | | | | | | | | | | | | [ [ [ [ [ [ [ [ [ [ [ [ [ [ [ [ [ [ [ [ [ [ [ [ [ [ [ [ [ [ [ [ [ [ [ [ [ [ [ [ [ [ [ [ [ [ [ [ [ [ [ [ [ [ [ [ [ [ [ [ [ [ [ [ [ [ [ [ [ [ [ [ [ [ [ [ [ [ [ [ [ [ [ [ [ [ [ [ [ [ [ [ [ [ [ [ [ [ [ [ [ [ [ [ [ [ [ [ [ [ [ [ [ [ [ [ [ [ [ [ [ [ [ [ [ [ [ [ [ [ [ [ [ [ [ [ [ [ [ [ [ [ [ [ [ [ [ [ [ [ [ [ [ [ [ } } } } } } } | | | | | | | | | | | | | | | | | | | | | | | | | | | | | | | | | | | | | | | | | | | | | | | | | | | ",
",X&X&X&X&X&X&X&X&X&X&X&X&X&X&X&X&X&X&X&X&X&X&X&X&X&X&X&X&X=X,X<X<X<X<X<X<X<X<X<X<X<X<X<X<X<X<X<X<X>X&X&X&X&X&X&X&X&X&X&X&X&X&X&X&X&X&X&X&X&X&X&X&X&X&X&X&X&X&X&X&X&X&X&X&X&X&X&X&X&X&X&X&X&X&X&X&X&X&X&X&X&X&X&X&X&X&X&X&X&X&X&X&X&X&X&XY.i.i.6.6.:.:.y 8 8 8 & O O O O O O O + # # % % : : > < < < 1 9 9 9 9 9 9 9 9 9 9 9 9 9 9 9 9 9 9 9 9 9 9 9 9 9 9 9 1 < < > : : % # # # + O O O O O O @ = = - ; U Y ` ` [ [ [ [ [ [ [ [ [ [ [ [ [ [ [ [ [ [ [ [ [ [ [ [ [ [ [ [ [ [ [ [ [ P n n F.F.l a a k V.V.F.H.H.H.H.j a a V.|.|.|.).H.H.H.H.H.H.H.H.H.H.F.H.H.H.V.a a #.#.#.b ; U.&X&X&X&X&X&X&X&X,X<X<X<X<X<X<X<X<X<X<X<X<X<X<X<X<X<X2X2X2X2X4X4X9X9X9X0X0X0XjXjXjXcX0X4X9X9X9X0X0X0X0X0X0X0X0XjXbXbXbXbXbXbXbXbXbXbXbXbXbXbXbXbXbXbXbXcX0X0X0X0X0X0X0X0X0X0X0X0X0X0X0X0X0X0X0X0X0X0X0X0X0X0X0X0X0X0X0X0X0X0X0X0X0X0X0X0X0X0X0X0X0X0X0X0X0X0X0X0X0X0X0X0X0X0X0X0X0X0X0X0X0X0X0X0X0X0X0X0X0X0X0X0X0X0X0X0X0X0X0X0X0X0X0X0X0X0X0X0X0X0X0X0X0X0X0X0X0X0X0XT.a a |.|.).H.H.H.H.H.H.H.N.a a a a a F.F.F.F.F.F. .n n L L L L L U ^ ^ ^ ^ ^ ^ ^ ^ ^ ^ ^ ^ ^ ^ ^ ^ ^ ^ ^ ^ ^ Y n n Z | | | | | | | | | | | | | | | | | | | | | | | | | | | | | | | | | | | | | | | | | | | | | | | | | [ [ [ [ [ [ [ [ [ [ [ [ [ [ [ [ [ [ [ [ [ [ [ [ [ [ [ [ [ [ [ [ [ [ [ [ [ [ [ [ [ [ [ [ [ [ [ [ [ [ [ [ [ [ [ [ [ [ [ [ [ [ [ [ [ [ [ [ [ [ [ [ [ [ [ [ [ [ [ [ [ [ [ [ [ [ [ [ [ [ [ [ [ [ [ [ [ [ [ [ [ [ [ [ [ [ [ [ [ [ [ [ [ [ [ [ [ [ [ [ [ [ [ [ [ [ [ [ [ [ [ [ [ [ [ [ [ [ [ [ [ [ [ [ [ [ [ [ [ [ [ } } } } } | | | | | | | | | | | | | | | | | | | | | | | | | | | | | | | | | | | | | | | | | | | | | | | | | | | | | | | | | ",
"=X&X&X&X&X&X&X&X&X&X&X&X&X&X&X&X&X&X&X&X&X&X&X&X&X&X&X&X&X,X<X<X<X<X<X<X<X<X<X<X<X<X<X<X<X<X<X<X,X&X&X&X&X&X&X&X&X&X&X&X&X&X&X&X&X&X&X&X&X&X&X&X&X&X&X&X&X&X&X&X&X&X&X&X&X&X&X&X&X&X&X&X&X&X&X&X&X&X&X&X&X&X&X&X&X&X&X&XY.Y.i.i.6.6.:.:.y 8 8 & * O O O O O O + + # # & : : : > < < 1 1 9 9 9 9 9 9 9 9 9 9 9 9 9 9 9 9 9 9 9 9 9 9 9 9 9 9 9 1 < < < > : : % # # + O O O O O O @ @ = = - ; ; A S S U Y ` ` ` [ [ [ [ [ [ [ [ [ [ [ [ [ [ [ [ [ [ [ [ [ [ [ [ [ [ [ [ [ [ [ [ [ [ P n n F.F.l a a k V.V.F.H.H.H.H.j a a V.|.|.|.).H.H.H.H.H.H.H.H.H.H.F.H.H.H.V.a a #.#.#.b 5 U.&X&X&X&X&X&X&X>X<X<X<X<X<X<X<X<X<X<X<X<X<X<X<X<X<X<X<X<X<X<X<X<X<X<X<X<X<X<X2X2X2X2X>X=X>X>X>X,X,X,X2X2X2X4X9XcXcXcXcXbXbXbXbXbXbXbXbXbXbXbXbXbXbXbXcXjX0X0X0X0X0X0X0X0X0X0X0X0X0X0X0X0X0X0X0X0X0X0X0X0X0X0X0X0X0X0X0X0X0X0X0X0X0X0X0X0X0X0X0X0X0X0X0X0X0X0X0X0X0X0X0X0X0X0X0X0X0X0X0X0X0X0X0X0X0X0X0X0X0X0X0X0X0X0X0X0X0X0X0X0X0X0X0X0X0X0X0X0X0X0X0X0X0X0X0X0X0X0X0XT.a a |.|.).H.H.H.H.H.H.H.N.a a a a d F.F.F.F.F.F. .n n L L L L L U ^ ^ ^ ^ ^ ^ ^ ^ ^ ^ ^ ^ ^ ^ ^ ^ ^ ^ ^ ^ ^ Y n n Z | | | | | | | | | | | | | | | | | | | | | | | | | | | | | | | | | | | | | | | | | | | | | | | | | [ [ [ [ [ [ [ [ [ [ [ [ [ [ [ [ [ [ [ [ [ [ [ [ [ [ [ [ [ [ [ [ [ [ [ [ [ [ [ [ [ [ [ [ [ [ [ [ [ [ [ [ [ [ [ [ [ [ [ [ [ [ [ [ [ [ [ [ [ [ [ [ [ [ [ [ [ [ [ [ [ [ [ [ [ [ [ [ [ [ [ [ [ [ [ [ [ [ [ [ [ [ [ [ [ [ [ [ [ [ [ [ [ [ [ [ [ [ [ [ [ [ [ [ [ [ [ [ [ [ [ [ [ [ [ [ [ [ [ [ [ [ [ [ [ [ [ [ [ [ } | | | | | | | | | | | | | | | | | | | | | | | | | | | | | | | | | | | | | | | | | | | | | | | | | | | | | | | | | | | | | | ",
"&X&X&X&X&X&X&X&X&X&X&X&X&X&X&X&X&X&X&X&X&X&X&X&X&X&X&X&X>X<X<X<X<X<X<X<X<X<X<X<X<X<X<X<X<X<X<X,X=X&X&X&X&X&X&X&X&X&X&X&X&X&X&X&X&X&X&X&X&X&X&X&X&X&X&X&X&X&X&X&X&X&X&X&X&X&X&X&X&X&X&X&X&X&X&X&X&X&X&X&X&XY.Y.i.i.6.:.:.y y 8 8 & & O O O O O O + # # # & : : > > < < 1 9 9 9 9 9 9 9 9 9 9 9 9 9 9 9 9 9 9 9 9 9 9 9 9 9 9 9 9 9 1 < < > : : % # # # + O O O O O O @ = = - - ; A A S S U Y Y Y Y _ ` ` ` [ [ [ [ [ [ [ [ [ [ [ [ [ [ [ [ [ [ [ [ [ [ [ [ [ [ [ [ [ [ [ [ [ [ [ [ P n n F.F.l a a k V.V.F.H.H.H.H.j a a V.|.|.|.).H.H.H.H.H.H.H.H.H.H.F.H.H.H.V.a a #.#.#.b ; U.&X&X&X&X&X&X>X<X<X<X<X<X<X<X<X<X<X<X<X<X<X<X<X<X<X<X<X<X<X<X<X<X<X<X<X<X<X<X<X<X,X=X&X&X&X&X&X&X&X&X=X=X=X=X<X9X9X9X9X0X0XjXjXjXjXcXcXcXcXcXbXbXbXbXjX0X0X0X0X0X0X0X0X0X0X0X0X0X0X0X0X0X0X0X0X0X0X0X0X0X0X0X0X0X0X0X0X0X0X0X0X0X0X0X0X0X0X0X0X0X0X0X0X0X0X0X0X0X0X0X0X0X0X0X0X0X0X0X0X0X0X0X0X0X0X0X0X0X0X0X0X0X0X0X0X0X0X0X0X0X0X0X0X0X0X0X0X0X0X0X0X0X0X0X0X0X0X0X0XT.a a |.|.).H.H.H.H.H.H.H.N.a a a a j F.F.F.F.F.F. .n n L L L L L U ^ ^ ^ ^ ^ ^ ^ ^ ^ ^ ^ ^ ^ ^ ^ ^ ^ ^ ^ ^ ^ Y n n Z | | | | | | | | | | | | | | | | | | | | | | | | | | | | | | | | | | | | | | | | | | | | | | | | | [ [ [ [ [ [ [ [ [ [ [ [ [ [ [ [ [ [ [ [ [ [ [ [ [ [ [ [ [ [ [ [ [ [ [ [ [ [ [ [ [ [ [ [ [ [ [ [ [ [ [ [ [ [ [ [ [ [ [ [ [ [ [ [ [ [ [ [ [ [ [ [ [ [ [ [ [ [ [ [ [ [ [ [ [ [ [ [ [ [ [ [ [ [ [ [ [ [ [ [ [ [ [ [ [ [ [ [ [ [ [ [ [ [ [ [ [ [ [ [ [ [ [ [ [ [ [ [ [ [ [ [ [ [ [ [ [ [ [ [ [ [ [ [ [ [ [ [ [ [ } | | | | | | | | | | | | | | | | | | | | | | | | | | | | | | | | | | | | | | | | | | | | | | | | | | | | | | | | | | | | | | ",
"&X&X&X&X&X&X&X&X&X&X&X&X&X&X&X&X&X&X&X&X&X&X&X&X&X&X&X=X<X<X<X<X<X<X<X<X<X<X<X<X<X<X<X<X<X<X<X=X&X&X&X&X&X&X&X&X&X&X&X&X&X&X&X&X&X&X&X&X&X&X&X&X&X&X&X&X&X&X&X&X&X&X&X&X&X&X&X&X&X&X&X&X&X&XY.i.i.i.6.:.:.y y 8 8 * O O O O O O O + # # # % : : > < < < 1 9 9 9 9 9 9 9 9 9 9 9 9 9 9 9 9 9 9 9 9 9 9 9 9 9 9 9 9 9 1 1 < < > : : % # # + O O O O O O @ @ = = - ; ; A S S U U Y Y Y Y Y Y _ ` ` ` ` ` [ [ [ [ [ [ [ [ [ [ [ [ [ [ [ [ [ [ [ [ [ [ [ [ [ [ [ [ [ [ [ [ [ [ [ [ [ [ P n n F.F.l a a k V.V.F.H.H.H.H.j a a V.|.|.|.).H.H.H.H.H.H.H.H.H.H.F.H.H.H.V.a a #.#.#.G 5 U.&X&X&X&X&X=X,X<X<X<X<X<X<X<X<X<X<X<X<X<X<X<X<X<X<X<X<X<X<X<X<X<X<X<X<X<X<X<X<X<X=X&X&X&X&X&X&X&X&X&X&X&X&X=X,X<X<X<X<X<X<X2X2X2X2X4X4X9X9X9X0X0X0X4X2X2X2X4X4X9X9X9X0X0X0X0X0X0X0X0X0X0X0X0X0X0X0X0X0X0X0X0X0X0X0X0X0X0X0X0X0X0X0X0X0X0X0X0X0X0X0X0X0X0X0X0X0X0X0X0X0X0X0X0X0X0X0X0X0X0X0X0X0X0X0X0X0X0X0X0X0X0X0X0X0X0X0X0X0X0X0X0X0X0X0X0X0X0X0X0X0X0X0X0X0X0X0X0X0XZ.a a |.|.).H.H.H.H.H.H.H.N.a a a a j F.F.F.F.F.F. .n n L L L L L U ^ ^ ^ ^ ^ ^ ^ ^ ^ ^ ^ ^ ^ ^ ^ ^ ^ ^ ^ ^ ^ Y n n Z | | | | | | | | | | | | | | | | | | | | | | | | | | | | | | | | | | | | | | | | | | | | | | | | | [ [ [ [ [ [ [ [ [ [ [ [ [ [ [ [ [ [ [ [ [ [ [ [ [ [ [ [ [ [ [ [ [ [ [ [ [ [ [ [ [ [ [ [ [ [ [ [ [ [ [ [ [ [ [ [ [ [ [ [ [ [ [ [ [ [ [ [ [ [ [ [ [ [ [ [ [ [ [ [ [ [ [ [ [ [ [ [ [ [ [ [ [ [ [ [ [ [ [ [ [ [ [ [ [ [ [ [ [ [ [ [ [ [ [ [ [ [ [ [ [ [ [ [ [ [ [ [ [ [ [ [ [ [ [ [ [ [ [ [ [ [ [ [ [ [ [ [ [ [ } | | | | | | | | | | | | | | | | | | | | | | | | | | | | | | | | | | | | | | | | | | | | | | | | | | | | | | | | | | | | | | ",
"&X&X&X&X&X&X&X&X&X&X&X&X&X&X&X&X&X&X&X&X&X&X&X&X&X&X=X,X<X<X<X<X<X<X<X<X<X<X<X<X<X<X<X<X<X<X>X&X&X&X&X&X&X&X&X&X&X&X&X&X&X&X&X&X&X&X&X&X&X&X&X&X&X&X&X&X&X&X&X&X&X&X&X&X&X&X&XY.L.L.L.6.:.:.y 8 8 8 * O O O O O O O + # # # % : : > < < < 1 9 9 9 9 9 9 9 9 9 9 9 9 9 9 9 9 9 9 9 9 9 9 9 9 9 9 9 9 9 9 1 < < > > : % % # # + O O O O O O @ = = - - ; A A S S I Y Y Y Y Y Y Y Y Y Y ` ` ` ` ` ` [ [ [ [ [ [ [ [ [ [ [ [ [ [ [ [ [ [ [ [ [ [ [ [ [ [ [ [ [ [ [ [ [ [ [ [ [ [ [ [ [ P n n F.F.l a a k V.V.F.H.H.H.H.k a a V.|.|.|.).H.H.H.H.H.H.H.H.H.H.H.F.H.H.V.a a #.#.#.F 5 U.&X&X&X&X&X,X<X<X<X<X<X<X<X<X<X<X<X<X<X<X<X<X<X<X<X<X<X<X<X<X<X<X<X<X<X<X<X<X<X>X&X&X&X&X&X&X&X&X&X&X&X&X&X,X<X<X<X<X<X<X<X<X<X<X<X<X<X<X<X<X<X<X>X=X=X=X=X=X=X>X>X>X,X,X,X2X2X2X4X4X9X9X9X9X0X0X0X0X0X0X0X0X0X0X0X0X0X0X0X0X0X0X0X0X0X0X0X0X0X0X0X0X0X0X0X0X0X0X0X0X0X0X0X0X0X0X0X0X0X0X0X0X0X0X0X0X0X0X0X0X0X0X0X0X0X0X0X0X0X0X0X0X0X0X0X0X0X0X0X0X0X0X0X0X0X0X0X0X0X5.a a |.|.).H.H.H.H.H.H.H.N.a a a a j F.F.F.F.F.F. .n n L L L L L U ^ ^ ^ ^ ^ ^ ^ ^ ^ ^ ^ ^ ^ ^ ^ ^ ^ ^ ^ ^ ^ Y n n Z | | | | | | | | | | | | | | | | | | | | | | | | | | | | | | | | | | | | | | | | | | | | | | | | | [ [ [ [ [ [ [ [ [ [ [ [ [ [ [ [ [ [ [ [ [ [ [ [ [ [ [ [ [ [ [ [ [ [ [ [ [ [ [ [ [ [ [ [ [ [ [ [ [ [ [ [ [ [ [ [ [ [ [ [ [ [ [ [ [ [ [ [ [ [ [ [ [ [ [ [ [ [ [ [ [ [ [ [ [ [ [ [ [ [ [ [ [ [ ' ` ` ` ` ` ` [ [ [ [ [ [ [ [ [ [ [ [ [ [ [ [ [ [ [ [ [ [ [ [ [ [ [ [ [ [ [ [ [ [ [ [ [ [ [ [ [ [ [ [ [ [ [ [ [ } | | | | | | | | | | | | | | | | | | | | | | | | | | | | | | | | | | | | | | | | | | | | | | | | | | | | | | | | | | | | | | ",
"&X&X&X&X&X&X&X&X&X&X&X&X&X&X&X&X&X&X&X&X&X&X&X&X&X&X,X<X<X<X<X<X<X<X<X<X<X<X<X<X<X<X<X<X<X,X&X&X&X&X&X&X&X&X&X&X&X&X&X&X&X&X&X&X&X&X&X&X&X&X&X&X&X&X&X&X&X&X&X&XY.L.L.L.6.<.<.y 8 8 8 & O O O O O O O + # # # % : : > < < < 1 9 9 9 9 9 9 9 9 9 9 9 9 9 9 9 9 9 9 9 9 9 9 9 9 9 9 9 9 9 9 1 1 < < > : : % # # + + O O O O O O @ = = - ; ; A S S I I Y Y Y Y Y Y Y Y Y Y Y Y ` ` ` ` ` ` [ [ [ [ [ [ [ [ [ [ [ [ [ [ [ [ [ [ [ [ [ [ [ [ [ [ [ [ [ [ [ [ [ [ [ [ [ [ [ [ [ [ [ [ [ P n n F.F.l a a k V.V.F.H.H.H.H.k a a V.|.|.|.).H.H.H.H.H.H.H.H.H.H.H.F.H.H.N.a a #.#.#.G 5 U.&X&X&X&X>X<X<X<X<X<X<X<X<X<X<X<X<X<X<X<X<X<X<X<X<X<X<X<X<X<X<X<X<X<X<X<X<X<X,X&X&X&X&X&X&X&X&X&X&X&X&X&X>X<X<X<X<X<X<X<X<X<X<X<X<X<X<X<X<X<X<X,X&X&X&X&X&X&X&X&X&X&X&X&X&X=X=X=X=X=X>X>X>X>X,X,X2X2X2X2X4X4X9X9X9X0X0X0X0X0X0X0X0X0X0X0X0X0X0X0X0X0X0X0X0X0X0X0X0X0X0X0X0X0X0X0X0X0X0X0X0X0X0X0X0X0X0X0X0X0X0X0X0X0X0X0X0X0X0X0X0X0X0X0X0X0X0X0X0X0X0X0XjX0X0X0X0X0X0X5.a a |.|.).H.H.H.H.H.H.H.l a a a a j F.F.F.F.F.F. .n n L L L L L U ^ ^ ^ ^ ^ ^ ^ ^ ^ ^ ^ ^ ^ ^ ^ ^ ^ ^ ^ ^ ^ Y n n Z | | | | | | | | | | | | | | | | | | | | | | | | | | | | | | | | | | | | | | | | | | | | | | | | | [ [ [ [ [ [ [ [ [ [ [ [ [ [ [ [ [ [ [ [ [ [ [ [ [ [ [ [ [ [ [ [ [ [ [ [ [ [ [ [ [ [ [ [ [ [ [ [ [ [ [ [ [ [ [ [ [ [ [ [ [ [ [ [ [ [ [ [ [ [ [ [ [ [ [ [ [ [ [ [ [ [ [ [ [ [ [ [ [ ` ` ` ` ` ` ` ` ` ` _ ` [ [ [ [ [ [ [ [ [ [ [ [ [ [ [ [ [ [ [ [ [ [ [ [ [ [ [ [ [ [ [ [ [ [ [ [ [ [ [ [ [ [ [ [ [ [ [ [ [ } | | | | | | | | | | | | | | | | | | | | | | | | | | | | | | | | | | | | | | | | | | | | | | | | | | | | | | | | | | | | | | ",
"&X&X&X&X&X&X&X&X&X&X&X&X&X&X&X&X&X&X&X&X&X&X&X&X&X>X<X<X<X<X<X<X<X<X<X<X<X<X<X<X<X<X<X<X,X=X&X&X&X&X&X&X&X&X&X&X&X&X&X&X&X&X&X&X&X&X&X&X&X&X&X&XY.Y.L.P.6.6.:.:.y 8 8 8 & O O O O O O + + # # % % : : > < < < 1 9 9 9 9 9 9 9 9 9 9 9 9 9 9 9 9 9 9 9 9 9 9 9 9 9 9 9 9 9 9 9 1 < < > > : % & # # + O O O O O O @ = = = - ; ; A S S I Y Y Y Y Y Y Y Y Y Y Y Y Y Y Y ` ` ` ` ` ` [ [ [ [ [ [ [ [ [ [ [ [ [ [ [ [ [ [ [ [ [ [ [ [ [ [ [ [ [ [ [ [ [ [ [ [ [ [ [ [ [ [ [ [ [ [ [ [ [ P n n F.F.l a a k V.V.F.H.H.H.H.k a a V.|.|.|.).H.H.H.H.H.H.H.H.H.H.H.V.H.H.N.a a #.#.#.H 5 U.&X&X&X=X,X<X<X<X<X<X<X<X<X<X<X<X<X<X<X<X<X<X<X<X<X<X<X<X<X<X<X<X<X<X<X<X<X,X=X&X&X&X&X&X&X&X&X&X&X&X&X=X,X<X<X<X<X<X<X<X<X<X<X<X<X<X<X<X<X<X,X=X&X&X&X&X&X&X&X&X&X&X&X&X&X&X&X&X&X&X&X&X&X&X&X&X=X=X=X=X=X=X,X,X,X<X<X<X2X2X2X2X4X4X9X9X9X0X0X0X0X0X0X0X0X0X0X0X0X0X0X0X0X0X0X0X0X0X0X0X0X0X0X0X0X0X0X0X0X0X0X0X0X0X0X0X0X0X0X0X0X0X0X0X0X0X0X0X0X0X0X0XjX0X0X0X0X0X0X5.a a |.|.).H.H.H.H.H.H.H.l a a a a j F.F.F.F.F.F. .n n L L L L L U ^ ^ ^ ^ ^ ^ ^ ^ ^ ^ ^ ^ ^ ^ ^ ^ ^ ^ ^ ^ ^ Y n n Z | | | | | | | | | | | | | | | | | | | | | | | | | | | | | | | | | | | | | | | | | | | | | | | | | [ [ [ [ [ [ [ [ [ [ [ [ [ [ [ [ [ [ [ [ [ [ [ [ [ [ [ [ [ [ [ [ [ [ [ [ [ [ [ [ [ [ [ [ [ [ [ [ [ [ [ [ [ [ [ [ [ [ [ [ [ [ [ [ [ [ [ [ [ [ [ [ [ [ [ [ [ [ [ [ [ [ ` ` ` ` ` ` ` ` ` ` _ Y Y Y Y Y Y Y ` [ [ [ [ [ [ [ [ [ [ [ [ [ [ [ [ [ [ [ [ [ [ [ [ [ [ [ [ [ [ [ [ [ [ [ [ [ [ [ [ [ [ [ [ [ [ [ [ [ } | | | | | | | | | | | | | | | | | | | | | | | | | | | | | | | | | | | | | | | | | | | | | | | | | | | | | | | | | | | | | | ",
"&X&X&X&X&X&X&X&X&X&X&X&X&X&X&X&X&X&X&X&X&X&X&X&X=X,X<X<X<X<X<X<X<X<X<X<X<X<X<X<X<X<X<X<X>X&X&X&X&X&X&X&X&X&X&X&X&X&X&X&X&X&X&X&X&XY.Y.L.L.6.:.:.y y 8 8 * * O O O O O O + + # # % : : > > < < 1 1 9 9 9 9 9 9 9 9 9 9 9 9 9 9 9 9 9 9 9 9 9 9 9 9 9 9 9 9 9 9 9 9 1 < < > : : % # # + + O O O O O O @ = = - ; ; A S S S I Y Y Y Y Y Y Y Y Y Y Y Y Y Y Y Y Y ` ` ` ` ` ` ` [ [ [ [ [ [ [ [ [ [ [ [ [ [ [ [ [ [ [ [ [ [ [ [ [ [ [ [ [ [ [ [ [ [ [ [ [ [ [ [ [ [ [ [ [ [ [ [ [ [ [ [ P n n F.F.l a a k V.V.F.H.H.H.H.j a a V.|.|.|.).H.H.H.H.H.H.H.H.H.H.H.F.H.H.N.a a #.#.#.H 5 r.&X&X&X,X<X<X<X<X<X<X<X<X<X<X<X<X<X<X<X<X<X<X<X<X<X<X<X<X<X<X<X<X<X<X<X<X<X>X&X&X&X&X&X&X&X&X&X&X&X&X&X,X<X<X<X<X<X<X<X<X<X<X<X<X<X<X<X<X<X<X>X&X&X&X&X&X&X&X&X&X&X&X&X&X&X&X&X&X&X&X&X&X&X&X&X&X&X&X&X&X&X=X=X&X&X&X&X&X=X=X=X=X:X=X,X,X,X<X<X<X2X2X2X4X4X9X9X9X9X0X0X0X0X0X0X0X0X0X0X0X0X0X0X0X0X0X0X0X0X0X0X0X0X0X0X0X0X0X0X0X0X0X0X0X0X0X0X0X0X0X0X0X0X0X0X0X0X0X0X5.a a |.|.).H.H.H.H.H.H.H.j a a a a j F.F.F.F.F.F. .n n L L L L L U ^ ^ ^ ^ ^ ^ ^ ^ ^ ^ ^ ^ ^ ^ ^ ^ ^ ^ ^ ^ ^ Y n n Z | | | | | | | | | | | | | | | | | | | | | | | | | | | | | | | | | | | | | | | | | | | | | | | | | [ [ [ [ [ [ [ [ [ [ [ [ [ [ [ [ [ [ [ [ [ [ [ [ [ [ [ [ [ [ [ [ [ [ [ [ [ [ [ [ [ [ [ [ [ [ [ [ [ [ [ [ [ [ [ [ [ [ [ [ [ [ [ [ [ [ [ [ [ [ [ [ [ [ [ ` ` ` ` ` ` ` ` ` ` ` _ Y Y Y Y Y Y Y Y Y Y Y Y Y ` [ [ [ [ [ [ [ [ [ [ [ [ [ [ [ [ [ [ [ [ [ [ [ [ [ [ [ [ [ [ [ [ [ [ [ [ [ [ [ [ [ [ [ [ [ [ [ [ [ } | | | | | | | | | | | | | | | | | | | | | | | | | | | | | | | | | | | | | | | | | | | | | | | | | | | | | | | | | | | | | | ",
"&X&X&X&X&X&X&X&X&X&X&X&X&X&X&X&X&X&X&X&X&X&X&X&X,X<X<X<X<X<X<X<X<X<X<X<X<X<X<X<X<X<X<X,X&X&X&X&X&X&X&X&X&X&X&X&X&X&XY.i.L.L.r.<.<.y y 8 8 * O O O O O O O + # # # % : : > > < < 1 9 9 9 9 9 9 9 9 9 9 9 9 9 9 9 9 9 9 9 9 9 9 9 9 9 9 9 9 9 9 9 9 9 1 < < < > : : % # # + O O O O O O @ = = = - ; ; A S S I Y Y Y Y Y Y Y Y Y Y Y Y Y Y Y Y Y Y Y _ ` ` ` ` ` ` ` [ [ [ [ [ [ [ [ [ [ [ [ [ [ [ [ [ [ [ [ [ [ [ [ [ [ [ [ [ [ [ [ [ [ [ [ [ [ [ [ [ [ [ [ [ [ [ [ [ [ [ [ [ [ [ [ P n n F.F.l a a k V.V.F.H.H.H.H.j a a V.|.|.|.).H.H.H.H.H.H.H.H.H.H.H.F.H.H.N.a a #.#.#.H 5 0.&X&X>X<X<X<X<X<X<X<X<X<X<X<X<X<X<X<X<X<X<X<X<X<X<X<X<X<X<X<X<X<X<X<X<X<X,X&X&X&X&X&X&X&X&X&X&X&X&X&X>X<X<X<X<X<X<X<X<X<X<X<X<X<X<X<X<X<X<X,X&X&X&X&X&X&X&X&X&X&X&X&X&X&X&X&X&X&X&X=X=X=X=X=X=X=X=X=X=X=X=X-X-X=X=X=X=X=X=X=X=X=X=X=X&X&X&X&X&X&X=X=X=X>X>X,X,X,X,X<X<X<X2X2X2X4X4X9X9X9X9X0X0X0X0X0X0X0X0X0X0X0X0X0X0X0X0X0X0X0X0X0X0X0X0X0X0X0X0X0X0X0X0X0X0X0X0X0X0X5.a a |.|.).H.H.H.H.H.H.H.j a a a a j F.F.F.F.F.F. .n n L L L L L U ^ ^ ^ ^ ^ ^ ^ ^ ^ ^ ^ ^ ^ ^ ^ ^ ^ ^ ^ ^ ^ Y n n Z | | | | | | | | | | | | | | | | | | | | | | | | | | | | | | | | | | | | | | | | | | | | | | | | | [ [ [ [ [ [ [ [ [ [ [ [ [ [ [ [ [ [ [ [ [ [ [ [ [ [ [ [ [ [ [ [ [ [ [ [ [ [ [ [ [ [ [ [ [ [ [ [ [ [ [ [ [ [ [ [ [ [ [ [ [ [ [ [ [ [ [ [ [ ` ` ` ` ` ` ` ` ` ` _ Y Y Y Y Y Y Y Y Y Y Y Y Y Y Y Y Y Y Y Y ` [ [ [ [ [ [ [ [ [ [ [ [ [ [ [ [ [ [ [ [ [ [ [ [ [ [ [ [ [ [ [ [ [ [ [ [ [ [ [ [ [ [ [ [ [ [ [ [ [ } | | | | | | | | | | | | | | | | | | | | | | | | | | | | | | | | | | | | | | | | | | | | | | | | | | | | | | | | | | | | | | ",
"&X&X&X&X&X&X&X&X&X&X&X&X&X&X&X&X&X&X&X&X&X&X&X>X<X<X<X<X<X<X<X<X<X<X<X<X<X<X<X<X<X<X,X=X&X&X&X&X&X&X&XY.L.L.L.r.<.<.y 8 8 8 * O O O O O O O + # # # & : : > < < < 1 9 9 9 9 9 9 9 9 9 9 9 9 9 9 9 9 9 9 9 9 9 9 9 9 9 9 9 9 9 9 9 9 9 9 1 < < > : : % # # # + O O O O O O @ = = - ; ; A S S S I Y Y Y Y Y Y Y Y Y Y Y Y ~ Y Y Y Y Y Y Y Y _ ` ` ` ` ` ` [ [ [ [ [ [ [ [ [ [ [ [ [ [ [ [ [ [ [ [ [ [ [ [ [ [ [ [ [ [ [ [ [ [ [ [ [ [ [ [ [ [ [ [ [ [ [ [ [ [ [ [ [ [ [ [ [ [ [ [ [ P n n F.F.l a a k V.V.H.H.H.H.H.j a a V.|.|.|.).H.H.H.H.H.H.H.H.H.H.H.F.H.H.N.a a #.#.#.+.5 0.&X=X<X<X<X<X<X<X<X<X<X<X<X<X<X<X<X<X<X<X<X<X<X<X<X<X<X<X<X<X<X<X<X<X<X,X=X&X&X&X&X&X&X&X&X&X&X&X&X=X<X<X<X<X<X<X<X<X<X<X<X<X<X<X<X<X<X<X,X=X&X&X&X&X&X&X&X=X=X=X=X=X=X=X=X=X=X=X:X>X-X>X>X>X>X>X>X>X>X>X>X>X>X>X>X>X>X>X>X>X>X-X-X-X=X=X=X=X=X=X=X=X=X=X=X&X&X&X&X&X&X&X=X=X=X>X>X,X,X,X,X<X<X2X2X2X2X4X4X9X9X9X0X0X0X0X0X0X0X0X0X0X0X0X0X0X0X0X0X0X0X0X0X0X0X0X0X0X0X5.a a |.|.).H.H.H.H.H.H.H.j a a a a j F.F.F.F.F.F. .n n L L L L L U ^ ^ ^ ^ ^ ^ ^ ^ ^ ^ ^ ^ ^ ^ ^ ^ ^ ^ ^ ^ ^ Y n n Z | | | | | | | | | | | | | | | | | | | | | | | | | | | | | | | | | | | | | | | | | | | | | | | | | [ [ [ [ [ [ [ [ [ [ [ [ [ [ [ [ [ [ [ [ [ [ [ [ [ [ [ [ [ [ [ [ [ [ [ [ [ [ [ [ [ [ [ [ [ [ [ [ [ [ [ [ [ [ [ [ [ [ [ [ [ [ ` ` ` ` ` ` ` ` ` ` _ _ Y Y Y Y Y Y Y Y Y Y Y Y Y Y Y Y Y Y Y Y Y Y Y Y Y Y ` [ [ [ [ [ [ [ [ [ [ [ [ [ [ [ [ [ [ [ [ [ [ [ [ [ [ [ [ [ [ [ [ [ [ [ [ [ [ [ [ [ [ [ [ [ [ [ [ [ } | | | | | | | | | | | | | | | | | | | | | | | | | | | | | | | | | | | | | | | | | | | | | | | | | | | | | | | | | | | | | | ",
"&X&X&X&X&X&X&X&X&X&X&X&X&X&X&X&X&X&X&X&X&X&X>X<X<X<X<X<X<X<X<X<X<X<X<X<X<X<X<X<X<X,X=X&XY.L.L.L.r.<.<.y 8 8 8 * O O O O O O O + # # # % : : > < < < 1 9 9 9 9 9 9 9 9 9 9 9 9 9 9 9 9 9 9 9 9 9 9 9 9 9 9 9 9 9 9 9 9 9 9 1 < < < > : : % # # + O O O O O O @ = = = - ; ; A S S I Y Y Y Y Y Y Y Y Y Y Y Y Y Y Y Y Y Y Y Y Y Y Y Y ` ` ` ` ` ` ` [ [ [ [ [ [ [ [ [ [ [ [ [ [ [ [ [ [ [ [ [ [ [ [ [ [ [ [ [ [ [ [ [ [ [ [ [ [ [ [ [ [ [ [ [ [ [ [ [ [ [ [ [ [ [ [ [ [ [ [ [ [ [ [ [ P n n F.F.l a a k V.V.H.H.H.H.H.j a a V.|.|.|.).H.H.H.H.H.H.H.H.H.H.H.F.H.H.N.a a #.#.#.#.5 ..=X,X<X<X<X<X<X<X<X<X<X<X<X<X<X<X<X<X<X<X<X<X<X<X<X<X<X<X<X<X<X<X<X<X<X>X&X&X&X&X&X&X&X&X&X&X&X&X=X,X<X<X<X<X<X<X<X<X<X<X<X<X<X<X<X<X<X<X>X&X&X&X=X=X=X=X=X=X-X>X>X>X>X>X>X>X>X>X>X>X>X>X>X>X>X>X>X>X>X>X>X>X>X>X>X>X>X>X>X>X>X>X>X>X>X>X>X>X>X>X>X>X>X-X-X-X=X=X=X=X=X=X=X=X=X=X=X=X&X&X&X&X&X=X=X=X=X>X>X,X,X,X<X<X<X2X2X2X4X4X0X0X9X9X0X0X0X0X0X0X0X0X0X0X0X0X0X0X0X5.a a |.|.).H.H.H.H.H.H.H.j a a a a j F.F.F.F.F.F. .n n L L L L L U ^ ^ ^ ^ ^ ^ ^ ^ ^ ^ ^ ^ ^ ^ ^ ^ ^ ^ ^ ^ ^ Y n n Z | | | | | | | | | | | | | | | | | | | | | | | | | | | | | | | | | | | | | | | | | | | | | | | | | [ [ [ [ [ [ [ [ [ [ [ [ [ [ [ [ [ [ [ [ [ [ [ [ [ [ [ [ [ [ [ [ [ [ [ [ [ [ [ [ [ [ [ [ [ [ [ [ [ [ [ [ [ [ [ [ ` ` ` ` ` ` ` ` ` ` _ Y Y Y Y Y Y Y Y Y Y Y Y Y Y Y Y Y Y Y Y Y Y Y Y Y Y Y Y Y Y Y Y Y ` [ [ [ [ [ [ [ [ [ [ [ [ [ [ [ [ [ [ [ [ [ [ [ [ [ [ [ [ [ [ [ [ [ [ [ [ [ [ [ [ [ [ [ [ [ [ [ [ [ } | | | | | | | | | | | | | | | | | | | | | | | | | | | | | | | | | | | | | | | | | | | | | | | | | | | | | | | | | | | | | | ",
"&X&X&X&X&X&X&X&X&X&X&X&X&X&X&X&X&X&X&X&X&X=X,X<X<X<X<X<X<X<X<X<X<X<X<X<X<X%XY.Y.i.i.<.<.y 8 8 8 * O O O O O O O + # # % % : : > < < < 1 9 9 9 9 9 9 9 9 9 9 9 9 9 9 9 9 9 9 9 9 9 9 9 9 9 9 9 9 9 9 9 9 9 9 9 1 < < > : : % # # # + O O O O O O @ = = - ; ; A S S S I Y Y Y Y Y Y Y Y Y Y Y Y Y Y Y Y Y Y Y Y Y Y Y Y Y _ ` ` ` ` ` ` ` [ [ [ [ [ [ [ [ [ [ [ [ [ [ [ [ [ [ [ [ [ [ [ [ [ [ [ [ [ [ [ [ [ [ [ [ [ [ [ [ [ [ [ [ [ [ [ [ [ [ [ [ [ [ [ [ [ [ [ [ [ [ [ [ [ [ [ [ [ P n n F.F.l a a k V.V.H.H.H.H.H.j a a V.|.|.|.).H.H.H.H.H.H.H.H.H.H.H.F.H.H.N.a a #.#.#.#.6 7 ,X<X<X<X<X<X<X<X<X<X<X<X<X<X<X<X<X<X<X<X<X<X<X<X<X<X<X<X<X<X<X<X<X<X,X&X&X&X&X&X&X&X&X&X&X&X&X&X,X<X<X<X<X<X<X<X<X<X<X<X<X<X<X<X<X<X<X,X&X&X&X&X&X&X=X=X=X=X=X=X=X=X=X=X=X-X-X-X>X>X>X>X>X>X>X>X>X>X>X>X>X>X>X>X>X>X>X>X>X>X>X>X>X>X>X>X>X>X>X>X>X>X>X>X>X>X>X>X>X>X>X>X>X>X>X-X-X>X:X:X=X=X=X=X=X=X=X=X=X=X&X&X&X&X&X=X=X=X>X>X,X,X,X,X<X<X<X2X2X2X4X4X9X9X9X9X0X0X0X5.a j |.|.).H.H.H.H.H.H.H.j a a a a j F.F.F.F.F.F.D n n L L L L L U ^ ^ ^ ^ ^ ^ ^ ^ ^ ^ ^ ^ ^ ^ ^ ^ ^ ^ ^ ^ ^ Y n n Z | | | | | | | | | | | | | | | | | | | | | | | | | | | | | | | | | | | | | | | | | | | | | | | | | [ [ [ [ [ [ [ [ [ [ [ [ [ [ [ [ [ [ [ [ [ [ [ [ [ [ [ [ [ [ [ [ [ [ [ [ [ [ [ [ [ [ [ [ [ [ [ [ [ ' ` ` ` ` ` ` ` ` ` _ Y Y Y Y Y Y Y Y Y Y Y Y Y Y Y Y Y Y Y Y Y Y Y Y Y Y Y Y Y Y Y Y Y Y Y Y Y Y Y Y ` [ [ [ [ [ [ [ [ [ [ [ [ [ [ [ [ [ [ [ [ [ [ [ [ [ [ [ [ [ [ [ [ [ [ [ [ [ [ [ [ [ [ [ [ [ [ [ [ [ } | | | | | | | | | | | | | | | | | | | | | | | | | | | | | | | | | | | | | | | | | | | | | | | | | | | | | | | | | | | | | | ",
"&X&X&X&X&X&X&X&X&X&X&X&X&X&X&X&X&X&X&X&X&X,X<X<X<X<X<X<X<X%X%XY.Y.i.i.6.6.:.8 8 * * O O O O O O + + # # % % : : > < < 1 1 9 9 9 9 9 9 9 9 9 9 9 9 9 9 9 9 9 9 9 9 9 9 9 9 9 9 9 9 9 9 9 9 9 9 9 1 < < < > : : % # # + O O O O O O @ = = = - ; ; A S S I Y Y Y Y Y Y Y Y Y Y Y Y Y Y Y Y Y Y Y Y Y Y Y Y Y Y Y Y _ ` ` ` ` ` ` [ [ [ [ [ [ [ [ [ [ [ [ [ [ [ [ [ [ [ [ [ [ [ [ [ [ [ [ [ [ [ [ [ [ [ [ [ [ [ [ [ [ [ [ [ [ [ [ [ [ [ [ [ [ [ [ [ [ [ [ [ [ [ [ [ [ [ [ [ [ [ [ [ [ P n n F.F.l a a k V.V.H.H.H.H.H.j a a V.|.|.|.).H.H.H.H.H.H.H.H.H.H.H.F.F.H.N.a a #.#.#.#.C 7 <X<X<X<X<X<X<X<X<X<X<X<X<X<X<X<X<X<X<X<X<X<X<X<X<X<X<X<X<X<X<X<X<X,X=X&X&X&X&X&X&X&X&X&X&X&X&X>X<X<X<X<X<X<X<X<X<X<X<X<X<X<X<X<X<X<X,X=X&X&X&X&X&X&X&X&X&X&X&X&X&X&X&X&X&X=X=X=X=X=X=X=X=X=X=X=X-X-X-X>X>X>X>X>X>X>X>X>X>X>X>X>X>X>X>X>X>X>X>X>X>X>X>X>X>X>X>X>X>X>X>X>X>X>X>X>X>X>X>X>X-X=X=X=X=X=X=X=X=X=X&X&X&X&X&X&X&X&X&X&X&X&X&X&X&X&X&X=X=X=X>X>X,X,X,X,X<X<X2X5.a l |.|.).H.H.H.H.H.H.H.j a a a a j F.F.F.F.F.F.A n n L L L L L U ^ ^ ^ ^ ^ ^ ^ ^ ^ ^ ^ ^ ^ ^ ^ ^ ^ ^ ^ ^ ^ Y n n Z | | | | | | | | | | | | | | | | | | | | | | | | | | | | | | | | | | | | | | | | | | | | | | | | | [ [ [ [ [ [ [ [ [ [ [ [ [ [ [ [ [ [ [ [ [ [ [ [ [ [ [ [ [ [ [ [ [ [ [ [ [ [ [ [ [ [ ' ' ` ` ` ` ` ` ` ` ` _ Y Y Y Y Y Y Y Y Y Y Y Y Y Y Y Y Y Y Y Y Y Y Y Y Y Y Y Y Y Y Y Y Y Y Y Y Y Y Y Y Y Y Y Y Y Y ` [ [ [ [ [ [ [ [ [ [ [ [ [ [ [ [ [ [ [ [ [ [ [ [ [ [ [ [ [ [ [ [ [ [ [ [ [ [ [ [ [ [ [ [ [ [ [ [ [ } | | | | | | | | | | | | | | | | | | | | | | | | | | | | | | | | | | | | | | | | | | | | | | | | | | | | | | | | | | | | | | ",
"&X&X&X&X&X&X&X&X&X&X&X&X&X&X&X&X&X&X&X&X>X<X%X%XY.Y.i.6.6.:.:.q q * * O O O O O O + + # # % : : > > < < 1 1 9 9 9 9 9 9 9 9 9 9 9 9 9 9 9 9 9 9 9 9 9 9 9 9 9 9 9 9 9 9 9 9 9 9 9 9 1 < < > : : % # # # + O O O O O O @ = = - ; ; A S S S I Y Y Y Y Y Y Y Y Y Y Y Y Y Y Y Y Y Y Y Y Y Y Y Y Y Y Y Y Y Y ` ` ` ` ` ` ` [ [ [ [ [ [ [ [ [ [ [ [ [ [ [ [ [ [ [ [ [ [ [ [ [ [ [ [ [ [ [ [ [ [ [ [ [ [ [ [ [ [ [ [ [ [ [ [ [ [ [ [ [ [ [ [ [ [ [ [ [ [ [ [ [ [ [ [ [ [ [ [ [ [ [ [ [ [ P n n F.F.l a a k V.V.H.H.H.H.H.d a a V.|.|.|.).H.H.H.H.H.H.H.H.H.H.H.F.F.H.l a a #.#.#.#.F  .;X<X<X<X<X<X<X<X<X<X<X2X2X2X2X2X2X2X2X2X2X2X2X2X2X2X2X<X<X<X<X<X,X=X&X&X&X&X&X&X&X&X&X&X&X&X=X,X<X<X<X<X<X<X<X<X<X<X<X<X<X<X<X<X<X<X>X&X&X&X&X&X&X&X&X&X&X&X&X&X&X&X&X&X&X&X&X&X&X&X&X&X&X&X&X&X=X=X=X=X=X=X=X=X=X=X=X-X-X-X>X>X>X>X>X>X>X>X>X>X>X>X>X>X>X>X>X>X-X-X=X=X=X=X=X=X=X=X=X=X=X&X&X&X&X&X&X&X&X&X&X&X&X&X&X&X&X&X&X&X&X&X&X&X&X&X&X&X&X&X&X&X&X&X&X&X&X&X=Xk a l |.|.).H.H.H.H.H.H.H.j a a a a j F.F.F.F.F.F.A n M L L L L L U ^ ^ ^ ^ ^ ^ ^ ^ ^ ^ ^ ^ ^ ^ ^ ^ ^ ^ ^ ^ ^ Y n n Z | | | | | | | | | | | | | | | | | | | | | | | | | | | | | | | | | | | | | | | | | | | | | | | | | [ [ [ [ [ [ [ [ [ [ [ [ [ [ [ [ [ [ [ [ [ [ [ [ [ [ [ [ [ [ [ [ [ [ [ [ ' ` ` ` ` ` ` ` ` ` _ Y Y Y Y Y Y Y Y Y Y Y Y Y Y Y Y Y Y Y Y Y Y Y Y Y Y Y Y Y Y Y Y Y Y Y Y Y Y Y Y Y Y Y Y Y Y Y Y Y Y Y Y Y ` [ [ [ [ [ [ [ [ [ [ [ [ [ [ [ [ [ [ [ [ [ [ [ [ [ [ [ [ [ [ [ [ [ [ [ [ [ [ [ [ [ [ [ [ [ [ [ [ [ } | | | | | | | | | | | | | | | | | | | | | | | | | | | | | | | | | | | | | | | | | | | | | | | | | | | | | | | | | | | | | | ",
"&X&X&X&X&X&X&X&X&X&X&X&X&X&X&XY.P.P.P.r.<.6.:.:.q 8 * O O O O O O O + # # # % & : > > < < 1 9 9 9 9 9 9 9 9 9 9 9 9 9 9 9 9 9 9 9 9 9 9 9 9 9 9 9 9 9 9 9 9 9 9 9 9 9 1 < < < > : : % # # + O O O O O O @ = = = - ; ; A S S I Y Y Y Y Y Y Y Y Y Y Y Y Y Y Y Y Y Y Y Y Y Y Y Y Y Y Y Y Y Y Y Y _ ` ` ` ` ` ` ` [ [ [ [ [ [ [ [ [ [ [ [ [ [ [ [ [ [ [ [ [ [ [ [ [ [ [ [ [ [ [ [ [ [ [ [ [ [ [ [ [ [ [ [ [ [ [ [ [ [ [ [ [ [ [ [ [ [ [ [ [ [ [ [ [ [ [ [ [ [ [ [ [ [ [ [ [ [ [ [ [ [ P n n F.F.l a a k V.V.H.H.H.H.H.a a a V.|.|.|.).H.H.H.H.H.H.H.H.H.H.H.F.F.H.j a t #.#.#.@.E  .~.2X2X2X2X2X2X2X2X2X2X4X4X4X4X4X4X4X4X4X4X4X4X4X4X4X4X2X2X2X2X2X>X&X&X&X&X&X&X&X&X&X&X&X&X&X,X<X<X<X<X<X<X<X<X<X<X<X<X<X<X<X<X<X<X,X&X&X&X&X&X&X&X&X&X&X&X&X&X&X&X&X&X&X&X&X&X&X&X&X&X&X&X&X&X&X&X&X&X&X&X&X&X&X&X&X&X=X=X=X=X=X=X=X=X=X=X=X-X=X=X=X=X=X=X=X=X=X=X=X&X&X&X&X&X&X&X&X&X&X&X&X&X&X&X&X&X&X&X&X&X&X&X&X&X&X&X&X&X&X&X&X&X&X&X&X&X&X&X&X&X&X&X&X&X&X&X&X&Xk a l |.|.H.H.H.H.H.H.H.H.j a a a a k F.F.F.F.F.F.A n M L L L L L U ^ ^ ^ ^ ^ ^ ^ ^ ^ ^ ^ ^ ^ ^ ^ ^ ^ ^ ^ ^ ^ Y n n Z | | | | | | | | | | | | | | | | | | | | | | | | | | | | | | | | | | | | | | | | | | | | | | | | | [ [ [ [ [ [ [ [ [ [ [ [ [ [ [ [ [ [ [ [ [ [ [ [ [ [ [ [ [ [ [ ' ` ` ` ` ` ` ` _ Y Y Y Y Y Y Y Y Y Y Y Y Y Y Y Y Y Y Y Y Y Y Y Y Y Y Y Y Y Y Y Y Y Y Y Y Y Y Y Y Y Y Y Y Y Y Y Y Y Y Y Y Y Y Y Y Y Y Y Y ` [ [ [ [ [ [ [ [ [ [ [ [ [ [ [ [ [ [ [ [ [ [ [ [ [ [ [ [ [ [ [ [ [ [ [ [ [ [ [ [ [ [ [ [ [ [ [ [ [ } | | | | | | | | | | | | | | | | | | | | | | | | | | | | | | | | | | | | | | | | | | | | | | | | | | | | | | | | | | | | | | ",
"&X&X&X&X&X&X&X&XY.P.P.P.r.<.<.y 8 8 8 * O O O O O O O + # # # % : : > < < < 1 9 9 9 9 9 9 9 9 9 9 9 9 9 9 9 9 9 9 9 9 9 9 9 9 9 9 9 9 9 9 9 1 9 9 9 9 9 9 1 < < > : : & # # # + O O O O O O @ = = - ; ; A S S S I Y Y Y Y Y Y Y Y Y Y Y Y Y Y Y Y Y Y Y Y Y Y Y Y Y Y Y Y Y Y Y Y Y Y ` ` ` ` ` ` ` [ [ [ [ [ [ [ [ [ [ [ [ [ [ [ [ [ [ [ [ [ [ [ [ [ [ [ [ [ [ [ [ [ [ [ [ [ [ [ [ [ [ [ [ [ [ [ [ [ [ [ [ [ [ [ [ [ [ [ [ [ [ [ [ [ [ [ [ [ [ [ [ [ [ [ [ [ [ [ [ [ [ [ [ [ [ [ P n n F.F.l a a k V.V.H.H.H.H.H.a a a V.|.|.|.).H.H.H.H.H.H.H.H.H.H.H.H.F.H.j a D #.#.#.%.*. .J.4X4X4X4X4X4X4X9X9X9X9X4X4X4X9X4X4X9X9X9X9X4X9X9X9X9X9X9X4X4X2X>X=X=X=X=X=X=X=X&X&X&X&X&X>X<X<X<X<X<X<X<X<X<X<X<X<X<X<X<X<X<X<X,X=X&X&X&X&X&X&X&X&X&X&X&X&X&X&X&X&X&X&X&X&X&X&X&X&X&X&X&X&X&X&X&X&X&X&X&X&X&X&X&X&X&X&X&X&X&X&X&X&X&X&X&X&X=X&X&X&X&X&X&X&X&X&X&X&X&X&X&X&X&X&X&X&X&X&X&X&X&X&X&X&X&X&X&X&X&X&X&X&X&X&X&X&X&X&X&X&X&X&X&X&X&X&X&X&X&X&X&X&X&X&X&X&X&Xg a l |.|.H.H.H.H.H.H.H.H.j a a a a l F.F.F.F.F.F.A n M L L L L L U ^ ^ ^ ^ ^ ^ ^ ^ ^ ^ ^ ^ ^ ^ ^ ^ ^ ^ ^ ^ ^ Y n n Z | | | | | | | | | | | | | | | | | | | | | | | | | | | | | | | | | | | | | | | | | | | | | | | | | [ [ [ [ [ [ [ [ [ [ [ [ [ [ [ [ [ [ [ [ [ [ [ [ [ [ [ [ [ [ [ ` ` _ Y Y Y Y Y Y Y Y Y Y Y Y Y Y Y Y Y Y Y Y Y Y Y Y Y Y Y Y Y Y Y Y Y Y Y Y Y Y Y Y Y Y Y Y Y Y Y Y Y Y Y Y Y Y Y Y Y Y Y Y Y Y Y Y Y Y ` [ [ [ [ [ [ [ [ [ [ [ [ [ [ [ [ [ [ [ [ [ [ [ [ [ [ [ [ [ [ [ [ [ [ [ [ [ [ [ [ [ [ [ [ [ [ [ [ [ } | | | | | | | | | | | | | | | | | | | | | | | | | | | | | | | | | | | | | | | | | | | | | | | | | | | | | | | | | | | | | | ",
"&XY.i.P.P.r.<.<.y 8 8 8 * O O O O O O O + # # # % : : > < < < 1 9 9 9 9 9 9 9 9 9 9 9 9 9 9 9 9 9 9 9 9 9 9 9 9 9 9 9 9 9 9 9 9 9 9 9 9 9 1 1 < < < > : : & # # + O O O O O O O * * = 8 ; ; B S S I Y Y Y Y Y Y Y Y Y Y Y Y Y Y Y Y Y Y Y Y Y Y Y Y Y Y Y Y Y Y Y Y Y Y Y Y _ ` ` ` ` ` ` ` [ [ [ [ [ [ [ [ [ [ [ [ [ [ [ [ [ [ [ [ [ [ [ [ [ [ [ [ [ [ [ [ [ [ [ [ [ [ [ [ [ [ [ [ [ [ [ [ [ [ [ [ [ [ [ [ [ [ [ [ [ [ [ [ [ [ [ [ [ [ [ [ [ [ [ [ [ [ [ [ [ [ [ [ [ [ [ [ [ [ [ P n n F.F.l a a k N.V.H.H.H.H.H.a a a V.|.|.|.).H.H.H.H.H.H.H.H.H.H.H.H.F.H.j a D #.#.%.*.=. .J.9X9X9X4X9X4X4X9X9X9X9X4X4X4X9X4X9X9X9X9X4X4X9X9X9X9X9X9X9X4X,X>X>X>X>X>X>X-X-X=X=X=X=X>X2X2X2X2X2X2X2X2X<X<X<X<X<X<X<X<X<X<X<X>X&X&X&X&X&X&X&X&X&X&X&X&X&X&X&X&X&X&X&X&X&X&X&X&X&X&X&X&X&X&X&X&X&X&X&X&X&X&X&X&X&X&X&X&X&X&X&X&X&X&X&X&X&X&X&X&X&X&X&X&X&X&X&X&X&X&X&X&X&X&X&X&X&X&X&X&X&X&X&X&X&X&X&X&X&X&X&X&X&X&X&X&X&X&X&X&X&X&X&X&X&X&X&X&X&X&X&X&X&X&X&X&X&X&Xa a l |.|.H.H.H.H.H.H.H.H.j a a a a l F.F.F.F.F.F.A n M L L L L L U ^ ^ ^ ^ ^ ^ ^ ^ ^ ^ ^ ^ ^ ^ ^ ^ ^ ^ ^ ^ ^ Y n n Z | | | | | | | | | | | | | | | | | | | | | | | | | | | | | | | | | | | | | | | | | | | | | | | | | [ [ [ [ [ [ [ [ [ [ [ [ [ [ [ [ [ [ [ [ [ [ [ [ [ [ [ [ [ [ [ ` Y Y Y Y Y Y Y Y Y Y Y Y Y Y Y Y Y Y Y Y Y Y Y Y Y Y Y Y Y Y Y Y Y Y Y Y Y Y Y Y Y Y Y Y Y Y Y Y Y Y Y Y Y Y Y Y Y Y Y Y Y Y Y Y Y Y Y Y ` [ [ [ [ [ [ [ [ [ [ [ [ [ [ [ [ [ [ [ [ [ [ [ [ [ [ [ [ [ [ [ [ [ [ [ [ [ [ [ [ [ [ [ [ [ [ [ [ [ } | | | | | | | | | | | | | | | | | | | | | | | | | | | | | | | | | | | | | | | | | | | | | | | | | | | | | | | | | | | | | | ",
"<.y 8 8 8 * O O O O O O O + # # % % : : > < < < 1 9 9 9 9 9 9 9 9 9 9 9 9 9 9 9 9 9 9 9 9 9 9 9 9 9 9 9 9 9 9 9 9 9 9 9 9 9 9 9 1 < < > : : & # # # + O O O O O O % 8 * = 8 7 ; W Q S ) Y Y Y Y Y Y Y Y Y Y Y Y ~ ~ Y Y Y Y Y Y Y Y Y Y Y _ Y Y Y Y Y Y Y Y Y Y Y _ ` ` ` ` ` ` ` [ [ [ [ [ [ [ [ [ [ [ [ [ [ [ [ [ [ [ [ [ [ [ [ [ [ [ [ [ [ [ [ [ [ [ [ [ [ [ [ [ [ [ [ [ [ [ [ [ [ [ [ [ [ [ [ [ [ [ [ [ [ [ [ [ [ [ [ [ [ [ [ [ [ [ [ [ [ [ [ [ [ [ [ [ [ [ [ [ [ [ [ [ [ [ [ P n n F.F.l a a k V.V.H.H.H.H.H.a a a V.|.|.|.).H.H.H.H.H.H.H.H.H.H.H.H.F.H.j a D #.@.*.*.*. .e.9X9X9X9X9X9X9X4X4X9X9X9X9X9X9X4X4X9X9X9X9X4X9X4X4X9X9X9X9X2X>X>X>X>X>X>X>X>X>X>X>X>X>X2X9X4X4X4X4X4X4X4X2X2X2X2X2X2X2X2X2X<X>X&X&X&X&X&X&X&X&X&X&X&X&X&X&X&X&X&X&X&X&X&X&X&X&X&X&X&X&X&X&X&X&X&X&X&X&X&X&X&X&X&X&X&X&X&X&X&X=X=X=X=X=X=X=X=X=X=X=X=X=X=X=X=X=X&X&X&X&X&X&X&X&X&X&X&X&X&X&X&X&X&X&X&X&X&X&X&X&X&X&X&X&X&X&X&X&X&X&X&X&X&X&X&X&X&X&X&X&X&X&X&X&X&X&X&Xa a l |.|.H.H.H.H.H.H.H.H.d a a a a l F.F.F.F.F.F.A n M L L L L L U ^ ^ ^ ^ ^ ^ ^ ^ ^ ^ ^ ^ ^ ^ ^ ^ ^ ^ ^ ^ ^ Y n n Z | | | | | | | | | | | | | | | | | | | | | | | | | | | | | | | | | | | | | | | | | | | | | | | | | [ [ [ [ [ [ [ [ [ [ [ [ [ [ [ [ [ [ [ [ [ [ [ [ [ [ [ [ [ [ [ ` Y Y Y Y Y Y Y Y Y Y Y Y Y Y Y Y Y Y Y Y Y Y Y Y Y Y Y Y Y Y Y Y Y Y Y Y Y Y Y Y Y Y Y Y Y Y Y Y Y Y Y Y Y Y Y Y Y Y Y Y Y Y Y Y Y Y Y Y ` [ [ [ [ [ [ [ [ [ [ [ [ [ [ [ [ [ [ [ [ [ [ [ [ [ [ [ [ [ [ [ [ [ [ [ [ [ [ [ [ [ [ [ [ [ [ [ [ [ } | | | | | | | | | | | | | | | | | | | | | | | | | | | | | | | | | | | | | | | | | | | | | | | | | | | | | | | | | | | | | | ",
"O O O O O + + # # % % & & > < < 1 1 9 9 9 9 9 9 9 9 9 9 9 9 9 9 9 9 9 9 9 9 9 9 9 9 9 9 9 9 9 9 9 9 9 9 9 9 9 9 9 1 < < < > : : & # # + O O O O O O O % 8 8 q t t W ! W S ) ] Y Y Y Y Y Y Y Y Y Y Y Y Y Y Y Y Y Y Y Y Y Y Y Y Y Y ~ ` ` ` _ Y Y Y Y Y Y _ ` ` ` ` ` ` ` [ [ [ [ [ [ [ [ [ [ [ [ [ [ [ [ [ [ [ [ [ [ [ [ [ [ [ [ [ [ [ [ [ [ [ [ [ [ [ [ [ [ [ [ [ [ [ [ [ [ [ [ [ [ [ [ [ [ [ [ [ [ [ [ [ [ [ [ [ [ [ [ [ [ [ [ [ [ [ [ [ [ [ [ [ [ [ [ [ [ [ [ [ [ [ [ [ [ [ [ [ P n n F.F.l a a k V.V.H.H.H.H.H.a a a V.|.|.|.H.H.H.H.H.H.H.H.H.H.H.H.F.F.H.j a D @.%.*.*.=.O. .9X9X9X9X9X9X9X4X4X9X9X9X9X9X9X9X4X9X9X9X9X4X4X4X4X9X9X9X4X>X>X>X>X>X>X>X>X>X>X>X>X>X<X9X9X9X9X9X9X9X9X9X9X9X4X4X4X4X4X4X4X2X=X=X=X=X&X&X&X&X&X&X&X&X&X&X&X&X&X&X&X&X&X&X&X&X&X&X&X&X&X&X&X&X&X&X&X&X&X=X=X=X=X=X=X=X=X=X=X=X-X-X>X>X>X>X>X>X>X>X>X>X>X-X-X-X-X=X=X=X=X=X=X=X=X=X=X=X&X&X&X&X&X&X&X&X&X&X&X&X&X&X&X&X&X&X&X&X&X&X&X&X&X&X&X&X&X&X&X&X&X&X&X&X&X&X&X&Xa a l |.|.H.H.H.H.H.H.H.H.a a a a a l F.F.F.F.F.F.A n M L L L L L U ^ ^ ^ ^ ^ ^ ^ ^ ^ ^ ^ ^ ^ ^ ^ ^ ^ ^ ^ ^ ^ Y n n Z | | | | | | | | | | | | | | | | | | | | | | | | | | | | | | | | | | | | | | | | | | | | | | } } } [ [ [ [ [ [ [ [ [ [ [ [ [ [ [ [ [ [ [ [ [ [ [ [ [ [ [ [ [ [ [ ` Y Y Y Y Y Y Y Y Y Y Y Y Y Y Y Y Y Y Y Y Y Y Y Y Y Y Y Y Y Y Y Y Y Y Y Y Y Y Y Y Y Y Y Y Y Y Y Y Y Y Y Y Y Y Y Y Y Y Y Y Y Y Y Y Y Y Y Y ` [ [ [ [ [ [ [ [ [ [ [ [ [ [ [ [ [ [ [ [ [ [ [ [ [ [ [ [ [ [ [ [ [ [ [ [ [ [ [ [ [ [ [ [ [ [ [ [ [ } | | | | | | | | | | | | | | | | | | | | | | | | | | | | | | | | | | | | | | | | | | | | | | | | | | | | | | | | | | | | | | ",
"# # % : & > > < < 1 1 9 9 9 9 9 9 9 9 9 9 9 9 9 9 9 9 9 9 9 9 9 9 9 9 9 9 9 9 9 9 9 9 9 9 9 9 9 9 9 9 1 < < > : : & # # # + O O O O O O % 8 8 8 y y t ..9.! ! O.O.] Y Y Y Y Y Y Y Y Y Y Y Y Y Y Y Y Y Y Y Y Y Y Y Y Y Y Y _ ` ` ` ` ` ` ` _ ` ` ` ` ` ` ` ` ` ` [ [ [ [ [ [ [ [ [ [ [ [ [ [ [ [ [ [ [ [ [ [ [ [ [ [ [ [ [ [ [ [ [ [ [ [ [ [ [ [ [ [ [ [ [ [ [ [ [ [ [ [ [ [ [ [ [ [ [ [ [ [ [ [ [ [ [ [ [ [ [ [ [ [ [ [ [ [ [ [ [ [ [ [ [ [ [ [ [ [ [ [ [ [ [ [ [ [ [ [ [ [ [ [ [ P n n F.F.l a a k V.V.H.H.H.H.H.a a a N.).)._.).H.H.H.H.H.H.F.F.F.F.F.V.F.F.j a D %.=.=.=.=.]  .1X9X9X9X9X9X9X4X9X9X9X9X9X9X9X9X9X9X9X9X9X9X9X4X4X9X9X4X,X>X>X>X>X>X>X>X>X>X>X>X>X,X4X9X9X9X9X9X9X9X9X9X9X9X9X9X9X9X9X9X4X,X=X=X=X=X=X&X&X&X&X&X&X&X&X&X&X&X&X&X&X&X&X&X&X&X&X&X&X&X&X&X&X=X=X=X=X=X=X-X-X>X>X>X>X>X>X>X>X>X>X>X>X>X>X>X>X>X>X>X>X>X>X>X>X>X>X>X>X>X>X>X>X>X-X-X-X-X=X=X=X=X=X=X=X=X=X=X&X&X&X&X&X&X&X&X&X&X&X&X&X&X&X&X&X&X&X&X&X&X&X&X&X&X&X&X&X&Xa a l |.|.H.H.H.H.H.H.H.H.a a a a a l F.F.F.F.F.F.A n M L L L L L U ~ ~ ~ ^ ^ ^ ^ ^ ^ ^ ^ ^ ^ ^ ^ ^ ^ ^ ^ ^ ^ Y n n Z | | | | | | | | | | | | | | | | | | | | | | | | | | | | | | | | | | | | | | | | } } } } } } [ [ [ [ [ [ [ [ [ [ [ [ [ [ [ [ [ [ [ [ [ [ [ [ [ [ [ [ [ [ [ [ [ [ ` Y Y Y Y Y Y Y Y Y Y Y Y Y Y Y Y Y Y Y Y Y Y Y Y Y Y Y Y Y Y Y Y Y Y Y Y Y Y Y Y Y Y Y Y Y Y Y Y Y Y Y Y Y Y Y Y Y Y Y Y Y Y Y Y Y Y Y Y ` [ [ [ [ [ [ [ [ [ [ [ [ [ [ [ [ [ [ [ [ [ [ [ [ [ [ [ [ [ [ [ [ [ [ [ [ [ [ [ [ [ [ [ [ [ [ [ [ [ } | | | | | | | | | | | | | | | | | | | | | | | | | | | | | | | | | | | | | | | | | | | | | | | | | | | | | | | | | | | | | | ",
"< < 1 9 9 9 9 9 9 9 9 9 9 9 9 9 9 9 9 9 9 9 9 9 9 9 9 9 9 9 9 9 9 9 9 9 9 9 9 0 9 9 9 9 1 < < < > : : & # # + O O O O O O O % 8 8 y :.y ..r.9.! q.t.O.O.] Y Y Y Y Y Y ~ Y Y Y Y Y Y Y Y Y Y Y Y Y Y Y Y Y Y Y Y Y Y ` ` ` ` ` ` [ [ [ ` ` ` ` ` ` ` [ [ [ [ [ [ [ [ [ [ [ [ [ [ [ [ [ [ [ [ [ [ [ [ [ [ [ [ [ [ [ [ [ [ [ [ [ [ [ [ [ [ [ [ [ [ [ [ [ [ [ [ [ [ [ [ [ [ [ [ [ [ [ [ [ [ [ [ [ [ [ [ [ [ [ [ [ [ [ [ [ [ [ [ [ [ [ [ [ [ [ [ [ [ [ [ [ [ [ [ [ [ [ [ [ [ [ [ [ [ [ P n n F.F.l a a k V.V.H.H.H.H.H.a a a l F.F.H.H.H.H.F.F.F.V.F.F.F.F.F.V.F.F.j a  .*.=.=.=.=.[  .~.4X4X9X9X9X9X4X9X9X9X9X9X9X9X9X9X9X9X9X9X9X9X9X9X9X9X,X>X>X>X>X>X>X>X>X>X>X>X>X>X2X9X9X9X9X9X9X9X4X4X4X4X4X4X4X4X4X4X4X,X=X&X&X&X&X&X&X&X&X&X&X&X&X&X&X&X&X&X&X&X&X&X&X&X&X&X&X&X&X&X&X&X=X=X=X=X=X=X=X=X=X-X-X>X>X>X>X>X>X>X>X>X>X>X>X>X>X>X>X>X>X>X>X>X>X>X>X>X>X>X>X>X>X>X>X>X>X>X>X>X>X>X>X>X-X-X-X=X=X=X=X=X=X=X=X=X=X=X&X&X&X&X&X&X&X&X&X&X&X&X&X&X&X&X&X&X&Xa a l |.|.H.H.H.H.H.H.H.H.a a a a a l F.F.F.F.F.F.A n M L L L L L / Y ~ ~ ~ ~ ~ ^ ^ ^ ^ ^ ^ ^ ^ ^ ^ ^ ^ ^ ^ ^ Y n n Z | | | | | | | | | | | | | | | | | | | | | | | | | | | | | | | | | } } } } } } } [ [ [ [ [ [ [ [ [ [ [ [ [ [ [ [ [ [ [ [ [ [ [ [ [ [ [ [ [ [ [ [ [ [ [ [ [ [ [ [ ` Y Y Y Y Y Y Y Y Y Y Y Y Y Y Y Y Y Y Y Y Y Y Y Y Y Y Y Y Y Y Y Y Y Y Y Y Y Y Y Y Y Y Y Y Y Y Y Y Y Y Y Y Y Y Y Y Y Y Y Y Y Y Y Y Y Y Y Y ` [ [ [ [ [ [ [ [ [ [ [ [ [ [ [ [ [ [ [ [ [ [ [ [ [ [ [ [ [ [ [ [ [ [ [ [ [ [ [ [ [ [ [ [ [ [ [ [ [ } | | | | | | | | | | | | | | | | | | | | | | | | | | | | | | | | | | | | | | | | | | | | | | | | | | | | | | | | | | | | | | ",
"9 9 9 9 9 9 9 9 9 9 9 9 9 9 9 9 9 9 9 9 9 9 9 9 9 9 9 9 9 9 9 9 9 9 9 9 9 9 1 < < > : : & # # # + O O O O O O % 8 8 8 y :.y ..r.9.q.u.t.O.O.] ~ Y Y Y Y Y Y Y Y Y Y ~ ~ Y Y Y Y Y Y Y Y Y Y Y Y Y Y Y Y Y Y ` ` ` ` ` ` [ [ [ [ [ [ [ [ [ [ [ [ [ [ [ [ [ [ [ [ [ [ [ [ [ [ [ [ [ [ [ [ [ [ [ [ [ [ [ [ [ [ [ [ [ [ [ [ [ [ [ [ [ [ [ [ [ [ [ [ [ [ [ [ [ [ [ [ [ [ [ [ [ [ [ [ [ [ [ [ [ [ [ [ [ [ [ [ [ [ [ [ [ [ [ [ [ [ [ [ [ [ [ [ [ [ [ [ [ [ [ [ [ [ [ [ [ [ [ [ [ [ [ [ [ P n n F.F.l a a k V.V.H.H.H.H.H.a a a l F.F.F.F.F.F.F.F.F.F.F.F.F.F.F.F.F.F.j a  .=.=.=.=.=.*. .J.2X2X4X4X4X4X4X4X4X4X9X9X4X4X9X9X9X9X9X9X9X9X9X9X9X2X>X>X>X>X>X>X>X>X>X>X>X-X>X<X4X4X4X4X4X4X2X2X2X2X2X2X2X2X2X2X<X<X,X&X&X&X&X&X&X&X&X&X&X&X&X&X&X&X&X&X&X&X&X&X&X&X&X&X&X&X&X&X&X&X&X&X&X&X&X&X&X&X&X&X&X=X=X=X=X=X=X=X=X-X-X-X>X>X>X>X>X>X>X>X>X>X>X>X>X>X>X>X>X>X>X>X>X>X>X>X>X>X>X>X>X>X>X>X>X>X>X>X>X>X>X>X>X>X>X-X-X-X=X=X=X=X=X=X=X=X=X=X=X&X&X&X&X&X&X&X&Xa a l |.|.H.H.H.H.H.H.H.H.a a a a a l F.F.F.F.F.F.A n M L L L L L { Y Y Y Y ~ ~ ~ ~ ^ ^ ^ ^ ^ ^ ^ ^ ^ ^ ^ ^ ^ Y n n Z | | | | | | | | | | | | | | | | | | | | | | | | | | } } } } } } } [ [ [ [ [ [ [ [ [ [ [ [ [ [ [ [ [ [ [ [ [ [ [ [ [ [ [ [ [ [ [ [ [ [ [ [ [ [ [ [ [ [ [ [ [ [ [ ` Y Y Y Y Y Y Y Y Y Y Y Y Y Y Y Y Y Y Y Y Y Y Y Y Y Y Y Y Y Y Y Y Y Y Y Y Y Y Y Y Y Y Y Y Y Y Y Y Y Y Y Y Y Y Y Y Y Y Y Y Y Y Y Y Y Y Y Y ` [ [ [ [ [ [ [ [ [ [ [ [ [ [ [ [ [ [ [ [ [ [ [ [ [ [ [ [ [ [ [ [ [ [ [ [ [ [ [ [ [ [ [ [ [ [ [ [ [ } | | | | | | | | | | | | | | | | | | | | | | | | | | | | | | | | | | | | | | | | | | | | | | | | | | | | | | | | | | | | | | ",
"9 9 9 9 9 9 9 9 9 9 9 9 9 9 9 9 9 9 9 9 9 9 9 9 9 9 9 9 9 9 9 1 < < < > : : & # # + O O O O O O O % 8 8 y :.:.<.r.r.9.u.u.t.O.O.] Y Y Y ~ ~ ~ ~ ~ Y Y Y Y Y Y Y Y Y ~ ~ Y Y Y Y Y Y Y Y Y Y Y Y Y Y ` ` ` ` ` ` [ [ [ [ [ [ [ [ [ [ [ [ [ [ [ [ [ [ [ [ [ [ [ [ [ [ [ [ [ [ [ [ [ [ [ [ [ [ [ [ [ [ [ [ [ [ [ [ [ [ [ [ [ [ [ [ [ [ [ [ [ [ [ [ [ [ [ [ [ [ [ [ [ [ [ [ [ [ [ [ [ [ [ [ [ [ [ [ [ [ [ [ [ [ [ [ [ [ [ [ [ [ [ [ [ [ [ [ [ [ [ [ [ [ [ [ [ [ [ [ [ [ [ [ [ [ [ [ [ P n n F.F.l a a k V.V.H.H.H.H.H.a a a l F.F.F.F.F.F.F.F.F.F.F.F.F.F.V.N.N.N.d a  .=.=.=.=.=.=. .e.<X<X<X<X2X2X2X2X2X2X2X2X4X4X4X4X4X4X4X9X9X9X9X9X2X>X>X>X:X:X=X=X=X=X=X=X=X=X>X2X2X2X<X2X2X<X<X<X<X<X<X<X<X<X<X<X<X,X=X&X&X&X&X&X&X&X&X&X&X&X&X&X&X&X&X&X&X&X&X&X&X&X&X&X&X&X&X&X&X&X&X&X&X&X&X&X&X&X&X&X&X&X&X&X&X&X&X&X&X=X=X=X=X=X=X=X=X=X-X-X-X>X>X>X>X>X>X>X>X>X>X>X>X>X>X>X>X>X>X>X>X>X>X>X>X>X>X>X>X>X>X>X>X>X>X>X>X>X>X>X>X>X>X>X>X>X-X-X-X=X=X=X=X=X=X=X=Xa a l |.|.H.H.H.H.H.H.H.H.a a a a a l F.F.F.F.F.F.A n M L L L L L { Y Y Y Y Y Y Y ~ ~ ~ ~ ^ ^ ^ ^ ^ ^ ^ ^ ^ ^ Y n n Z | | | | | | | | | | | | | | | | | | | | } } } } } } [ [ [ [ [ [ [ [ [ [ [ [ [ [ [ [ [ [ [ [ [ [ [ [ [ [ [ [ [ [ [ [ [ [ [ [ [ [ [ [ [ [ [ [ [ [ [ [ [ [ [ [ [ [ ` Y Y Y Y Y Y Y Y Y Y Y Y Y Y Y Y Y Y Y Y Y Y Y Y Y Y Y Y Y Y Y Y Y Y Y Y Y Y Y Y Y Y Y Y Y Y Y Y Y Y Y Y Y Y Y Y Y Y Y Y Y Y Y Y Y Y Y Y ` [ [ [ ' [ [ [ [ [ [ [ [ [ [ [ [ [ [ [ [ [ [ [ [ [ [ [ [ [ [ [ [ [ [ [ [ [ [ [ [ [ [ [ [ [ [ [ [ [ } | | | | | | | | | | | | | | | | | | | | | | | | | | | | | | | | | | | | | | | | | | | | | | | | | | | | | | | | | | | | | | ",
"9 9 9 9 9 9 9 9 9 9 9 9 9 9 9 9 9 9 9 9 9 9 9 9 9 1 < < > : : & # # # + O O O O O O % 8 8 8 y :.y ..r.9.u.u.u.t.O.O.] ] Y Y Y Y Y Y Y Y Y Y Y Y Y Y Y Y Y Y Y Y Y Y Y Y Y Y Y Y Y Y Y Y Y Y ` ` ` ` ` ` [ [ [ [ [ [ [ [ [ [ [ [ [ [ [ [ [ [ [ [ [ [ [ [ [ [ [ [ [ [ [ [ [ [ [ [ [ [ [ [ [ [ [ [ [ [ [ [ [ [ [ [ [ [ [ [ [ [ [ [ [ [ [ [ [ [ [ [ [ [ [ [ [ [ [ [ [ [ [ [ [ [ [ [ [ [ [ [ [ [ [ [ [ [ [ [ [ [ [ [ [ [ [ [ [ [ [ [ [ [ [ [ [ [ [ [ [ [ [ [ [ [ [ [ [ [ [ [ [ [ [ [ [ P n n F.F.l a a k V.V.H.H.H.H.H.a a a l F.F.F.F.F.F.F.V.V.N.N.N.l l k j j d a a  .=.=.=.=.=.=.O. .<X<X<X<X<X<X<X<X<X<X<X<X2X2X<X2X2X4X4X4X4X4X4X2X>X=X=X=X&X&X&X&X&X&X&X&X&X&X,X<X<X<X<X<X<X<X<X<X<X<X<X<X<X<X<X<X<X>X&X&X&X&X&X&X&X&X&X&X&X&X&X&X&X&X&X&X&X&X&X&X&X&X&X&X&X&X&X&X&X&X&X&X&X&X&X&X&X&X&X&X&X&X&X&X&X&X&X&X&X&X&X&X&X&X&X&X&X&X=X=X=X=X=X=X=X=X=X-X-X>X>X>X>X>X>X>X>X>X>X>X>X>X>X>X>X>X>X>X>X>X>X>X>X>X>X>X>X>X>X>X>X>X>X>X>X>X>X>X>X>X>X>X>X>X>X>X>Xa a N.|.`.H.H.H.H.H.H.H.H.a a a a a l F.F.F.F.F.F.A n M L L L L L { Y Y Y Y Y Y Y Y Y Y ~ ~ ~ ~ ^ ^ ^ ^ ^ ^ ^ Y n n Z | | | | | | | | | | | | | } } } } } } } [ [ [ [ [ [ [ [ [ [ [ [ [ [ [ [ [ [ [ [ [ [ [ [ [ [ [ [ [ [ [ [ [ [ [ [ [ [ [ [ [ [ [ [ [ [ [ [ [ [ [ [ [ [ [ [ [ [ [ [ ` Y Y Y Y Y Y Y Y Y Y Y Y Y Y Y Y Y Y Y Y Y Y Y Y Y Y Y Y Y Y Y Y Y Y Y Y Y Y Y Y Y Y Y Y Y Y Y Y Y Y Y Y Y Y Y Y Y Y Y Y Y Y Y Y Y Y Y Y ` [ [ [ [ [ [ [ [ [ [ [ [ [ [ [ [ [ [ [ [ [ [ [ [ [ [ [ [ [ [ [ [ [ [ [ [ [ [ [ [ [ [ [ [ [ [ [ [ [ } | | | | | | | | | | | | | | | | | | | | | | | | | | | | | | | | | | | | | | | | | | | | | | | | | | | | | | | | | | | | } } ",
"9 9 9 9 9 9 9 9 9 9 9 9 9 9 9 9 9 9 1 1 < < < : : & # # + O O O O O O O % 8 8 y y y W r.9.! q.u.t.O.O.] ] Y Y Y Y Y Y Y Y Y Y Y Y Y Y Y Y Y Y Y Y Y Y Y Y Y Y Y Y Y Y Y Y Y Y Y Y _ ` ` ` ` ` ` ` [ [ [ [ [ [ [ [ [ [ [ [ [ [ [ [ [ [ [ [ [ [ [ [ [ [ [ [ [ [ [ [ [ [ [ [ [ [ [ [ [ [ [ [ [ [ [ [ [ [ [ [ [ [ [ [ [ [ [ [ [ [ [ [ [ [ [ [ [ [ [ [ [ [ [ [ [ [ [ [ [ [ [ [ [ [ [ [ [ [ [ [ [ [ [ [ [ [ [ [ [ [ [ [ [ [ [ [ [ [ [ [ [ [ [ [ [ [ [ [ [ [ [ [ [ [ [ [ [ [ [ [ [ [ [ [ P n n F.F.l a a k V.V.H.H.H.H.H.a a a l F.V.N.N.N.N.l k k j j d a a a a a a a a  .=.=.=.=.=.=.]  .^.<X<X<X<X<X<X<X<X<X<X<X<X<X<X<X<X2X2X4X4X2X2X>X&X&X&X&X&X&X&X&X&X&X&X&X&X>X<X<X<X<X<X<X<X<X<X<X<X<X<X<X<X<X<X<X,X&X&X&X&X&X&X&X&X&X&X&X&X&X&X&X&X&X&X&X&X&X&X&X&X&X&X&X&X&X&X&X&X&X&X&X&X&X&X&X&X&X&X&X&X&X&X&X&X&X&X&X&X&X&X&X&X&X&X&X&X&X&X&X&X&X&X&X&X&X&X=X=X=X=X=X=X=X=X=X-X-X>X>X>X>X>X>X>X>X>X>X>X>X>X>X>X>X>X>X>X>X>X>X>X>X>X>X>X>X>X>X>X>X>X>X>X>X>X>X>Xa a V.|.`.H.H.H.H.H.H.H.H.a a a a a l F.F.F.F.F.F.A n M L L L L L _ Y Y Y Y Y Y Y Y Y Y Y Y Y ~ ~ ~ ~ ^ ^ ^ ^ Y n n Z | | | | | | } } } } } } } [ [ [ [ [ [ [ [ [ [ [ [ [ [ [ [ [ [ [ [ [ [ [ [ [ [ [ [ [ [ [ [ [ [ [ [ [ [ [ [ [ [ [ [ [ [ [ [ [ [ [ [ [ [ [ [ [ [ [ [ [ [ [ [ [ [ [ ` Y Y Y Y Y Y Y Y Y Y Y Y Y Y Y Y Y Y Y Y Y Y Y Y Y Y Y Y Y Y Y Y Y Y Y Y Y Y Y Y Y Y Y Y Y Y Y Y Y Y Y Y Y Y Y Y Y Y Y Y Y Y Y Y Y Y Y Y ` [ [ [ [ [ [ [ [ [ [ [ [ [ [ [ [ [ [ [ [ [ [ [ [ [ [ [ [ [ [ [ [ [ [ [ [ [ [ [ [ [ [ [ [ [ [ [ [ [ } | | | | | | | | | | | | | | | | | | | | | | | | | | | | | | | | | | | | | | | | | | | | | | | | | | | | | } } } } } } } [ [ ",
"9 9 9 9 9 9 9 9 9 9 9 1 1 < < > > : & & # # + O O O O O O * * 8 8 q t t t 9.! q.t.t.O.O.] Y Y Y Y Y Y Y Y Y Y Y Y Y Y Y Y ~ ~ Y Y Y Y Y Y Y Y Y Y Y Y Y Y Y Y Y Y Y Y Y Y _ ` ` ` ` ` ` [ [ [ [ [ [ [ [ [ [ [ [ [ [ [ [ [ [ [ [ [ [ [ [ [ [ [ [ [ [ [ [ [ [ [ [ [ [ [ [ [ [ [ [ [ [ [ [ [ [ [ [ [ [ [ [ [ [ [ [ [ [ [ [ [ [ [ [ [ [ [ [ [ [ [ [ [ [ [ [ [ [ [ [ [ [ [ [ [ [ [ [ [ [ [ [ [ [ [ [ [ [ [ [ [ [ [ [ [ [ [ [ [ [ [ [ [ [ [ [ [ [ [ [ [ [ [ [ [ [ [ [ [ [ [ [ [ [ [ [ [ P n n F.F.l a a k V.V.H.H.H.H.H.a a a j l k j j j d a a a a a a a a a a a a a a  .=.=.=.=.=.=.&. .J.<X<X<X2X2X2X2X2X2X2X2X2X2X2X2X2X4X4X4X4X2X<X=X&X&X&X&X&X&X&X&X&X&X&X&X>X<X<X<X<X<X<X<X<X<X<X<X<X<X<X<X<X<X<X,X=X&X&X&X&X&X&X&X&X&X&X&X&X&X&X&X&X&X&X&X&X&X&X&X&X&X&X&X&X&X&X&X&X&X&X&X&X&X&X&X&X&X&X&X&X&X&X&X&X&X&X&X&X&X&X&X&X&X&X&X&X&X&X&X&X&X&X&X&X&X&X&X&X&X&X&X&X&X&X&X=X=X=X=X=X=X=X=X-X-X-X>X>X>X>X>X>X>X>X>X>X>X>X>X>X>X>X>X>X>X>X>X>X>X>X>X-X-X-X=X=Xa a V.|.`.H.H.H.H.H.H.H.H.a a a a a l F.F.F.F.F.F.A n M L L L L L Y Y Y Y Y Y Y Y Y Y Y Y Y Y Y Y Y ~ ~ ~ ~ ^ Y n n Z } } } } } } [ [ [ [ [ [ [ [ [ [ [ [ [ [ [ [ [ [ [ [ [ [ [ [ [ [ [ [ [ [ [ [ [ [ [ [ [ [ [ [ [ [ [ [ [ [ [ [ [ [ [ [ [ [ [ [ [ [ [ [ [ [ [ [ [ [ [ [ [ [ [ [ [ [ ` Y Y Y Y Y Y Y Y Y Y Y Y Y Y Y Y Y Y Y Y Y Y Y Y Y Y Y Y Y Y Y Y Y Y Y Y Y Y Y Y Y Y Y Y Y Y Y Y Y Y Y Y Y Y Y Y Y Y Y Y Y Y Y Y Y Y Y Y ` [ [ [ [ [ [ [ [ [ [ [ [ [ [ [ [ [ [ [ [ [ [ [ [ [ [ [ [ [ [ [ [ [ [ [ [ [ [ [ [ [ [ [ [ [ [ [ [ [ } | | | | | | | | | | | | | | | | | | | | | | | | | | | | | | | | | | | | | | | | | | | | | | } } } } } } } [ [ [ [ [ [ [ [ [ ",
"9 9 9 9 9 1 1 < < > : : & # # + + O O O O O O * 8 8 w 8 t W W ! ! ! O.O.O.] Y ~ ~ ~ Y Y Y Y Y Y Y Y Y Y Y Y Y Y Y Y Y Y Y ~ ~ ~ Y Y Y Y Y Y Y Y Y Y Y Y Y Y Y Y Y ` ` ` ` ` ` ` [ [ [ [ [ [ [ [ [ [ [ [ [ [ [ [ [ [ [ [ [ [ [ [ [ [ [ [ [ [ [ [ [ [ [ [ [ [ [ [ [ [ [ [ [ [ [ [ [ [ [ [ [ [ [ [ [ [ [ [ [ [ [ [ [ [ [ [ [ [ [ [ [ [ [ [ [ [ [ [ [ [ [ [ [ [ [ [ [ [ [ [ [ [ [ [ [ [ [ [ [ [ [ [ [ [ [ [ [ [ [ [ [ [ [ [ [ [ [ [ [ [ [ [ [ [ [ [ [ [ [ [ [ [ [ [ [ [ [ [ [ [ [ [ [ P n n F.F.k a a k V.V.H.H.H.H.H.a a a a a a a a a a a a a a a a a a a D  . . . .[ =.=.=.=.=.=.=. .S.2X2X2X4X4X4X4X4X4X4X4X9X9X4X4X9X9X9X9X9X4X,X-X=X=X=X=X=X=X=X=X&X&X&X=X,X<X<X<X<X<X<X<X<X<X<X<X<X<X<X<X<X<X<X>X&X&X&X&X&X&X&X&X&X&X&X&X&X&X&X&X&X&X&X&X&X&X&X&X&X&X&X&X&X&X&X&X&X&X&X&X&X&X&X&X&X&X&X&X&X&X&X&X&X&X&X&X&X&X&X&X&X&X&X&X&X&X&X&X&X&X&X&X&X&X&X&X&X&X&X&X&X&X&X&X&X&X&X&X&X&X&X&X=X=X=X=X=X=X=X=X=X-X-X-X>X>X>X>X>X-X-X=X=X=X=X=X=X=X=X=X=X=X=X&X&Xa a V.|.`.H.H.H.H.H.H.H.H.a a a a a N.F.F.F.F.F.F.A n M L L L L L Y Y Y Y Y Y Y Y Y Y Y Y Y Y Y Y Y Y Y Y ~ ~ Y n n M ] [ [ [ [ [ [ [ [ [ [ [ [ [ [ [ [ [ [ [ [ [ [ [ [ [ [ [ [ [ [ [ [ [ [ [ [ [ [ [ [ [ [ [ [ [ [ [ [ [ [ [ [ [ [ [ [ [ [ [ [ [ [ [ [ [ [ [ [ [ [ [ [ [ [ [ [ [ [ [ ` Y Y Y Y Y Y Y Y Y Y Y Y Y Y Y Y Y Y Y Y Y Y Y Y Y Y Y Y Y Y Y Y Y Y Y Y Y Y Y Y Y Y Y Y Y Y Y Y Y Y Y Y Y Y Y Y Y Y Y Y Y Y Y Y Y Y Y Y ` [ [ [ [ [ [ [ [ [ [ [ [ [ [ [ [ [ [ [ [ [ [ [ [ [ [ [ [ [ [ [ [ [ [ [ [ [ [ [ [ [ [ [ [ [ [ [ [ [ } | | | | | | | | | | | | | | | | | | | | | | | | | | | | | | | | | | | | | | | } } } } } } } } [ [ [ [ [ [ [ [ [ [ [ [ [ [ [ ",
"< < > > : & & # # + O O O O O O * * * * 8 t 7 W X.X.O.) O.] ] Y Y Y Y Y Y Y Y Y ~ ~ Y ~ Y Y Y Y Y Y Y Y Y Y Y Y Y Y Y Y Y Y Y Y Y Y Y Y Y Y Y Y Y Y Y Y Y ` ` ` ` ` ` ` [ [ [ [ [ [ [ [ [ [ [ [ [ [ [ [ [ [ [ [ [ [ [ [ [ [ [ [ [ [ [ [ [ [ [ [ [ [ [ [ [ [ [ [ [ [ [ [ [ [ [ [ [ [ [ [ [ [ [ [ [ [ [ [ [ [ [ [ [ [ [ [ [ [ [ [ [ [ [ [ [ [ [ [ [ [ [ [ [ [ [ [ [ [ [ [ [ [ [ [ [ [ [ [ [ [ [ [ [ [ [ [ [ [ [ [ [ [ [ [ [ [ [ [ [ [ [ [ [ [ [ [ [ [ [ [ [ [ [ [ [ [ [ [ [ [ [ [ [ P n n F.F.j a a k V.V.H.H.H.H.H.a a a a a a a a a a a D D D D D T T L E [ [ &.&.=.=.=.=.=.=.=.=.Q ..9X9X9X9X9X9X9X9X9X9X9X9X9X9X9X9X9X9X9X9X2X>X>X>X>X>X>X>X-X>X>X:X=X=X<X2X2X2X2X2X2X<X<X<X<X<X<X<X<X<X<X<X<X,X&X&X&X&X&X&X&X&X&X&X&X&X&X&X&X&X&X&X&X&X&X&X&X&X&X&X&X&X&X&X&X&X&X&X&X&X&X&X&X&X&X&X&X&X&X&X&X&X&X&X&X&X&X&X&X&X&X&X&X&X&X&X&X&X&X&X&X&X&X&X&X&X&X&X&X&X&X&X&X&X&X&X&X&X&X&X&X&X&X&X&X&X&X&X&X&X&X&X=X=X=X=X=X=X=X=X=X=X&X&X&X&X&X&X&X&X&X&X&X&X&X%Xa a V.|.`.H.H.H.H.H.H.H.H.a a a a a N.F.F.F.F.F.F.A n M L L L L L Y Y Y Y Y Y Y Y Y Y Y Y Y Y Y Y Y Y Y Y Y Y Y n n n R [ [ [ [ [ [ [ [ [ [ [ [ [ [ [ [ [ [ [ [ [ [ [ [ [ [ [ [ [ [ [ [ [ [ [ [ [ [ [ [ [ [ [ [ [ [ [ [ [ [ [ [ [ [ [ [ [ [ [ [ [ [ [ [ [ [ [ [ [ [ [ [ [ [ [ [ [ [ [ ` Y Y Y Y Y Y Y Y Y Y Y Y Y Y Y Y Y Y Y Y Y Y Y Y Y Y Y Y Y Y Y Y Y Y Y Y Y Y Y Y Y Y Y Y Y Y Y Y Y Y Y Y Y Y Y Y Y Y Y Y Y Y Y Y Y Y Y Y ` [ [ [ [ [ [ [ [ [ [ [ [ [ [ [ [ [ [ [ [ [ [ [ [ [ [ [ [ [ [ [ [ [ [ [ [ [ [ [ [ [ [ [ [ [ [ [ [ [ } | | | | | | | | | | | | | | | | | | | | | | | | | | | | | | | | | } } } } } } [ [ [ [ [ [ [ [ [ [ [ [ [ [ [ [ [ [ [ [ [ [ [ ",
"# # + + O O O O O O * * = 8 8 7 W W Q Q ) O.] ] Y Y Y Y Y Y ~ ~ Y Y Y Y Y Y Y Y ~ ~ ~ _ Y Y Y Y Y Y Y Y Y Y Y Y Y Y Y Y Y Y Y Y Y Y Y Y Y Y Y Y _ ` ` ` ` ` ` ` [ [ [ [ [ [ [ [ [ [ [ [ [ [ [ [ [ [ [ [ [ [ [ [ [ [ [ [ [ [ [ [ [ [ [ [ [ [ [ [ [ [ [ [ [ [ [ [ [ [ [ [ [ [ [ [ [ [ [ [ [ [ [ [ [ [ [ [ [ [ [ [ [ [ [ [ [ [ [ [ [ [ [ [ [ [ [ [ [ [ [ [ [ [ [ [ [ [ [ [ [ [ [ [ [ [ [ [ [ [ [ [ [ [ [ [ [ [ [ [ [ [ [ [ [ [ [ [ [ [ [ [ [ [ [ [ [ [ [ [ [ [ [ [ [ [ [ [ [ [ [ [ [ P n n F.F.j a a k V.V.H.H.H.H.H.j a d j j a a a T T T J J J +.+.#.#.@.%.=.=.=.=.=.=.=.=.=.=.=.=.]  .1X4X4X4X9X9X9X9X9X9X9X9X9X9X9X9X9X9X9X2X>X>X>X>X>X>X>X>X>X>X>X>X>X<X9X9X9X4X4X4X4X2X4X2X2X2X2X2X2X2X2X2X,X=X&X&X&X&X&X&X&X&X&X&X&X&X&X&X&X&X&X&X&X&X&X&X&X&X&X&X&X&X&X&X&X&X&X&X&X&X&X&X&X&X&X&X&X&X&X&X&X&X&X&X&X&X&X&X&X&X&X&X&X&X&X&X&X&X&X&X&X&X&X&X&X&X&X&X&X&X&X&X&X&X&X&X&X&X&X&X&X&X&X&X&X&X&X&X&X&X&X&X&X&X&X&X&X&X&X&X&X&X&X&X&X&X&X&X&X&X&X&X&X&X&XY.a a V.|.`.H.H.H.H.H.H.H.F.a a a a a N.F.F.F.F.F.F.A n M L L L L L Y Y Y Y Y Y Y Y Y Y Y Y Y Y Y Y Y Y Y Y Y Y Y n n n R [ [ [ [ [ [ [ [ [ [ [ [ [ [ [ [ [ [ [ [ [ [ [ [ [ [ [ [ [ [ [ [ [ [ [ [ [ [ [ [ [ [ [ [ [ [ [ [ [ [ [ [ [ [ [ [ [ [ [ [ [ [ [ [ [ [ [ [ [ [ [ [ [ [ [ [ [ [ [ ` Y Y Y Y Y Y Y Y Y Y Y Y Y Y Y Y Y Y Y Y Y Y Y Y Y Y Y Y Y Y Y Y Y Y Y Y Y Y Y Y Y Y Y Y Y Y Y Y Y Y Y Y Y Y Y Y Y Y Y Y Y Y Y Y Y Y Y Y ` [ [ [ [ [ [ [ [ [ [ [ [ [ [ [ [ [ [ [ [ [ [ [ [ [ [ [ [ [ [ [ [ [ [ [ [ [ [ [ [ [ [ [ [ [ [ [ [ [ } | | | | | | | | | | | | | | | | | | | | | | | | | | } } } } } } } [ [ [ [ [ [ [ [ [ [ [ [ [ [ [ [ [ [ [ [ [ [ [ [ [ [ [ [ [ ",
"O O O O @ = = - 7 ; W Q S ) ) ] Y Y Y Y Y Y Y Y Y Y Y Y ~ ~ ~ ~ Y Y Y Y Y Y Y Y Y Y Y Y Y Y Y Y Y Y Y Y Y Y Y Y Y Y Y Y Y Y Y Y Y Y Y Y ` ` ` ` ` ` ` [ [ [ [ [ [ [ [ [ [ [ [ [ [ [ [ [ [ [ [ [ [ [ [ [ [ [ [ [ [ [ [ [ [ [ [ [ [ [ [ [ [ [ [ [ [ [ [ [ [ [ [ [ [ [ [ [ [ [ [ [ [ [ [ [ [ [ [ [ [ [ [ [ [ [ [ [ [ [ [ [ [ [ [ [ [ [ [ [ [ [ [ [ [ [ [ [ [ [ [ [ [ [ [ [ [ [ [ [ [ [ [ [ [ [ [ [ [ [ [ [ [ [ [ [ [ [ [ [ [ [ [ [ [ [ [ [ [ [ [ [ [ [ [ [ [ [ [ [ [ [ [ [ [ [ [ [ [ P n n F.F.j a a k V.V.H.H.H.H.H.V.l N.V.V.d a a #.#.#.#.#.#.#.#.#.#.%.=.=.=.*.=.=.=.=.=.=.=.=.=.[  .~.2X2X2X2X4X4X4X4X4X4X9X9X9X9X9X9X9X4X>X>X>X>X>X>X>X>X>X>X>X>X>X,X4X9X9X9X9X9X9X9X9X9X9X9X4X4X4X4X4X4X4X,X=X=X=X&X&X&X&X&X&X&X&X&X&X&X&X&X&X&X&X&X&X&X&X&X&X&X&X&X&X&X&X&X&X&X&X&X&X&X&X&X&X&X&X&X&X&X&X&X&X&X&X&X&X&X&X&X&X&X&X&X&X&X&X&X&X&X&X&X&X&X&X&X&X&X&X&X&X&X&X&X&X&X&X&X&X&X&X&X&X&X&X&X&X&X&X&X&X&X&X&X&X=X=X=X=X=X=X&X&X&X&X&X&X&X&X&X&X&X&X&X&X&XE.a a V.|.`.H.H.H.H.H.H.H.V.a a a a a N.F.F.F.F.F.F.A n M L L L L L Y Y Y Y Y Y Y Y Y Y Y Y Y Y Y Y Y Y Y Y Y Y Y n n n R [ [ [ [ [ [ [ [ [ [ [ [ [ [ [ [ [ [ [ [ [ [ [ [ [ [ [ [ [ [ [ [ [ [ [ [ [ [ [ [ [ [ [ [ [ [ [ [ [ [ [ [ [ [ [ [ [ [ [ [ [ [ [ [ [ [ [ [ [ [ [ [ [ [ [ [ [ [ [ ` Y Y Y Y Y Y Y Y Y Y Y Y Y Y Y Y Y Y Y Y Y Y Y Y Y Y Y Y Y Y Y Y Y Y Y Y Y Y Y Y Y Y Y Y Y Y Y Y Y Y Y Y Y Y Y Y Y Y Y Y Y Y Y Y Y Y Y Y ` [ [ [ [ [ [ [ [ [ [ [ [ [ [ [ [ [ [ [ [ [ [ [ [ [ [ [ [ [ [ [ [ [ [ [ [ [ [ [ [ [ [ [ [ [ [ [ [ [ } | | | | | | | | | | | | | | | | | | | } } } } } } } [ [ [ [ [ [ [ [ [ [ [ [ [ [ [ [ [ [ [ [ [ [ [ [ [ [ [ [ [ [ [ [ [ [ [ [ ",
"- ; ; ; B S S ) ] Y Y Y Y Y Y Y Y Y Y Y Y Y Y Y Y Y Y Y ~ ~ ~ ~ Y Y Y Y Y Y Y Y Y Y Y Y Y Y Y Y Y Y Y Y Y Y Y Y Y Y Y Y Y Y Y ` ` ` ` ` ` ` ` [ [ [ [ [ [ [ [ [ [ [ [ [ [ [ [ [ [ [ [ [ [ [ [ [ [ [ [ [ [ [ [ [ [ [ [ [ [ [ [ [ [ [ [ [ [ [ [ [ [ [ [ [ [ [ [ [ [ [ [ [ [ [ [ [ [ [ [ [ [ [ [ [ [ [ [ [ [ [ [ [ [ [ [ [ [ [ [ [ [ [ [ [ [ [ [ [ [ [ [ [ [ [ [ [ [ [ [ [ [ [ [ [ [ [ [ [ [ [ [ [ [ [ [ [ [ [ [ [ [ [ [ [ [ [ [ [ [ [ [ [ [ [ [ [ [ [ [ [ [ [ [ [ [ [ [ [ [ [ [ [ [ P n n F.F.j a a l V.V.H.H.H.H.H.H.H.H.H.H.j a a #.#.#.#.#.#.#.#.#.@.=.=.*.*.*.=.=.=.=.=.=.=.=.=.*. .J.<X<X<X<X<X2X<X2X2X2X2X2X4X4X4X4X4X,X>X>X>X>X>X>X>X>X>X>X>X>X>X2X9X9X9X9X9X9X9X9X9X9X9X9X9X9X9X9X9X9X4X>X>X-X-X=X=X=X=X=X=X=X=X=X&X&X&X&X&X&X&X&X&X&X&X&X&X&X&X&X&X&X&X&X&X&X&X&X&X&X&X&X&X&X&X&X&X&X&X&X&X&X&X&X&X&X&X&X&X&X&X&X&X&X&X&X&X&X&X&X&X&X&X&X&X&X&X&X&X&X&X&X&X&X&X&X&X&X&X&X&X=X=X=X=X=X=X=X=X=X=X=X=X-X-X>X-X-X-X=X=X=X=X=X=X=X=X&X&X&X&X&X&X&XE.a a V.|.`.H.H.H.H.H.H.H.V.a a a a a N.F.F.F.F.F.F.n n N L L L L L Y Y Y Y Y Y Y Y Y Y Y Y Y Y Y Y Y Y Y Y Y Y Y n n n R [ [ [ [ [ [ [ [ [ [ [ [ [ [ [ [ [ [ [ [ [ [ [ [ [ [ [ [ [ [ [ [ [ [ [ [ [ [ [ [ [ [ [ [ [ [ [ [ [ [ [ [ [ [ [ [ [ [ [ [ [ [ [ [ [ [ [ [ [ [ [ [ [ [ [ [ [ [ [ ` Y Y Y Y Y Y Y Y Y Y Y Y Y Y Y Y Y Y Y Y Y Y Y Y Y Y Y Y Y Y Y Y Y Y Y Y Y Y Y Y Y Y Y Y Y Y Y Y Y Y Y Y Y Y Y Y Y Y Y Y Y Y Y Y Y Y Y Y ` [ [ [ [ [ [ [ [ [ [ [ [ [ [ [ [ [ [ [ [ [ [ [ [ [ [ [ [ [ [ [ [ [ [ [ [ [ [ [ [ [ [ [ [ [ [ [ [ [ } | | | | | | | | | | | | } } } } } } } [ [ [ [ [ [ [ [ [ [ [ [ [ [ [ [ [ [ [ [ [ [ [ [ [ [ [ [ [ [ [ [ [ [ [ [ [ [ [ [ [ [ [ ",
"I Y Y Y Y Y Y Y Y Y Y Y Y Y Y Y Y Y Y Y Y Y Y Y Y Y Y Y Y Y Y Y Y Y Y Y Y Y Y Y Y Y Y Y Y Y Y Y Y Y Y Y Y Y Y Y Y Y ` ` ` ` ` ` ` ` [ [ [ [ [ [ [ [ [ [ [ [ [ [ [ [ [ [ [ [ [ [ [ [ [ [ [ [ [ [ [ [ [ [ [ [ [ [ [ [ [ [ [ [ [ [ [ [ [ [ [ [ [ [ [ [ [ [ [ [ [ [ [ [ [ [ [ [ [ [ [ [ [ [ [ [ [ [ [ [ [ [ [ [ [ [ [ [ [ [ [ [ [ [ [ [ [ [ [ [ [ [ [ [ [ [ [ [ [ [ [ [ [ [ [ [ [ [ [ [ [ [ [ [ [ [ [ [ [ [ [ [ [ [ [ [ [ [ [ [ [ [ [ [ [ [ [ [ [ [ [ [ [ [ [ [ [ [ [ [ [ [ [ [ [ [ [ P n n F.F.j a a N.V.V.H.H.H.H.H.H.H.H.H.H.j a a #.#.#.#.#.#.#.#.@.%.=.=.=.=.=.=.=.=.=.=.=.=.=.=.=.Q e.<X<X<X<X<X<X<X<X<X<X<X<X2X2X2X2X,X=X=X=X=X=X-X-X>X>X>X>X>X>X<X9X9X9X4X9X9X9X9X9X9X9X9X9X9X9X9X9X9X4X,X>X>X>X>X>X>X>X>X>X>X-X-X-X=X=X=X=X=X=X=X=X&X&X&X&X&X&X&X&X&X&X&X&X&X&X&X&X&X&X&X&X&X&X&X&X&X&X&X&X&X&X&X&X&X&X&X&X&X&X&X&X&X&X&X&X&X&X&X&X&X&X&X&X&X&X&X&X&X&X=X=X=X=X=X=X=X=X=X=X=X-X-X-X>X>X>X>X>X>X>X>X>X>X>X>X>X>X>X>X>X>X>X>X-X-X-X=X=X=X=X=X=X=XE.a a V.|.`.H.H.H.H.H.H.H.V.a a a a a N.F.F.F.F.F.F.n n Z L L L L L Y Y Y Y Y Y Y Y Y Y Y Y Y Y Y Y Y Y Y Y Y Y Y n n n R [ [ [ [ [ [ [ [ [ [ [ [ [ [ [ [ [ [ [ [ [ [ [ [ [ [ [ [ [ [ [ [ [ [ [ [ [ [ [ [ [ [ [ [ [ [ [ [ [ [ [ [ [ [ [ [ [ [ [ [ [ [ [ [ [ [ [ [ [ [ [ [ [ [ [ [ [ [ [ ` Y Y Y Y Y Y Y Y Y Y Y Y Y Y Y Y Y Y Y Y Y Y Y Y Y Y Y Y Y Y Y Y Y Y Y Y Y Y Y Y Y Y Y Y Y Y Y Y Y Y Y Y Y Y Y Y Y Y Y Y Y Y Y Y Y Y Y Y ` [ [ [ [ [ [ [ [ [ [ [ [ [ [ [ [ [ [ [ [ [ [ [ [ [ [ [ [ [ [ [ [ [ [ [ [ [ [ [ [ [ [ [ [ [ [ [ [ [ } | | | | | | } } } } } } [ [ [ [ [ [ [ [ [ [ [ [ [ [ [ [ [ [ [ [ [ [ [ [ [ [ [ [ [ [ [ [ [ [ [ [ [ [ [ [ [ [ [ [ [ [ [ [ [ [ ",
"Y Y Y Y Y Y Y Y Y Y Y Y Y Y Y Y Y Y Y Y Y Y Y Y Y Y Y Y Y Y Y Y Y Y Y Y Y Y Y Y Y Y Y Y Y Y Y Y Y Y Y Y _ ` ` ` ` ` ` ` ` [ [ [ [ [ [ [ [ [ [ [ [ [ [ [ [ [ [ [ [ [ [ [ [ [ [ [ [ [ [ [ [ [ [ [ [ [ [ [ [ [ [ [ [ [ [ [ [ [ [ [ [ [ [ [ [ [ [ [ [ [ [ [ [ [ [ [ [ [ [ [ [ [ [ [ [ [ [ [ [ [ [ [ [ [ [ [ [ [ [ [ [ [ [ [ [ [ [ [ [ [ [ [ [ [ [ [ [ [ [ [ [ [ [ [ [ [ [ [ [ [ [ [ [ [ [ [ [ [ [ [ [ [ [ [ [ [ [ [ [ [ [ [ [ [ [ [ [ [ [ [ [ [ [ [ [ [ [ [ [ [ [ [ [ [ [ [ [ [ [ [ [ P n n F.F.j a a N.V.V.H.H.H.H.H.H.H.H.H.H.j a a #.#.#.#.#.#.#.@.%.=.=.=.=.=.=.=.=.=.=.=.=.=.=.=.=.]  .;X<X2X<X<X<X<X<X<X<X<X<X<X<X<X,X&X&X&X&X&X&X=X=X=X=X=X=X=X,X4X9X9X9X4X9X9X9X9X9X9X9X9X9X9X9X9X9X9X,X>X>X>X>X>X>X>X>X>X>X>X>X>X>X>X>X>X>X>X-X-X-X=X=X=X=X=X=X=X=X&X&X&X&X&X&X&X&X&X&X&X&X&X&X&X&X&X&X&X&X&X&X&X&X&X&X&X&X&X&X&X&X&X&X&X&X&X&X&X=X=X=X=X=X=X=X=X=X=X=X-X-X>X>X>X>X>X>X>X>X>X>X>X>X>X>X>X>X>X>X>X>X>X>X>X>X>X>X>X>X>X>X>X>X>X>X>X>X>X>X>X>X>X-XE.a a V.|._.H.H.H.H.H.H.H.V.a a a a a N.F.F.F.F.F.F.n n Z L L L L L Y Y Y Y Y Y Y Y Y Y Y Y Y Y Y Y Y Y Y Y Y Y Y n n n R [ [ [ [ [ [ [ [ [ [ [ [ [ [ [ [ [ [ [ [ [ [ [ [ [ [ [ [ [ [ [ [ [ [ [ [ [ [ [ [ [ [ [ [ [ [ [ [ [ [ [ [ [ [ [ [ [ [ [ [ [ [ [ [ [ [ [ [ [ [ [ [ [ [ [ [ [ [ [ ` Y Y Y Y Y Y Y Y Y Y Y Y Y Y Y Y Y Y Y Y Y Y Y Y Y Y Y Y Y Y Y Y Y Y Y Y Y Y Y Y Y Y Y Y Y Y Y Y Y Y Y Y Y Y Y Y Y Y Y Y Y Y Y Y Y Y Y Y ` [ [ [ [ [ [ [ [ [ [ [ [ [ [ [ [ [ [ [ [ [ [ [ [ [ [ [ [ [ [ [ [ [ [ [ [ [ [ [ [ [ [ [ [ [ [ [ [ [ } } } } } } } [ [ [ [ [ [ [ [ [ [ [ [ [ [ [ [ [ [ [ [ [ [ [ [ [ [ [ [ [ [ [ [ [ [ [ [ [ [ [ [ [ [ [ [ [ [ [ [ [ [ [ [ [ [ [ [ ",
"Y Y Y Y Y Y Y Y Y Y Y Y Y Y Y Y Y Y Y Y Y Y Y Y Y Y Y Y Y Y Y Y Y Y Y Y Y Y Y Y Y Y Y Y Y Y Y _ ` ` ` ` ` ` ` ` [ [ [ [ [ [ [ [ [ [ [ [ [ [ [ [ [ [ [ [ [ [ [ [ [ [ [ [ [ [ [ [ [ [ [ [ [ [ [ [ [ [ [ [ [ [ [ [ [ [ [ [ [ [ [ [ [ [ [ [ [ [ [ [ [ [ [ [ [ [ [ [ [ [ [ [ [ [ [ [ [ [ [ [ [ [ [ [ [ [ [ [ [ [ [ [ [ [ [ [ [ [ [ [ [ [ [ [ [ [ [ [ [ [ [ [ [ [ [ [ [ [ [ [ [ [ [ [ [ [ [ [ [ [ [ [ [ [ [ [ [ [ [ [ [ [ [ [ [ [ [ [ [ [ [ [ [ [ [ [ [ [ [ [ [ [ [ [ [ [ [ [ [ [ [ [ [ P n n F.F.j a a N.N.V.H.H.H.H.H.H.H.H.H.H.j a a #.#.#.#.#.#.#.%.=.=.=.=.=.=.=.=.=.=.=.=.=.=.=.=.=.&. .~.2X2X2X<X<X<X<X<X<X<X<X<X<X,X=X&X&X&X&X&X&X&X&X&X&X&X&X=X<X2X4X4X4X4X4X4X4X4X9X4X4X9X9X9X9X9X9X2X>X>X>X>X>X>X>X>X>X>X>X>X>X>X>X>X>X>X>X>X>X>X>X>X>X>X>X>X>X-X-X=X=X=X=X=X=X=X=X=X&X&X&X&X&X&X&X&X&X&X&X&X&X&X&X&X&X&X&X&X&X=X=X=X=X=X=X=X=X=X-X-X>X>X>X>X>X>X>X>X>X>X>X>X>X>X>X>X>X>X>X>X>X>X>X>X>X>X>X>X>X>X>X>X>X>X>X>X>X>X>X>X>X>X>X>X>X>X>X>X>X>X>X>X>XE.a a V.|.).H.H.H.H.H.H.H.V.a a a a a N.F.F.F.F.F.F.n n Z L L L L L Y Y Y Y Y Y Y Y Y Y Y Y Y Y Y Y Y Y Y Y Y Y Y n n n R [ [ [ [ [ [ [ [ [ [ [ [ [ [ [ [ [ [ [ [ [ [ [ [ [ [ [ [ [ [ [ [ [ [ [ [ [ [ [ [ [ [ [ [ [ [ [ [ [ [ [ [ [ [ [ [ [ [ [ [ [ [ [ [ [ [ [ [ [ [ [ [ [ [ [ [ [ [ [ ` Y Y Y Y Y Y Y Y Y Y Y Y Y Y Y Y Y Y Y Y Y Y Y Y Y Y Y Y Y Y Y Y Y Y Y Y Y Y Y Y Y Y Y Y Y Y Y Y Y Y Y Y Y Y Y Y Y Y Y Y Y Y Y Y Y Y Y Y ` [ [ [ [ [ [ [ [ [ [ [ [ [ [ [ [ [ [ [ [ [ [ [ [ [ [ [ [ [ [ [ [ [ [ [ [ [ [ [ [ [ [ [ [ [ [ [ [ [ [ [ [ [ [ [ [ [ [ [ [ [ [ [ [ [ [ [ [ [ [ [ [ [ [ [ [ [ [ [ [ [ [ [ [ [ [ [ [ [ [ [ [ [ [ [ [ [ [ [ [ [ [ [ [ [ [ [ [ [ [ [ [ ",
"Y Y Y Y Y Y Y Y Y Y Y Y Y Y Y Y Y Y Y Y Y Y Y Y Y Y Y Y Y Y Y Y Y Y Y Y Y Y Y Y _ ` ` ` ` ` ` ` ` ` ` [ [ [ [ [ [ [ [ [ [ [ [ [ [ [ [ [ [ [ [ [ [ [ [ [ [ [ [ [ [ [ [ [ [ [ [ [ [ [ [ [ [ [ [ [ [ [ [ [ [ [ [ [ [ [ [ [ [ [ [ [ [ [ [ [ [ [ [ [ [ [ [ [ [ [ [ [ [ [ [ [ [ [ [ [ [ [ [ [ [ [ [ [ [ [ [ [ [ [ [ [ [ [ [ [ [ [ [ [ [ [ [ [ [ [ [ [ [ [ [ [ [ [ [ [ [ [ [ [ [ [ [ [ [ [ [ [ [ [ [ [ [ [ [ [ [ [ [ [ [ [ [ [ [ [ [ [ [ [ [ [ [ [ [ [ [ [ [ [ [ [ [ [ [ [ [ [ [ [ [ [ [ P n n F.F.j a a N.N.V.H.H.H.H.H.H.H.H.H.H.j a a #.#.#.#.#.#.@.*.=.=.=.=.=.=.=.=.=.=.=.=.=.=.=.=.=.=. .S.2X2X2X<X<X<X<X<X<X<X<X<X<X>X&X&X&X&X&X&X&X&X&X&X&X&X&X>X<X<X<X<X2X2X2X2X2X2X4X4X4X4X4X4X4X9X4X>X>X>X>X>X>X>X>X>X>X>X>X>X>X>X>X>X>X>X>X>X>X>X>X>X>X>X>X>X>X>X-X-X-X=X=X=X=X=X=X=X&X&X&X&X&X&X&X&X&X&X&X&X&X&X&X&X&X&X&X&X&X=X=X=X=X=X=X-X-X>X>X>X>X>X>X>X>X>X>X>X>X>X>X>X>X>X>X>X>X>X>X>X>X>X>X>X>X>X>X>X>X>X>X>X>X>X>X>X>X>X>X>X>X>X>X>X>X>X>X>X>X>X>X>X>XE.a a H.|.).H.H.H.H.H.H.H.V.a a a a a N.F.F.F.F.F.F.n n Z L L L L L Y Y Y Y Y Y Y Y Y Y Y Y Y Y Y Y Y Y Y Y Y Y Y n n n R [ [ [ [ [ [ [ [ [ [ [ [ [ [ [ [ [ [ [ [ [ [ [ [ [ [ [ [ [ [ [ [ [ [ [ [ [ [ [ [ [ [ [ [ [ [ [ [ [ [ [ [ [ [ [ [ [ [ [ [ [ [ [ [ [ [ [ [ [ [ [ [ [ [ [ [ [ [ [ ` Y Y Y Y Y Y Y Y Y Y Y Y Y Y Y Y Y Y Y Y Y Y Y Y Y Y Y Y Y Y Y Y Y Y Y Y Y Y Y Y Y Y Y Y Y Y Y Y Y Y Y Y Y Y Y Y Y Y Y Y Y Y Y Y Y Y Y Y ` [ [ [ ' [ [ [ [ [ [ [ [ [ [ [ [ [ [ [ [ [ [ [ [ [ [ [ [ [ [ [ [ [ [ [ [ [ [ [ [ [ [ [ [ [ [ [ [ [ [ [ [ [ [ [ [ [ [ [ [ [ [ [ [ [ [ [ [ [ [ [ [ [ [ [ [ [ [ [ [ [ [ [ [ [ [ [ [ [ [ [ [ [ [ [ [ [ [ [ [ [ [ [ [ [ [ [ [ [ [ [ [ ",
"Y Y Y Y Y Y Y Y Y Y Y Y Y Y Y Y Y Y Y Y Y Y Y Y Y Y Y Y Y Y Y Y Y _ _ ` ` ` ` ` ` ` ` ` ` [ [ [ [ [ [ [ [ [ [ [ [ [ [ [ [ [ [ [ [ [ [ [ [ [ [ [ [ [ [ [ [ [ [ [ [ [ [ [ [ [ [ [ [ [ [ [ [ [ [ [ [ [ [ [ [ [ [ [ [ [ [ [ [ [ [ [ [ [ [ [ [ [ [ [ [ [ [ [ [ [ [ [ [ [ [ [ [ [ [ [ [ [ [ [ [ [ [ [ [ [ [ [ [ [ [ [ [ [ [ [ [ [ [ [ [ [ [ [ [ [ [ [ [ [ [ [ [ [ [ [ [ [ [ [ [ [ [ [ [ [ [ [ [ [ [ [ [ [ [ [ [ [ [ [ [ [ [ [ [ [ [ [ [ [ [ [ [ [ [ [ [ [ [ [ [ [ [ [ [ [ [ [ [ [ [ [ [ P n n F.F.j a a N.V.V.H.H.H.H.H.H.H.H.H.H.j a a #.#.#.#.#.@.%.=.=.=.=.=.=.=.=.=.=.=.=.=.=.=.=.=.=.=.Q ..<X<X<X<X<X<X<X<X<X<X<X<X,X&X&X&X&X&X&X&X&X&X&X&X&X&X=X,X<X<X<X<X<X<X<X<X<X<X<X<X<X2X2X2X2X2X>X=X=X-X-X-X>X>X>X>X>X>X>X>X>X>X>X>X>X>X>X-X-X=X=X=X=X=X=X=X=X=X=X=X=X&X&X&X&X&X&X&X&X&X&X&X&X&X&X&X&X&X&X&X&X&X&X&X&X&X&X&X&X&X&X&X&X&X&X=X=X=X=X=X=X=X=X-X-X-X>X>X>X>X>X>X>X>X>X>X>X>X>X>X>X>X>X>X>X>X>X>X>X>X>X>X>X>X>X>X>X>X>X>X>X>X>X>X>X>X>X>X>X>X>X>X>XE.a a ).|._.H.H.H.H.H.H.H.V.a a a a a N.F.F.F.F.F.F.n n Z L L L L L Y Y Y Y Y Y Y Y Y Y Y Y Y Y Y Y Y Y Y Y Y Y Y n n n R [ [ [ [ [ [ [ [ [ [ [ [ [ [ [ [ [ [ [ [ [ [ [ [ [ [ [ [ [ [ [ [ [ [ [ [ [ [ [ [ [ [ [ [ [ [ [ [ [ [ [ [ [ [ [ [ [ [ [ [ [ [ [ [ [ [ [ [ [ [ [ [ [ [ [ [ [ [ [ ` Y Y Y Y Y Y Y Y Y Y Y Y Y Y Y Y Y Y Y Y Y Y Y Y Y Y Y Y Y Y Y Y Y Y Y Y Y Y Y Y Y Y Y Y Y Y Y Y Y Y Y Y Y Y Y Y Y Y Y Y Y Y Y Y Y Y Y Y ` [ [ [ [ [ [ [ [ [ [ [ [ [ [ [ [ [ [ [ [ [ [ [ [ [ [ [ [ [ [ [ [ [ [ [ [ [ [ [ [ [ [ [ [ [ [ [ [ [ [ [ [ [ [ [ [ [ [ [ [ [ [ [ [ [ [ [ [ [ [ [ [ [ [ [ [ [ [ [ [ [ [ [ [ [ [ [ [ [ [ [ [ [ [ [ [ [ [ [ [ [ [ [ [ [ [ [ [ [ [ [ [ ",
"Y Y Y Y Y Y Y Y Y Y Y Y Y Y Y Y Y Y Y Y Y Y Y Y Y _ _ ` ` ` ` ` ` ` ` ` ` ` [ [ [ [ [ [ [ [ [ [ [ [ [ [ [ [ [ [ [ [ [ [ [ [ [ [ [ [ [ [ [ [ [ [ [ [ [ [ [ [ [ [ [ [ [ [ [ [ [ [ [ [ [ [ [ [ [ [ [ [ [ [ [ [ [ [ [ [ [ [ [ [ [ [ [ [ [ [ [ [ [ [ [ [ [ [ [ [ [ [ [ [ [ [ [ [ [ [ [ [ [ [ [ [ [ [ [ [ [ [ [ [ [ [ [ [ [ [ [ [ [ [ [ [ [ [ [ [ [ [ [ [ [ [ [ [ [ [ [ [ [ [ [ [ [ [ [ [ [ [ [ [ [ [ [ [ [ [ [ [ [ [ [ [ [ [ [ [ [ [ [ [ [ [ [ [ [ [ [ [ [ [ [ [ [ [ [ [ [ [ [ [ [ [ [ P n n F.F.j a a N.V.V.H.H.H.H.H.H.H.H.H.H.j a a #.#.#.#.#.%.=.=.=.=.=.=.=.=.=.=.=.=.=.=.=.=.=.=.=.=.]  .^.<X<X<X<X<X<X<X<X<X<X,X=X&X&X&X&X&X&X&X&X&X&X&X&X&X,X<X<X<X<X<X<X<X<X<X<X<X<X<X<X<X<X<X2X>X&X&X&X=X=X=X=X=X>X>X-X-X=X=X=X=X=X=X=X=X=X=X=X&X&X&X&X&X&X&X&X&X&X&X&X&X&X&X&X&X&X&X&X&X&X&X&X&X&X&X&X&X&X&X&X&X&X&X&X&X&X&X&X&X&X&X&X&X&X&X&X&X&X&X&X&X&X=X=X=X=X=X=X=X=X-X-X-X>X>X>X>X>X>X>X>X>X>X>X>X>X>X>X>X>X>X>X>X>X>X>X>X>X>X>X>X>X>X>X>X>X>X>X>X>X>X>XE.a a ).|._.H.H.H.H.H.H.H.V.a a a a a N.F.F.F.F.F.F.n n Z L L L L L Y Y Y Y Y Y Y Y Y Y Y Y Y Y Y Y Y Y Y Y Y Y Y n n n R [ [ [ [ [ [ [ [ [ [ [ [ [ [ [ [ [ [ [ [ [ [ [ [ [ [ [ [ [ [ [ [ [ [ [ [ [ [ [ [ [ [ [ [ [ [ [ [ [ [ [ [ [ [ [ [ [ [ [ [ [ [ [ [ [ [ [ [ [ [ [ [ [ [ [ [ [ [ [ ` Y Y Y Y Y Y Y Y Y Y Y Y Y Y Y Y Y Y Y Y Y Y Y Y Y Y Y Y Y Y Y Y Y Y Y Y Y Y Y Y Y Y Y Y Y Y Y Y Y Y Y Y Y Y Y Y Y Y Y Y Y Y Y Y Y Y Y Y ` [ [ [ [ [ [ [ [ [ [ [ [ [ [ [ [ [ [ [ [ [ [ [ [ [ [ [ [ [ [ [ [ [ [ [ [ [ [ [ [ } } } } } [ [ [ [ [ [ [ [ [ [ [ [ [ [ [ [ [ [ [ [ [ [ [ [ [ [ [ [ [ [ [ [ [ [ [ [ [ [ [ [ [ [ [ [ [ [ [ [ [ [ [ [ [ [ [ [ [ [ [ [ [ [ [ [ [ [ [ ",
"Y Y Y Y Y Y Y Y Y Y Y Y Y Y Y _ _ ` ` ` ` ` ` ` ` ` ` ` ` ` ` [ [ [ [ [ [ [ [ [ [ [ [ [ [ [ [ [ [ [ [ [ [ [ [ [ [ [ [ [ [ [ [ [ [ [ [ [ [ [ [ [ [ [ [ [ [ [ [ [ [ [ [ [ [ [ [ [ [ [ [ [ [ [ [ [ [ [ [ [ [ [ [ [ [ [ [ [ [ [ [ [ [ [ [ [ [ [ [ [ [ [ [ [ [ [ [ [ [ [ [ [ [ [ [ [ [ [ [ [ [ [ [ [ [ [ [ [ [ [ [ [ [ [ [ [ [ [ [ [ [ [ [ [ [ [ [ [ [ [ [ [ [ [ [ [ [ [ [ [ [ [ [ [ [ [ [ [ [ [ [ [ [ [ [ [ [ [ [ [ [ [ [ [ [ [ [ [ [ [ [ [ [ [ [ [ [ [ [ [ [ [ [ [ [ [ [ [ [ [ [ [ [ P n n F.F.j a a N.V.F.H.H.H.H.H.H.H.H.H.H.j a a #.#.#.#.@.*.=.=.=.=.=.=.=.=.=.=.=.=.=.=.=.=.=.=.=.=.&. .J.<X<X<X<X<X<X<X<X<X<X=X&X&X&X&X&X&X&X&X&X&X&X&X&X>X<X<X<X<X<X<X<X<X<X<X<X<X<X<X<X<X<X<X,X&X&X&X&X&X&X&X&X&X=X-X=X=X&X&X&X&X&X&X&X&X&X&X&X&X&X&X&X&X&X&X&X&X&X&X&X&X&X&X&X&X&X&X&X&X&X&X&X&X&X&X&X&X&X&X&X&X&X&X&X&X&X&X&X&X&X&X&X&X&X&X&X&X&X&X&X&X&X&X&X&X&X&X&X&X&X=X=X=X=X=X=X=X=X=X-X-X>X>X>X>X>X>X>X>X>X>X>X>X>X>X>X>X>X>X>X>X>X>X>X>X>X>X>X>X>X>X-XE.a a ).|._.H.H.H.H.H.H.H.V.a a a a a N.F.F.F.F.F.F.n n Z L L L L L Y Y Y Y Y Y Y Y Y Y Y Y Y Y Y Y Y Y Y Y Y Y Y n n n R [ [ [ [ [ [ [ [ [ [ [ [ [ [ [ [ [ [ [ [ [ [ [ [ [ [ [ [ [ [ [ [ [ [ [ [ [ [ [ [ [ [ [ [ [ [ [ [ [ [ [ [ [ [ [ [ [ [ [ [ [ [ [ [ [ [ [ [ [ [ [ [ [ [ [ [ [ [ [ ` Y Y Y Y Y Y Y Y Y Y Y Y Y Y Y Y Y Y Y Y Y Y Y Y Y Y Y Y Y Y Y Y Y Y Y Y Y Y Y Y Y Y Y Y Y Y Y Y Y Y Y Y Y Y Y Y Y Y Y Y Y Y Y Y Y Y Y Y ` [ [ [ [ [ [ [ [ [ [ [ [ [ [ [ [ [ [ [ [ [ [ [ [ [ [ [ [ [ [ [ [ [ [ } } } } } } | | | | | } [ [ [ [ [ [ [ [ [ [ [ [ [ [ [ [ [ [ [ [ [ [ [ [ [ [ [ [ [ [ [ [ [ [ [ [ [ [ [ [ [ [ [ [ [ [ [ [ [ [ [ [ [ [ [ [ [ [ [ [ [ [ [ [ [ [ ",
"` ` ` ` ` ` ` ` ` ` ` ` ` ` ` ` ` ` ` ` ` ` ` [ [ [ [ [ [ [ [ [ [ [ [ [ [ [ [ [ [ [ [ [ [ [ [ [ [ [ [ [ [ [ [ [ [ [ [ [ [ [ [ [ [ [ [ [ [ [ [ [ [ [ [ [ [ [ [ [ [ [ [ [ [ [ [ [ [ [ [ [ [ [ [ [ [ [ [ [ [ [ [ [ [ [ [ [ [ [ [ [ [ [ [ [ [ [ [ [ [ [ [ [ [ [ [ [ [ [ [ [ [ [ [ [ [ [ [ [ [ [ [ [ [ [ [ [ [ [ [ [ [ [ [ [ [ [ [ [ [ [ [ [ [ [ [ [ [ [ [ [ [ [ [ [ [ [ [ [ [ [ [ [ [ [ [ [ [ [ [ [ [ [ [ [ [ [ [ [ [ [ [ [ [ [ [ [ [ [ [ [ [ [ [ [ [ [ [ [ [ [ [ [ [ [ [ [ [ [ [ [ [ P n n F.F.j a a N.V.F.H.H.H.H.H.H.H.H.H.H.j a a #.#.#.@.%.=.=.=.=.=.=.=.=.=.=.=.=.=.=.=.=.=.=.=.=.=.=. .e.<X<X<X<X<X<X<X<X<X>X&X&X&X&X&X&X&X&X&X&X&X&X&X=X<X<X<X<X<X<X<X<X<X<X<X<X<X<X<X<X<X<X,X=X&X&X&X&X&X&X&X&X=X=X=X=X&X&X&X&X&X&X&X&X&X&X&X&X&X&X&X&X&X&X&X&X&X&X&X&X&X&X&X&X&X&X&X&X&X&X&X&X&X&X&X&X&X&X&X&X&X&X&X&X&X&X&X&X&X&X&X&X&X&X&X&X&X&X&X&X&X&X&X&X&X&X&X&X&X&X&X&X&X&X&X&X&X&X&X=X=X=X=X=X=X=X=X-X-X>X>X>X>X>X>X>X>X>X>X>X-X-X=X=X=X=X=X=X=X=X=X=XE.a a ).|.).H.H.H.H.H.H.H.V.a a a a a N.F.F.F.F.F.F.n n Z L L L L L Y Y Y Y Y Y Y Y Y Y Y Y Y Y Y Y Y Y Y Y Y Y Y n n n R [ [ [ [ [ [ [ [ [ [ [ [ [ [ [ [ [ [ [ [ [ [ [ [ [ [ [ [ [ [ [ [ [ [ [ [ [ [ [ [ [ [ [ [ [ [ [ [ [ [ [ [ [ [ [ [ [ [ [ [ [ [ [ [ [ [ [ [ [ [ [ [ [ [ [ [ [ [ [ ` Y Y Y Y Y Y Y Y Y Y Y Y Y Y Y Y Y Y Y Y Y Y Y Y Y Y Y Y Y Y Y Y Y Y Y Y Y Y Y Y Y Y Y Y Y Y Y Y Y Y Y Y Y Y Y Y Y Y Y Y Y Y Y Y _ ` ` ` ` [ [ [ [ [ [ [ [ [ [ [ [ [ [ [ [ [ [ [ [ [ [ [ [ [ [ [ } } } } } } } | | | | | | | | | | | } [ [ [ [ [ [ [ [ [ [ [ [ [ [ [ [ [ [ [ [ [ [ [ [ [ [ [ [ [ [ [ [ [ [ [ [ [ [ [ [ [ [ [ [ [ [ [ [ [ [ [ [ [ [ [ [ [ [ [ [ [ [ [ [ [ [ ",
"` ` ` ` ` ` ` ` ` ` ` [ [ [ [ [ [ [ [ [ [ [ [ [ [ [ [ [ [ [ [ [ [ [ [ [ [ [ [ [ [ [ [ [ [ [ [ [ [ [ [ [ [ [ [ [ [ [ [ [ [ [ [ [ [ [ [ [ [ [ [ [ [ [ [ [ [ [ [ [ [ [ [ [ [ [ [ [ [ [ [ [ [ [ [ [ [ [ [ [ [ [ [ [ [ [ [ [ [ [ [ [ [ [ [ [ [ [ [ [ [ [ [ [ [ [ [ [ [ [ [ [ [ [ [ [ [ [ [ [ [ [ [ [ [ [ [ [ [ [ [ [ [ [ [ [ [ [ [ [ [ [ [ [ [ [ [ [ [ [ [ [ [ [ [ [ [ [ [ [ [ [ [ [ [ [ [ [ [ [ [ [ [ [ [ [ [ [ [ [ [ [ [ [ [ [ [ [ [ [ [ [ [ [ [ [ [ [ [ [ [ [ [ [ [ [ [ [ [ [ [ [ [ P n n F.F.j a a l V.F.H.H.H.H.H.H.H.H.H.H.j a a #.#.#.%.=.=.=.=.=.=.=.=.=.=.=.=.=.=.=.=.=.=.=.=.=.=.=.O. .;X<X<X<X<X<X<X<X,X&X&X&X&X&X&X&X&X&X&X&X&X&X&X,X<X<X<X<X<X<X<X<X2X<X2X2X2X2X2X2X2X2X,X=X=X=X=X=X=X-X-X-X>X-X-X=X=X=X=X=X&X&X&X&X&X&X&X&X&X&X&X&X&X&X&X&X&X&X&X&X&X&X&X&X&X&X&X&X&X&X&X&X&X&X&X&X&X&X&X&X&X&X&X&X&X&X&X&X&X&X&X&X&X&X&X&X&X&X&X&X&X&X&X&X&X&X&X&X&X&X&X&X&X&X&X&X&X&X&X&X&X&X&X&X&X&X&X=X=X=X-X=X=X=X=X=X=X=X=X=X=X=X&X&X&X&X&X&X&X&X&X&XU.a a ).|.).H.H.H.H.H.H.H.V.a a a a a N.F.F.F.F.F.F.n n Z L L L L L Y Y Y Y Y Y Y Y Y Y Y Y Y Y Y Y Y Y Y Y Y Y Y n n n R [ [ [ [ [ [ [ [ [ [ [ [ [ [ [ [ [ [ [ [ [ [ [ [ [ [ [ [ [ [ [ [ [ [ [ [ [ [ [ [ [ [ [ [ [ [ [ [ [ [ [ [ [ [ [ [ [ [ [ [ [ [ [ [ [ [ [ [ [ [ [ [ [ [ [ [ [ [ [ ` Y Y Y Y Y Y Y Y Y Y Y Y Y Y Y Y Y Y Y Y Y Y Y Y Y Y Y Y Y Y Y Y Y Y Y Y Y Y Y Y Y Y Y Y Y Y Y Y Y Y Y Y Y ~ ~ ~ Y Y Y _ ` ` ` ` ` ` ` ` [ [ [ [ [ [ [ [ [ [ [ [ [ [ [ [ [ [ [ [ [ } } } } } } } | | | | | | | | | | | | | | | | | | } [ [ [ [ [ [ [ [ [ [ [ [ [ [ [ [ [ [ [ [ [ [ [ [ [ [ [ [ [ [ [ [ [ [ [ [ [ [ [ [ [ [ [ [ [ [ [ [ [ [ [ [ [ [ [ [ [ [ [ [ [ [ [ [ [ [ ",
"[ [ [ [ [ [ [ [ [ [ [ [ [ [ [ [ [ [ [ [ [ [ [ [ [ [ [ [ [ [ [ [ [ [ [ [ [ [ [ [ [ [ [ [ [ [ [ [ [ [ [ [ [ [ [ [ [ [ [ [ [ [ [ [ [ [ [ [ [ [ [ [ [ [ [ [ [ [ [ [ [ [ [ [ [ [ [ [ [ [ [ [ [ [ [ [ [ [ [ [ [ [ [ [ [ [ [ [ [ [ [ [ [ [ [ [ [ [ [ [ [ [ [ [ [ [ [ [ [ [ [ [ [ [ [ [ [ [ [ [ [ [ [ [ [ [ [ [ [ [ [ [ [ [ [ [ [ [ [ [ [ [ [ [ [ [ [ [ [ [ [ [ [ [ [ [ [ [ [ [ [ [ [ [ [ [ [ [ [ [ [ [ [ [ [ [ [ [ [ [ [ [ [ [ [ [ [ [ [ [ [ [ [ [ [ [ [ [ [ [ [ [ [ [ [ [ [ [ [ [ [ [ [ P n n F.F.j a a l V.H.H.H.H.H.H.H.H.H.H.H.j a a #.#.%.=.=.=.=.=.=.=.=.=.=.=.=.=.=.=.=.=.=.=.=.=.=.=.=.[  .~.<X<X<X<X<X<X,X=X&X&X&X&X&X&X&X&X&X&X&X&X&X,X2X2X2X2X2X2X2X2X2X4X2X4X4X4X4X4X4X9X4X>X>X>X>X>X>X>X>X>X>X>X>X>X>X>X>X>X>X-X-X=X=X=X=X=X&X&X&X&X&X&X&X&X&X&X&X&X&X&X&X&X&X&X&X&X&X&X&X&X&X&X&X&X&X&X&X&X&X&X&X&X&X&X&X&X&X&X&X&X&X&X&X&X&X&X&X&X&X&X&X&X&X&X&X&X&X&X&X&X&X&X&X&X&X&X&X&X&X&X&X&X&X&X&X&X&X&X=X=X=X=X=X&X&X&X&X&X&X&X&X&X&X&X&X&X&X&X&X&X&XA.a a ).|.).H.H.H.H.H.H.H.N.a a a a a V.F.F.F.F.F.F.n n Z L L L L U Y Y Y Y Y Y Y Y Y Y Y Y Y Y Y Y Y Y Y Y Y Y U n n n R [ [ [ [ [ [ [ [ [ [ [ [ [ [ [ [ [ [ [ [ [ [ [ [ [ [ [ [ [ [ [ [ [ [ [ [ [ [ [ [ [ [ [ [ [ [ [ [ [ [ [ [ [ [ [ [ [ [ [ [ [ [ [ [ [ [ [ [ [ [ [ [ [ [ [ [ [ [ [ ` Y Y Y Y Y Y Y Y Y Y Y Y Y Y Y Y Y Y Y Y Y Y Y Y Y Y Y Y Y Y Y Y Y Y Y Y Y Y Y Y Y Y Y Y Y Y ~ Y Y Y Y Y Y ~ ` ` ` ` ` ` ` ` [ [ [ [ [ [ [ [ [ [ [ [ [ [ [ [ [ [ [ [ [ } } } } } } | | | | | | | | | | | | | | | | | | | | | | | | | } [ [ [ [ [ [ [ [ [ [ [ [ [ [ [ [ [ [ [ [ [ [ [ [ [ [ [ [ [ [ [ [ [ [ [ [ [ [ [ [ [ [ [ [ [ [ [ [ [ [ [ [ [ [ [ [ [ [ [ [ [ [ [ [ [ [ ",
"[ [ [ [ [ [ [ [ [ [ [ [ [ [ [ [ [ [ [ [ [ [ [ [ [ [ [ [ [ [ [ [ [ [ [ [ [ [ [ [ [ [ [ [ [ [ [ [ [ [ [ [ [ [ [ [ [ [ [ [ [ [ [ [ [ [ [ [ [ [ [ [ [ [ [ [ [ [ [ [ [ [ [ [ [ [ [ [ [ [ [ [ [ [ [ [ [ [ [ [ [ [ [ [ [ [ [ [ [ [ [ [ [ [ [ [ [ [ [ [ [ [ [ [ [ [ [ [ [ [ [ [ [ [ [ [ [ [ [ [ [ [ [ [ [ [ [ [ [ [ [ [ [ [ [ [ [ [ [ [ [ [ [ [ [ [ [ [ [ [ [ [ [ [ [ [ [ [ [ [ [ [ [ [ [ [ [ [ [ [ [ [ [ [ [ [ [ [ [ [ [ [ [ [ [ [ [ [ [ [ [ [ [ [ [ [ [ [ [ [ [ [ [ [ [ [ [ [ [ [ [ [ [ P n n F.F.j a a l V.H.H.H.H.H.H.H.H.H.H.H.j a D #.@.*.=.=.=.=.=.=.=.=.=.=.=.=.=.=.=.=.=.=.=.=.=.=.=.=.*. .S.<X<X<X<X<X<X>X&X&X&X&X&X&X&X&X&X&X=X=X=X,X4X4X4X4X4X4X4X9X9X9X9X9X9X9X9X9X9X9X4X,X>X>X>X>X>X>X>X>X>X>X>X>X>X>X>X>X>X>X>X>X>X>X>X>X>X-X-X=X=X=X=X=X&X&X&X&X&X&X&X&X&X&X&X&X&X&X&X&X&X&X&X&X&X&X&X&X&X&X&X&X&X&X&X&X&X&X&X&X&X&X&X&X&X&X&X&X&X&X&X&X&X&X&X&X&X&X&X&X&X&X&X&X&X&X&X&X&X&X&X&X&X&X&X=X=X=X=X=X=X=X=X=X&X&X&X&X&X&X&X&X&X&X&X&X&X&X&X&X&X&XA.a a ).|.).H.H.H.H.H.H.H.N.a a a a a F.F.F.F.F.F.F.n n Z L L L L U Y Y Y Y Y Y Y Y Y Y Y Y Y Y Y Y Y Y Y Y Y Y U n n n R [ [ [ [ [ [ [ [ [ [ [ [ [ [ [ [ [ [ [ [ [ [ [ [ [ [ [ [ [ [ [ [ [ [ [ [ [ [ [ [ [ [ [ [ [ [ [ [ [ [ [ [ [ [ [ [ [ [ [ [ [ [ [ [ [ [ [ [ [ [ [ [ [ [ [ [ [ [ [ ` Y Y Y Y Y Y Y Y Y Y Y Y Y Y Y Y Y Y Y Y Y Y Y Y Y Y Y Y Y Y Y Y Y Y Y Y Y Y Y Y Y Y Y Y Y ~ ~ Y _ ` ` ` ` ` ` ` [ [ [ [ [ [ [ [ [ [ [ [ [ [ [ [ [ [ [ [ [ [ } } } } } | | | | | | | | | | | | | | | | | | | | | | | | | | | | | | | } [ [ [ [ [ [ [ [ [ [ [ [ [ [ [ [ [ [ [ [ [ [ [ [ [ [ [ [ [ [ [ [ [ [ [ [ [ [ [ [ [ [ [ [ [ [ [ [ [ [ [ [ [ [ [ [ [ [ [ [ [ [ [ [ [ [ ",
"[ [ [ [ [ [ [ [ [ [ [ [ [ [ [ [ [ [ [ [ [ [ [ [ [ [ [ [ [ [ [ [ [ [ [ [ [ [ [ [ [ [ [ [ [ [ [ [ [ [ [ [ [ [ [ [ [ [ [ [ [ [ [ [ [ [ [ [ [ [ [ [ [ [ [ [ [ [ [ [ [ [ [ [ [ [ [ [ [ [ [ [ [ [ [ [ [ [ [ [ [ [ [ [ [ [ [ [ [ [ [ [ [ [ [ [ [ [ [ [ [ [ [ [ [ [ [ [ [ [ [ [ [ [ [ [ [ [ [ [ [ [ [ [ [ [ [ [ [ [ [ [ [ [ [ [ [ [ [ [ [ [ [ [ [ [ [ [ [ [ [ [ [ [ [ [ [ [ [ [ [ [ [ [ [ [ [ [ [ [ [ [ [ [ [ [ [ [ [ [ [ [ [ [ [ [ [ [ [ [ [ [ [ [ [ [ [ [ [ [ [ [ [ [ [ [ [ [ [ [ [ [ [ P n n F.F.j a a l V.H.H.H.H.H.H.H.H.H.H.H.j a D @.%.=.=.=.=.=.=.=.=.=.=.=.=.=.=.=.=.=.=.=.=.=.=.=.=.=.=. ...<X<X<X<X<X,X=X&X=X=X=X=X=X=X-X-X-X>X>X,X4X9X9X9X9X9X9X9X9X9X9X9X9X9X9X9X9X9X9X2X>X>X>X>X>X>X>X>X>X>X>X>X>X>X>X>X>X>X>X>X>X>X>X>X>X>X>X>X>X>X>X>X>X-X-X=X=X=X=X=X&X&X&X&X&X&X&X&X&X&X&X&X&X&X&X&X&X&X&X&X&X&X&X&X&X&X&X&X&X&X&X&X&X&X&X&X&X&X&X&X&X&X&X&X&X&X&X&X&X&X&X&X=X=X=X=X=X=X=X=X=X-X-X-X>X>X>X>X>X>X>X-X-X=X=X=X=X=X=X&X&X&X&X&X&X&X&X&X&X&X&XA.a a ).|.).H.H.H.H.H.H.H.N.a a a a a F.F.F.F.F.F.F.n n Z L L L L U Y Y Y Y Y Y Y Y Y Y Y Y Y Y Y Y Y Y Y Y Y Y U n n n R [ [ [ [ [ [ [ [ [ [ [ [ [ [ [ [ [ [ [ [ [ [ [ [ [ [ [ [ [ [ [ [ [ [ [ [ [ [ [ [ [ [ [ [ [ [ [ [ [ [ [ [ [ [ [ [ [ [ [ [ [ [ [ [ [ [ [ [ [ [ [ [ [ [ [ [ [ [ [ ` Y Y Y Y Y Y Y Y Y Y Y Y Y Y Y Y Y Y Y Y Y Y Y Y Y Y Y Y Y Y Y Y Y Y Y Y Y Y Y Y Y Y Y _ ` ` ` ` ` ` ` ` [ [ [ [ [ [ [ [ [ [ [ [ [ [ [ [ [ [ [ } } } } } | | | | | | | | | | | | | | | | | | | | | | | | | | | | | | | | | | | | | | } [ [ [ [ [ [ [ [ [ [ [ [ [ [ [ [ [ [ [ [ [ [ [ [ [ [ [ [ [ [ [ [ [ [ [ [ [ [ [ [ [ [ [ [ [ [ [ [ [ [ [ [ [ [ [ [ [ [ [ [ [ [ [ [ [ [ ",
"[ [ [ [ [ [ [ [ [ [ [ [ [ [ [ [ [ [ [ [ [ [ [ [ [ [ [ [ [ [ [ [ [ [ [ [ [ [ [ [ [ [ [ [ [ [ [ [ [ [ [ [ [ [ [ [ [ [ [ [ [ [ [ [ [ [ [ [ [ [ [ [ [ [ [ [ [ [ [ [ [ [ [ [ [ [ [ [ [ [ [ [ [ [ [ [ [ [ [ [ [ [ [ [ [ [ [ [ [ [ [ [ [ [ [ [ [ [ [ [ [ [ [ [ [ [ [ [ [ [ [ [ [ [ [ [ [ [ [ [ [ [ [ [ [ [ [ [ [ [ [ [ [ [ [ [ [ [ [ [ [ [ [ [ [ [ [ [ [ [ [ [ [ [ [ [ [ [ [ [ [ [ [ [ [ [ [ [ [ [ [ [ [ [ [ [ [ [ [ [ [ [ [ [ [ [ [ [ [ [ [ [ [ [ [ [ [ [ [ [ [ [ [ [ [ [ [ [ [ [ [ [ [ P n n F.F.j a a N.V.H.H.H.H.H.H.H.H.H.H.H.j a D %.*.*.*.=.=.=.=.=.=.=.=.=.=.=.=.=.=.=.=.=.=.=.=.=.=.=.=.O. .^.<X<X<X,X=X&X=X=X=X=X=X=X=X>X>X>X>X>X2X9X9X9X9X9X9X9X9X9X9X9X4X4X9X9X9X9X9X2X>X>X>X>X>X>X>X>X>X>X>X>X>X>X>X>X>X>X>X>X>X>X>X>X>X>X>X>X>X>X>X>X>X>X>X>X>X>X>X>X>X-X-X=X=X=X=X=X&X&X&X&X&X&X&X&X&X&X&X&X&X&X&X&X&X&X&X&X&X&X&X&X&X&X&X&X&X&X&X&X&X&X=X=X=X=X=X=X=X=X=X-X-X>X>X>X>X>X>X>X>X>X>X>X>X>X>X>X>X>X>X>X>X>X>X>X>X>X>X>X-X-X-X=X=X=X=X=X=X&X=X&XA.a a ).|.).H.H.H.H.H.H.H.N.a a a a a F.F.F.F.F.F.F.n n Z L L L L U Y Y Y Y Y Y Y Y Y Y Y Y Y Y Y Y Y Y Y Y Y Y U n n n R [ [ [ [ [ [ [ [ [ [ [ [ [ [ [ [ [ [ [ [ [ [ [ [ [ [ [ [ [ [ [ [ [ [ [ [ [ [ [ [ [ [ [ [ [ [ [ [ [ [ [ [ [ [ [ [ [ [ [ [ [ [ [ [ [ [ [ [ [ [ [ [ [ [ [ [ [ [ [ ` Y Y Y Y Y Y Y Y Y Y Y Y Y Y Y Y Y Y Y Y Y Y Y Y Y Y Y Y Y Y Y Y Y Y Y Y Y Y _ ` ` ` ` ` ` ` ` [ [ [ [ [ [ [ [ [ [ [ [ [ [ [ [ [ [ } } } } | | | | | | | | | | | | | | | | | | | | | | | | | | | | | | | | | | | | | | | | | | | | | } [ [ [ [ [ [ [ [ [ [ [ [ [ [ [ [ [ [ [ [ [ [ [ [ [ [ [ [ [ [ [ [ [ [ [ [ [ [ [ [ [ [ [ [ [ [ [ [ [ [ [ [ [ [ [ [ [ [ [ [ [ [ [ [ [ [ ",
"[ [ [ [ [ [ [ [ [ [ [ [ [ [ [ [ [ [ [ [ [ [ [ [ [ [ [ [ [ [ [ [ [ [ [ [ [ [ [ [ [ [ [ [ [ [ [ [ [ [ [ [ [ [ [ [ [ [ [ [ [ [ [ [ [ [ [ [ [ [ [ [ [ [ [ [ [ [ [ [ [ [ [ [ [ [ [ [ [ [ [ [ [ [ [ [ [ [ [ [ [ [ [ [ [ [ [ [ [ [ [ [ [ [ [ [ [ [ [ [ [ [ [ [ [ [ [ [ [ [ [ [ [ [ [ [ [ [ [ [ [ [ [ [ [ [ [ [ [ [ [ [ [ [ [ [ [ [ [ [ [ [ [ [ [ [ [ [ [ [ [ [ [ [ [ [ [ [ [ [ [ [ [ [ [ [ [ [ [ [ [ [ [ [ [ [ [ [ [ [ [ [ [ [ [ [ [ [ [ [ [ [ [ [ [ [ [ [ [ [ [ [ [ [ [ [ [ [ [ [ [ [ [ P n n F.F.j a a N.V.H.H.H.H.H.H.H.H.H.H.H.j a  .*.*.*.=.=.=.=.=.=.=.=.=.=.=.=.=.=.=.=.=.=.=.=.=.=.=.=.=.[  .J.<X<X<X=X&X&X&X&X&X&X&X&X&X=X=X=X=X,X4X4X4X4X9X9X9X9X9X9X9X9X4X4X9X9X9X4X4X,X>X>X>X>X>X>X>X>X>X>X>X>X>X>X>X>X>X>X>X>X>X>X>X>X>X>X>X>X>X>X>X>X>X>X>X>X>X>X>X>X>X>X=X=X=X=X=X=X=X=X&X&X&X&X&X&X&X&X&X&X&X&X&X&X&X&X&X&X&X&X&X&X&X&X=X=X=X=X=X=X-X-X>X>X>X>X>X>X>X>X>X>X>X>X>X>X>X>X>X>X>X>X>X>X>X>X>X>X>X>X>X>X>X>X>X>X>X>X>X>X>X>X>X>X>X>X>X>X>X-X-X=XA.a a ).|.).H.H.H.H.H.H.H.N.a a a a a F.F.F.F.F.F.F.n n Z L L L L U Y Y Y Y Y Y Y Y Y Y Y Y Y Y Y Y Y Y Y Y Y Y U n n n R [ [ [ [ [ [ [ [ [ [ [ [ [ [ [ [ [ [ [ [ [ [ [ [ [ [ [ [ [ [ [ [ [ [ [ [ [ [ [ [ [ [ [ [ [ [ [ [ [ [ [ [ [ [ [ [ [ [ [ [ [ [ [ [ [ [ [ [ [ [ [ [ [ [ [ [ [ [ [ ` Y Y Y Y Y Y Y Y Y Y Y Y Y Y Y Y Y Y Y Y Y Y Y Y Y Y Y Y Y Y Y Y _ ` ` ` ` ` ` ` ` [ [ [ [ [ [ [ [ [ [ [ [ [ [ [ [ [ } } } } } | | | | | | | | | | | | | | | | | | | | | | | | | | | | | | | | | | | | | | | | | | | | | | | | | | | [ [ ' [ [ [ [ [ [ [ [ [ [ [ [ [ [ [ [ [ [ [ [ [ [ [ [ [ [ [ [ [ [ [ [ [ [ [ [ [ [ [ [ [ [ [ [ [ [ [ [ [ [ [ [ [ [ [ [ [ [ [ [ [ [ [ [ ",
"[ [ [ [ [ [ [ [ [ [ [ [ [ [ [ [ [ [ [ [ [ [ [ [ [ [ [ [ [ [ [ [ [ [ [ [ [ [ [ [ [ [ [ [ [ [ [ [ [ [ [ [ [ [ [ [ [ [ [ [ [ [ [ [ [ [ [ [ [ [ [ [ [ [ [ [ [ [ [ [ [ [ [ [ [ [ [ [ [ [ [ [ [ [ [ [ [ [ [ [ [ [ [ [ [ [ [ [ [ [ [ [ [ [ [ [ [ [ [ [ [ [ [ [ [ [ [ [ [ [ [ [ [ [ [ [ [ [ [ [ [ [ [ [ [ [ [ [ [ [ [ [ [ [ [ [ [ [ [ [ [ [ [ [ [ [ [ [ [ [ [ [ [ [ [ [ [ [ [ [ [ [ [ [ [ [ [ [ [ [ [ [ [ [ [ [ [ [ [ [ [ [ [ [ [ [ [ [ [ [ [ [ [ [ [ [ [ [ [ [ [ [ [ [ [ [ [ [ [ [ [ [ [ P n n F.F.j a a N.V.H.H.H.H.H.H.H.H.H.H.H.j a  .=.=.*.=.=.=.=.=.=.=.=.=.=.=.=.=.=.=.=.=.=.=.=.=.=.=.=.=.*. .e.<X<X>X&X&X&X&X&X&X&X&X&X&X&X&X&X=X<X2X2X2X2X4X4X4X4X4X4X9X9X9X9X9X9X4X4X2X>X>X>X>X>X>X>X>X>X>X>X>X>X>X>X>X>X>X>X>X>X>X>X>X>X>X>X>X>X>X>X>X-X=X=X=X=X=X=X=X=X=X=X&X&X&X&X&X&X&X&X&X&X&X&X&X&X&X&X&X&X&X&X&X&X&X&X&X&X&X&X&X&X&X=X=X=X=X=X=X=X>X>X>X>X>X>X>X>X>X>X>X>X>X>X>X>X>X>X>X>X>X>X>X>X>X>X>X>X>X>X>X>X>X>X>X>X>X>X>X>X>X>X>X>X>X>X>X>X>X>X>X>XA.a a ).|.).H.H.H.H.H.H.H.N.a a a a a F.F.F.F.F.F.F.n n Z L L L L Y Y Y Y Y Y Y Y Y Y Y Y Y Y Y Y Y Y Y Y Y Y Y U n n n R [ [ [ [ [ [ [ [ [ [ [ [ [ [ [ [ [ [ [ [ [ [ [ [ [ [ [ [ [ [ [ [ [ [ [ [ [ [ [ [ [ [ [ [ [ [ [ [ [ [ [ [ [ [ [ [ [ [ [ [ [ [ [ [ [ [ [ [ [ [ [ [ [ [ [ [ [ [ [ ` Y Y Y Y Y Y Y Y Y Y Y Y Y Y Y Y Y Y Y Y Y Y Y Y Y Y Y _ ` ` ` ` ` ` ` ` [ [ [ [ [ [ [ [ [ [ [ [ [ [ [ } } } } } | | | | | | | | | | | | | | | | | | | | | | | | | | | | | | | | | | | | | | | | | | | | | | | | | | | | | | | | | | } [ [ [ [ [ [ [ [ [ [ [ [ [ [ [ [ [ [ [ [ [ [ [ [ [ [ [ [ [ [ [ [ [ [ [ [ [ [ [ [ [ [ [ [ [ [ [ [ [ [ [ [ [ [ [ [ [ [ [ [ [ [ [ [ [ [ ",
"[ [ [ [ [ [ [ [ [ [ [ [ [ [ [ [ [ [ [ [ [ [ [ [ [ [ [ [ [ [ [ [ [ [ [ [ [ [ [ [ [ [ [ [ [ [ [ [ [ [ [ [ [ [ [ [ [ [ [ [ [ [ [ [ [ [ [ [ [ [ [ [ [ [ [ [ [ [ [ [ [ [ [ [ [ [ [ [ [ [ [ [ [ [ [ [ [ [ [ [ [ [ [ [ [ [ [ [ [ [ [ [ [ [ [ [ [ [ [ [ [ [ [ [ [ [ [ [ [ [ [ [ [ [ [ [ [ [ [ [ [ [ [ [ [ [ [ [ [ [ [ [ [ [ [ [ [ [ [ [ [ [ [ [ [ [ [ [ [ [ [ [ [ [ [ [ [ [ [ [ [ [ [ [ [ [ [ [ [ [ [ [ [ [ [ [ [ [ [ [ [ [ [ [ [ [ [ [ [ [ [ [ [ [ [ [ [ [ [ [ [ [ [ [ [ [ [ [ [ [ [ [ [ P n n F.F.j a a N.V.H.H.H.H.H.H.H.H.H.H.H.j a  .=.=.*.=.=.=.=.=.=.=.=.=.=.=.=.=.=.=.=.=.=.=.=.=.=.=.=.=.=. . .;X,X&X&X&X&X&X&X&X&X&X&X&X&X&X&X,X<X<X<X<X<X<X2X2X2X2X2X2X4X4X4X4X4X4X2X>X>X>X>X>X>X>X>X>X>X>X>X>X>X>X>X>X>X>X>X>X>X=X=X=X=X=X=X=X=X=X=X=X=X&X&X&X&X&X&X&X&X&X&X&X&X&X&X&X&X&X&X&X&X&X&X&X&X&X&X&X&X&X&X&X&X&X&X&X&X&X&X&X&X&X&X&X&X&X&X&X&X=X=X=X=X=X=X=X>X>X>X>X>X>X>X>X>X>X>X>X>X>X>X>X>X>X>X>X>X>X>X>X>X>X>X>X>X>X>X>X>X>X>X>X>X>X>X>X>X>X>X>X>XA.a a _.|.~.H.H.H.H.H.H.H.N.a a a a a F.F.F.F.F.F.F.n n Z L L L L Y Y Y Y Y Y Y Y Y Y Y Y Y Y Y Y Y Y Y Y Y Y Y U n n n R [ [ [ [ [ [ [ [ [ [ [ [ [ [ [ [ [ [ [ [ [ [ [ [ [ [ [ [ [ [ [ [ [ [ [ [ [ [ [ [ [ [ [ [ [ [ [ [ [ [ [ [ [ [ [ [ [ [ [ [ [ [ [ [ [ [ [ [ [ [ [ [ [ [ [ [ [ [ [ ` Y Y Y Y Y Y Y Y Y Y Y Y Y Y Y Y Y Y Y Y Y Y _ ` ` ` ` ` ` ` ` [ [ [ [ [ [ [ [ [ [ [ [ [ [ } } } } } | | | | | | | | | | | | | | | | | | | | | | | | | | | | | | | | | | | | | | | | | | | | | | | | | | | | | | | | | | | | | | | | } [ [ [ ' [ [ [ [ [ [ [ [ [ [ [ [ [ [ [ [ [ [ [ [ [ [ [ [ [ [ [ [ [ [ [ [ [ [ [ [ [ [ [ [ [ [ [ [ [ [ [ [ [ [ [ [ [ [ [ [ [ [ [ [ [ [ ",
"[ [ [ [ [ [ [ [ [ [ [ [ [ [ [ [ [ [ [ [ [ [ [ [ [ [ [ [ [ [ [ [ [ [ [ [ [ [ [ [ [ [ [ [ [ [ [ [ [ [ [ [ [ [ [ [ [ [ [ [ [ [ [ [ [ [ [ [ [ [ [ [ [ [ [ [ [ [ [ [ [ [ [ [ [ [ [ [ [ [ [ [ [ [ [ [ [ [ [ [ [ [ [ [ [ [ [ [ [ [ [ [ [ [ [ [ [ [ [ [ [ [ [ [ [ [ [ [ [ [ [ [ [ [ [ [ [ [ [ [ [ [ [ [ [ [ [ [ [ [ [ [ [ [ [ [ [ [ [ [ [ [ [ [ [ [ [ [ [ [ [ [ [ [ [ [ [ [ [ [ [ [ [ [ [ [ [ [ [ [ [ [ [ [ [ [ [ [ [ [ [ [ [ [ [ [ [ [ [ [ [ [ [ [ [ [ [ [ [ [ [ [ [ [ [ [ [ [ [ [ [ [ [ P n n F.F.j a a N.V.H.H.H.H.H.H.H.H.H.H.H.d a  .=.=.=.=.=.=.=.=.=.=.=.=.=.=.=.=.=.=.=.=.=.=.=.=.=.=.=.=.=.O. .~.=X&X&X&X&X&X&X&X&X&X&X&X&X&X>X<X<X<X<X<X<X<X<X<X<X<X<X<X<X<X<X2X2X2X=X=X=X=X>X>X>X>X>X>X>X=X=X=X=X=X=X=X=X=X=X=X=X&X&X&X&X&X&X&X&X&X&X&X&X&X&X&X&X&X&X&X&X&X&X&X&X&X&X&X&X&X&X&X&X&X&X&X&X&X&X&X&X&X&X&X&X&X&X&X&X&X&X&X&X&X&X&X&X&X&X&X&X&X&X&X&X&X&X&X=X=X=X=X=X=X=X>X>X>X>X>X>X>X>X>X>X>X>X>X>X>X>X>X>X>X>X>X>X>X>X>X>X>X>X>X>X>X>X>X>X>X>X>X>XA.a a |.|.).H.H.H.H.H.H.H.N.a a a a a F.F.F.F.F.F.B.n n Z L L L L Y Y Y Y Y Y Y Y Y Y Y Y Y Y Y Y Y Y Y Y Y Y Y U n n n R [ [ [ [ [ [ [ [ [ [ [ [ [ [ [ [ [ [ [ [ [ [ [ [ [ [ [ [ [ [ [ [ [ [ [ [ [ [ [ [ [ [ [ [ [ [ [ [ [ [ [ [ [ [ [ [ [ [ [ [ [ [ [ [ [ [ [ [ [ [ [ [ [ [ [ [ [ [ [ ` Y Y Y Y Y Y Y Y Y Y Y Y Y Y Y Y Y ` ` ` ` ` ` ` ` ` [ [ [ [ [ [ [ [ [ [ [ [ [ [ [ [ [ [ [ } | | | | | | | | | | | | | | | | | | | | | | | | | | | | | | | | | | | | | | | | | | | | | | | | | | | | | | | | | | | | | | | | | | | | } [ [ [ [ [ [ [ [ [ [ [ [ [ [ [ [ [ [ [ [ [ [ [ [ [ [ [ [ [ [ [ [ [ [ [ [ [ [ [ [ [ [ [ [ [ [ [ [ [ [ [ [ [ [ [ [ [ [ [ [ [ [ [ [ [ [ ",
"[ [ [ [ [ [ [ [ [ [ [ [ [ [ [ [ [ [ [ [ [ [ [ [ [ [ [ [ [ [ [ [ [ [ [ [ [ [ [ [ [ [ [ [ [ [ [ [ [ [ [ [ [ [ [ [ [ [ [ [ [ [ [ [ [ [ [ [ [ [ [ [ [ [ [ [ [ [ [ [ [ [ [ [ [ [ [ [ [ [ [ [ [ [ [ [ [ [ [ [ [ [ [ [ [ [ [ [ [ [ [ [ [ [ [ [ [ [ [ [ [ [ [ [ [ [ [ [ [ [ [ [ [ [ [ [ [ [ [ [ [ [ [ [ [ [ [ [ [ [ [ [ [ [ [ [ [ [ [ [ [ [ [ [ [ [ [ [ [ [ [ [ [ [ [ [ [ [ [ [ [ [ [ [ [ [ [ [ [ [ [ [ [ [ [ [ [ [ [ [ [ [ [ [ [ [ [ [ [ [ [ [ [ [ [ [ [ [ [ [ [ [ [ [ [ [ [ [ [ [ [ [ [ P n n F.F.j a a N.F.H.H.H.H.H.H.H.H.H.H.H.a a  .=.=.=.=.=.=.=.=.=.=.=.=.=.=.=.=.=.=.=.=.=.=.=.=.=.=.=.=.=.[  .u.&X&X&X&X&X&X&X&X&X&X&X&X&X=X,X<X<X<X<X<X<X<X<X<X<X<X<X<X<X<X<X<X<X=X&X&X&X&X=X=X=X=X=X=X=X&X&X&X&X&X&X&X&X&X&X&X&X&X&X&X&X&X&X&X&X&X&X&X&X&X&X&X&X&X&X&X&X&X&X&X&X&X&X&X&X&X&X&X&X&X&X&X&X&X&X&X&X&X&X&X&X&X&X&X&X&X&X&X&X&X&X&X&X&X&X&X&X&X&X&X&X&X&X&X&X&X&X&X&X&X&X=X=X=X=X=X=X=X>X>X>X>X>X>X>X>X>X>X>X>X>X>X>X>X>X>X>X>X>X>X>X>X>X>X>X>X>X>X>XA.a a |.|.).H.H.H.H.H.H.H.N.a a a a a F.F.F.F.F.F.o.n n K L L L L Y Y Y Y Y Y Y Y Y Y Y Y Y Y Y Y Y Y Y Y Y Y Y U n n n R [ [ [ [ [ [ [ [ [ [ [ [ [ [ [ [ [ [ [ [ [ [ [ [ [ [ [ [ [ [ [ [ [ [ [ [ [ [ [ [ [ [ [ [ [ [ [ [ [ [ [ [ [ [ [ [ [ [ [ [ [ [ [ [ [ [ [ [ [ [ [ [ [ [ [ [ [ [ [ ` Y Y Y Y Y Y Y Y Y Y Y _ ` ` ` ` ` ` ` ` [ [ [ [ [ [ [ [ [ [ [ [ [ [ [ [ [ [ [ [ [ [ [ [ [ } | | | | | | | | | | | | | | | | | | | | | | | | | | | | | | | | | | | | | | | | | | | | | | | | | | | | | | | | | | | | | | | | | | | | } [ [ [ [ [ [ [ [ [ [ [ [ [ [ [ [ [ [ [ [ [ [ [ [ [ [ [ [ [ [ [ [ [ [ [ [ [ [ [ [ [ [ [ [ [ [ [ [ [ [ [ [ [ [ [ [ [ [ [ [ [ [ [ [ [ [ ",
"[ [ [ [ [ [ [ [ [ [ [ [ [ [ [ [ [ [ [ [ [ [ [ [ [ [ [ [ [ [ [ [ [ [ [ [ [ [ [ [ [ [ [ [ [ [ [ [ [ [ [ [ [ [ [ [ [ [ [ [ [ [ [ [ [ [ [ [ [ [ [ [ [ [ [ [ [ [ [ [ [ [ [ [ [ [ [ [ [ [ [ [ [ [ [ [ [ [ [ [ [ [ [ [ [ [ [ [ [ [ [ [ [ [ [ [ [ [ [ [ [ [ [ [ [ [ [ [ [ [ [ [ [ [ [ [ [ [ [ [ [ [ [ [ [ [ [ [ [ [ [ [ [ [ [ [ [ [ [ [ [ [ [ [ [ [ [ [ [ [ [ [ [ [ [ [ [ [ [ [ [ [ [ [ [ [ [ [ [ [ [ [ [ [ [ [ [ [ [ [ [ [ [ [ [ [ [ [ [ [ [ [ [ [ [ [ [ [ [ [ [ [ [ [ [ [ [ [ [ [ [ [ [ P n n F.F.j a a N.H.H.H.H.H.H.H.H.H.H.H.H.a a  .=.=.=.=.=.=.=.=.=.=.=.=.=.=.=.=.=.=.=.=.=.=.=.=.=.*.*.=.=.*.D  .&X&X&X&X&X&X&X&X&X&X&X&X&X,X<X<X<X<X<X<X<X<X<X<X<X<X<X<X<X<X<X<X>X&X&X&X&X&X&X&X&X&X&X&X&X&X&X&X&X&X&X&X&X&X&X&X&X&X&X&X&X&X&X&X&X&X&X&X&X&X&X&X&X&X&X&X&X&X&X&X&X&X&X&X&X&X&X&X&X&X&X&X&X&X&X&X&X&X&X&X&X&X&X&X&X&X&X&X&X&X&X&X&X&X&X&X&X&X&X&X&X&X&X&X&X&X&X&X&X&X&X&X&X&X&X&X&X&X=X=X=X=X=X=X=X>X>X>X>X>X>X>X>X>X>X>X>X>X>X>X>X>X>X>X>X>X>X>X>XA.a a |.|.).H.H.H.H.H.H.H.N.a a a a a F.F.F.F.F.F.o.n n K L L L L Y Y Y Y Y Y Y Y Y Y Y Y Y Y Y Y Y Y Y Y Y Y Y U n n n R [ [ [ [ [ [ [ [ [ [ [ [ [ [ [ [ [ [ [ [ [ [ [ [ [ [ [ [ [ [ [ [ [ [ [ [ [ [ [ [ [ [ [ [ [ [ [ [ [ [ [ [ [ [ [ [ [ [ [ [ [ [ [ [ [ [ [ [ [ [ [ [ [ [ [ [ [ [ [ ` Y Y Y Y Y Y _ ` ` ` ` ` ` ` ` [ [ [ [ [ [ [ [ [ [ [ [ [ [ [ [ [ [ [ [ [ [ [ [ [ [ [ [ [ [ } | | | | | | | | | | | | | | | | | | | | | | | | | | | | | | | | | | | | | | | | | | | | | | | | | | | | | | | | | | | | | | | | | | | | } [ [ [ [ [ [ [ [ [ [ [ [ [ [ [ [ [ [ [ [ [ [ [ [ [ [ [ [ [ [ [ [ [ [ [ [ [ [ [ [ [ [ [ [ [ [ [ [ [ [ [ [ [ [ [ [ [ [ [ [ [ [ [ [ [ [ ",
"[ [ [ [ [ [ [ [ [ [ [ [ [ [ [ [ [ [ [ [ [ [ [ [ [ [ [ [ [ [ [ [ [ [ [ [ [ [ [ [ [ [ [ [ [ [ [ [ [ [ [ [ [ [ [ [ [ [ [ [ [ [ [ [ [ [ [ [ [ [ [ [ [ [ [ [ [ [ [ [ [ [ [ [ [ [ [ [ [ [ [ [ [ [ [ [ [ [ [ [ [ [ [ [ [ [ [ [ [ [ [ [ [ [ [ [ [ [ [ [ [ [ [ [ [ [ [ [ [ [ [ [ [ [ [ [ [ [ [ [ [ [ [ [ [ [ [ [ [ [ [ [ [ [ [ [ [ [ [ [ [ [ [ [ [ [ [ [ [ [ [ [ [ [ [ [ [ [ [ [ [ [ [ [ [ [ [ [ [ [ [ [ [ [ [ [ [ [ [ [ [ [ [ [ [ [ [ [ [ [ [ [ [ [ [ [ [ [ [ [ [ [ [ [ [ [ [ [ [ [ [ [ [ P n n F.F.j a a N.H.H.H.H.H.H.H.H.H.H.H.H.a a  .=.=.=.=.=.=.=.=.=.=.=.=.=.=.=.=.=.=.=.=.=.=.=.=.*.&.*.=.=.*.V 5 Y.&X&X&X&X&X&X&X&X&X&X&X>X<X<X<X<X<X<X<X<X<X<X<X<X<X<X<X<X<X<X,X=X&X&X&X&X&X&X=X=X=X&X&X&X&X&X&X&X&X&X&X&X&X&X&X&X&X&X&X&X&X&X&X&X&X&X&X&X&X&X&X&X&X&X&X&X&X&X&X&X&X&X&X&X&X&X&X&X&X&X&X&X&X&X&X&X&X&X&X&X&X&X&X&X&X&X&X&X&X&X&X&X&X&X&X&X&X&X&X&X&X&X&X&X&X&X&X&X&X&X&X&X&X&X&X&X&X&X&X&X&X&X&X&X=X=X=X=X=X=X=X>X>X>X>X>X>X>X>X>X>X>X>X>X>X>X>X>Xw.a a |.|.H.H.H.H.H.H.H.H.l a a a a a F.F.F.F.F.F.o.n n K L L L L Y Y Y Y Y Y Y Y Y Y Y Y Y Y Y Y Y Y Y Y Y Y Y U n n n R [ [ [ [ [ [ [ [ [ [ [ [ [ [ [ [ [ [ [ [ [ [ [ [ [ [ [ [ [ [ [ [ [ [ [ [ [ [ [ [ [ [ [ [ [ [ [ [ [ [ [ [ [ [ [ [ [ [ [ [ [ [ [ [ [ [ [ [ [ [ [ [ [ [ [ [ [ [ [ ` Y _ ` ` ` ` ` ` ` ` [ [ [ [ [ [ [ [ [ [ [ [ [ [ [ [ [ [ [ [ [ [ [ [ [ [ [ [ [ [ [ [ [ [ [ } | | | | | | | | | | | | | | | | | | | | | | | | | | | | | | | | | | | | | | | | | | | | | | | | | | | | | | | | | | | | | | | | | | | | } [ [ [ [ [ [ [ [ [ [ [ [ [ [ [ [ [ [ [ [ [ [ [ [ [ [ [ [ [ [ [ [ [ [ [ [ [ [ [ [ [ [ [ [ [ [ [ [ [ [ [ [ [ [ [ [ [ [ [ [ [ [ [ [ [ [ ",
"[ [ [ [ [ [ [ [ [ [ [ [ [ [ [ [ [ [ [ [ [ [ [ [ [ [ [ [ [ [ [ [ [ [ [ [ [ [ [ [ [ [ [ [ [ [ [ [ [ [ [ [ [ [ [ [ [ [ [ [ [ [ [ [ [ [ [ [ [ [ [ [ [ [ [ [ [ [ [ [ [ [ [ [ [ [ [ [ [ [ [ [ [ [ [ [ [ [ [ [ [ [ [ [ [ [ [ [ [ [ [ [ [ [ [ [ [ [ [ [ [ [ [ [ [ [ [ [ [ [ [ [ [ [ [ [ [ [ [ [ [ [ [ [ [ [ [ [ [ [ [ [ [ [ [ [ [ [ [ [ [ [ [ [ [ [ [ [ [ [ [ [ [ [ [ [ [ [ [ [ [ [ [ [ [ [ [ [ [ [ [ [ [ [ [ [ [ [ [ [ [ [ [ [ [ [ [ [ [ [ [ [ [ [ [ [ [ [ [ [ [ [ [ [ [ [ [ [ [ [ [ [ [ P n n F.F.j a a N.H.H.H.H.H.H.H.H.H.H.H.H.a a  .=.=.*.=.=.=.=.=.=.=.=.=.=.=.=.=.=.=.=.=.=.=.=.*.*.&.*.=.=.%.C 5 0.&X&X&X&X&X&X&X&X&X&X=X<X<X<X<X<X<X<X<X<X<X2X2X2X2X2X2X2X2X2X>X=X=X=X=X=X-X-X>X>X>X-X-X=X=X=X=X=X&X&X&X&X&X&X&X&X&X&X&X&X&X&X&X&X&X&X&X&X&X&X&X&X&X&X&X&X&X&X&X&X&X&X&X&X&X&X&X&X&X&X&X&X&X&X&X&X&X&X&X&X&X&X&X&X&X&X&X&X&X&X&X&X&X&X&X&X&X&X&X&X&X&X&X&X&X&X&X&X&X&X&X&X&X&X&X&X&X&X&X&X&X&X&X&X&X&X&X&X&X&X&X=X=X=X=X=X=X=X=X>X>X>X>X>X>X>X>X>X5.a a |.|.H.H.H.H.H.H.H.H.j a a a a a F.F.V.F.F.F.o.n n K L L L L Y Y Y Y Y Y Y Y Y Y Y Y Y Y Y Y Y Y Y Y Y Y Y U n n n R [ [ [ [ [ [ [ [ [ [ [ [ [ [ [ [ [ [ [ [ [ [ [ [ [ [ [ [ [ [ [ [ [ [ [ [ [ [ [ [ [ [ [ [ [ [ [ [ [ [ [ [ [ [ [ [ [ [ [ [ [ [ [ [ [ [ [ [ [ [ [ [ [ [ [ [ [ [ [ ` ` ` ` ` [ [ [ [ [ [ [ [ [ [ [ [ [ [ [ [ [ [ [ [ [ [ [ [ [ [ [ [ [ [ [ [ [ [ [ [ [ [ [ [ [ } | | | | | | | | | | | | | | | | | | | | | | | | | | | | | | | | | | | | | | | | | | | | | | | | | | | | | | | | | | | | | | | | | | | | } [ [ [ [ [ [ [ [ [ [ [ [ [ [ [ [ [ [ [ [ [ [ [ [ [ [ [ [ [ [ [ [ [ [ [ [ [ [ [ [ [ [ [ [ [ [ [ [ [ [ [ [ [ [ [ [ [ [ [ [ [ [ [ [ [ [ ",
"[ [ [ [ [ [ [ [ [ [ [ [ [ [ [ [ [ [ [ [ [ [ [ [ [ [ [ [ [ [ [ [ [ [ [ [ [ [ [ [ [ [ [ [ [ [ [ [ [ [ [ [ [ [ [ [ [ [ [ [ [ [ [ [ [ [ [ [ [ [ [ [ [ [ [ [ [ [ [ [ [ [ [ [ [ [ [ [ [ [ [ [ [ [ [ [ [ [ [ [ [ [ [ [ [ [ [ [ [ [ [ [ [ [ [ [ [ [ [ [ [ [ [ [ [ [ [ [ [ [ [ [ [ [ [ [ [ [ [ [ [ [ [ [ [ [ [ [ [ [ [ [ [ [ [ [ [ [ [ [ [ [ [ [ [ [ [ [ [ [ [ [ [ [ [ [ [ [ [ [ [ [ [ [ [ [ [ [ [ [ [ [ [ [ [ [ [ [ [ [ [ [ [ [ [ [ [ [ [ [ [ [ [ [ [ [ [ [ [ [ [ [ [ [ [ [ [ [ [ [ [ [ [ P n n F.F.j a a N.H.H.H.H.H.H.H.H.H.H.H.H.a a  .=.*.*.=.=.=.=.=.=.=.=.=.=.=.=.=.=.=.=.=.=.=.*.*.&.*.=.=.%.@.F 5 t &X&X&X&X&X&X&X&X&X=X<X2X2X2X2X2X2X2X2X2X2X4X4X4X4X4X4X9X9X2X>X>X>X>X>X>X>X>X>X>X>X>X>X>X>X>X>X>X-X-X=X=X=X=X&X&X&X&X&X&X&X&X&X&X&X&X&X&X&X&X&X&X&X&X&X&X&X&X&X&X&X&X&X&X&X&X&X&X&X&X&X&X&X&X&X&X&X&X&X&X&X&X&X&X&X&X&X&X&X&X&X&X&X&X&X&X&X&X&X&X&X&X&X&X&X&X&X&X&X&X&X&X&X&X&X&X&X&X&X&X&X&X&X&X&X&X&X&X&X&X&X&X&X&X&X&X&X&X&X=X=X=X=X=X=X=X>X>X5.a a |.|.H.H.H.H.H.H.H.H.j a a a a d F.F.F.F.F.F.o.n n K L L L L Y Y Y Y Y Y Y Y Y Y Y Y Y Y Y Y Y Y Y Y Y Y Y U n n n R [ [ [ [ [ [ [ [ [ [ [ [ [ [ [ [ [ [ [ [ [ [ [ [ [ [ [ [ [ [ [ [ [ [ [ [ [ [ [ [ [ [ [ [ [ [ [ [ [ [ [ [ [ [ [ [ [ [ [ [ [ [ [ [ [ [ [ [ [ [ [ [ [ [ [ [ [ [ [ [ [ [ [ [ [ [ [ [ [ [ [ [ [ [ [ [ [ [ [ [ [ [ [ [ [ [ [ [ [ [ [ [ [ [ [ [ [ [ [ [ [ [ [ [ [ } | | | | | | | | | | | | | | | | | | | | | | | | | | | | | | | | | | | | | | | | | | | | | | | | | | | | | | | | | | | | | | | | | | | | } ' [ [ [ [ [ [ [ [ [ [ [ [ [ [ [ [ [ [ [ [ [ [ [ [ [ [ [ [ [ [ [ [ [ [ [ [ [ [ [ [ [ [ [ [ [ [ [ [ [ [ [ [ [ [ [ [ [ [ [ [ [ [ [ [ [ ",
"[ [ [ [ [ [ [ [ [ [ [ [ [ [ [ [ [ [ [ [ [ [ [ [ [ [ [ [ [ [ [ [ [ [ [ [ [ [ [ [ [ [ [ [ [ [ [ [ [ [ [ [ [ [ [ [ [ [ [ [ [ [ [ [ [ [ [ [ [ [ [ [ [ [ [ [ [ [ [ [ [ [ [ [ [ [ [ [ [ [ [ [ [ [ [ [ [ [ [ [ [ [ [ [ [ [ [ [ [ [ [ [ [ [ [ [ [ [ [ [ [ [ [ [ [ [ [ [ [ [ [ [ [ [ [ [ [ [ [ [ [ [ [ [ [ [ [ [ [ [ [ [ [ [ [ [ [ [ [ [ [ [ [ [ [ [ [ [ [ [ [ [ [ [ [ [ [ [ [ [ [ [ [ [ [ [ [ [ [ [ [ [ [ [ [ [ [ [ [ [ [ [ [ [ [ [ [ [ [ [ [ [ [ [ [ [ [ [ [ [ [ [ [ [ [ [ [ [ [ [ [ [ [ P n n V.F.j a a N.H.H.H.H.H.H.H.H.H.H.H.H.a a  .=.*.*.=.=.=.=.=.=.=.=.=.=.=.=.=.=.=.=.=.=.*.*.&.&.*.=.*.@.#.G 5 5 &X&X&X&X&X&X&X&X&X,X2X2X4X4X4X9X9X9X9X9X9X9X9X9X9X9X9X9X4X>X>X>X>X>X>X>X>X>X>X>X>X>X>X>X>X>X>X>X>X>X>X>X>X>X-X-X=X=X=X=X=X&X&X&X&X&X&X&X&X&X&X&X&X&X&X&X&X&X&X&X&X&X&X&X&X&X&X&X&X&X&X&X&X&X&X&X&X&X&X&X&X&X&X&X&X&X&X&X&X&X&X&X&X&X&X&X&X&X&X&X&X&X&X&X&X&X&X&X&X&X&X&X&X&X&X&X&X&X&X&X&X&X&X&X&X&X&X&X&X&X&X&X&X&X&X&X&X&X&X&X&X&X&X&X&X&X=X<X5.a a |.|.H.H.H.H.H.H.H.H.j a a a a j F.F.F.F.F.F.o.n n K L L L L Y Y Y Y Y Y Y Y Y Y Y Y Y Y Y Y Y Y Y Y Y Y Y U n n n R [ [ [ [ [ [ [ [ [ [ [ [ [ [ [ [ [ [ [ [ [ [ [ [ [ [ [ [ [ [ [ [ [ [ [ [ [ [ [ [ [ [ [ [ [ [ [ [ [ [ [ [ [ [ [ [ [ [ [ [ [ [ [ [ [ [ [ [ [ [ [ [ [ [ [ [ [ [ [ [ [ [ [ [ [ [ [ [ [ [ [ [ [ [ [ [ [ [ [ [ [ [ [ [ [ [ [ [ [ [ [ [ [ [ [ [ [ [ [ [ [ [ [ [ [ } | | | | | | | | | | | | | | | | | | | | | | | | | | | | | | | | | | | | | | | | | | | | | | | | | | | | | | | | | | | | | | | | | | | | [ ' ' [ [ [ [ [ [ [ [ [ [ [ [ [ [ [ [ [ [ [ [ [ [ [ [ [ [ [ [ [ [ [ [ [ [ [ [ [ [ [ [ [ [ [ [ [ [ [ [ [ [ [ [ [ [ [ [ [ [ [ [ [ [ [ [ ",
"[ [ [ [ [ [ [ [ [ [ [ [ [ [ [ [ [ [ [ [ [ [ [ [ [ [ [ [ [ [ [ [ [ [ [ [ [ [ [ [ [ [ [ [ [ [ [ [ [ [ [ [ [ [ [ [ [ [ [ [ [ [ [ [ [ [ [ [ [ [ [ [ [ [ [ [ [ [ [ [ [ [ [ [ [ [ [ [ [ [ [ [ [ [ [ [ [ [ [ [ [ [ [ [ [ [ [ [ [ [ [ [ [ [ [ [ [ [ [ [ [ [ [ [ [ [ [ [ [ [ [ [ [ [ [ [ [ [ [ [ [ [ [ [ [ [ [ [ [ [ [ [ [ [ [ [ [ [ [ [ [ [ [ [ [ [ [ [ [ [ [ [ [ [ [ [ [ [ [ [ [ [ [ [ [ [ [ [ [ [ [ [ [ [ [ [ [ [ [ [ [ [ [ [ [ [ [ [ [ [ [ [ [ [ [ [ [ [ [ [ [ [ [ [ [ [ [ [ [ [ [ [ [ P n n F.F.j a a V.H.H.H.H.H.H.H.H.H.H.H.H.a a  .*.*.*.=.=.=.=.=.=.=.=.=.=.=.=.=.=.=.=.=.*.*.&.&.*.=.*.%.#.#.F 5 5 Y.&X&X&X&X&X&X&X>X<X2X2X2X2X4X4X4X4X4X4X9X9X9X9X9X9X9X4X,X>X>X>X>X>X>X>X>X>X>X>X>X>X>X>X>X>X>X>X>X>X>X>X>X>X>X>X>X>X>X>X>X-X-X=X=X=X=X&X&X&X&X&X&X&X&X&X&X&X&X&X&X&X&X&X&X&X&X&X&X&X&X&X&X&X&X&X&X&X&X&X&X&X&X&X&X&X&X&X&X&X&X&X&X&X&X&X&X&X&X&X&X&X&X&X&X&X&X&X&X&X&X&X&X&X&X&X&X&X&X&X&X&X&X&X&X&X&X&X&X&X&X&X&X&X&X&X&X&X&X&X&X&X&X&X&X&X>X<X5.a a |.|.H.H.H.H.H.H.H.H.j a a a a j F.F.F.F.F.F.o.n n K L L L L Y Y Y Y Y Y Y Y Y Y Y Y Y Y Y Y Y Y Y Y Y Y Y U n n n U [ [ [ [ [ [ [ [ [ [ [ [ [ [ [ [ [ [ [ [ [ [ [ [ [ [ [ [ [ [ [ [ [ [ [ [ [ [ [ [ [ [ [ [ [ [ [ [ [ [ [ [ [ [ [ [ [ [ [ [ [ [ [ [ [ [ [ [ [ [ [ [ [ [ [ [ [ [ [ [ [ [ [ [ [ [ [ [ [ [ [ [ [ [ [ [ [ [ [ [ [ [ [ [ [ [ [ [ [ [ [ [ [ [ [ [ [ [ [ [ [ [ [ [ [ } | | | | | | | | | | | | | | | | | | | | | | | | | | | | | | | | | | | | | | | | | | | | | | | | | | | | | | | | | | | | | | | | | | | | [ [ [ [ [ [ [ [ [ [ [ [ [ [ [ [ [ [ [ [ [ [ [ [ [ [ [ [ [ [ [ [ [ [ [ [ [ [ [ [ [ [ [ [ [ [ [ [ [ [ [ [ [ [ [ [ [ [ [ [ [ [ [ [ [ [ [ ",
"[ [ [ [ [ [ [ [ [ [ [ [ [ [ [ [ [ [ [ [ [ [ [ [ [ [ [ [ [ [ [ [ [ [ [ [ [ [ [ [ [ [ [ [ [ [ [ [ [ [ [ [ [ [ [ [ [ [ [ [ [ [ [ [ [ [ [ [ [ [ [ [ [ [ [ [ [ [ [ [ [ [ [ [ [ [ [ [ [ [ [ [ [ [ [ [ [ [ [ [ [ [ [ [ [ [ [ [ [ [ [ [ [ [ [ [ [ [ [ [ [ [ [ [ [ [ [ [ [ [ [ [ [ [ [ [ [ [ [ [ [ [ [ [ [ [ [ [ [ [ [ [ [ [ [ [ [ [ [ [ [ [ [ [ [ [ [ [ [ [ [ [ [ [ [ [ [ [ [ [ [ [ [ [ [ [ [ [ [ [ [ [ [ [ [ [ [ [ [ [ [ [ [ [ [ [ [ [ [ [ [ [ [ [ [ [ [ [ [ [ [ [ [ [ [ [ [ [ [ [ [ [ [ P n n F.F.j a a V.H.H.H.H.H.H.H.H.H.H.H.H.a a  .=.*.*.*.=.=.=.=.=.=.=.=.=.=.=.=.=.=.=.=.*.&.&.*.=.=.%.#.#.+.C 5 5 0.&X&X&X&X&X&X=X,X<X<X<X<X<X<X2X2X2X2X2X4X4X4X4X4X9X9X2X>X>X>X>X>X>X>X>X>X>X>X>X>X>X>X>X>X>X>X>X>X>X>X>X>X>X>X>X>X>X>X>X>X>X>X>X>X>X>X-X-X-X=X=X=X=X&X&X&X&X&X&X&X&X&X&X&X&X&X&X&X&X&X&X&X&X&X&X&X&X&X&X&X&X&X&X&X&X&X&X&X&X&X&X&X&X&X&X&X&X&X&X&X&X&X&X&X&X&X&X&X&X&X&X&X&X&X&X&X&X&X&X&X&X&X&X&X&X&X&X&X&X&X&X&X&X&X&X&X&X&X&X&X&X&X&X&X&X,X<X5.a a |.|.H.H.H.H.H.H.H.H.j a a a a j F.F.F.F.F.F.o.n n K L L L L Y Y Y Y Y Y Y Y Y Y Y Y Y Y Y Y Y Y Y Y Y Y Y U n n n P [ [ [ [ [ [ [ [ [ [ [ [ [ [ [ [ [ [ [ [ [ [ [ [ [ [ [ [ [ [ [ [ [ [ [ [ [ [ [ [ [ [ [ [ [ [ [ [ [ [ [ [ [ [ [ [ [ [ [ [ [ [ [ [ [ [ [ [ [ [ [ [ [ [ [ [ [ [ [ [ [ [ [ [ [ [ [ [ [ [ [ [ [ [ [ [ [ [ [ [ [ [ [ [ [ [ [ [ [ [ [ [ [ [ [ [ [ [ [ [ [ [ [ [ [ } | | | | | | | | | | | | | | | | | | | | | | | | | | | | | | | | | | | | | | | | | | | | | | | | | | | | | | | | | | | | | | | | | | | | } [ [ [ [ [ [ [ [ [ [ [ [ [ [ [ [ [ [ [ [ [ [ [ [ [ [ [ [ [ [ [ [ [ [ [ [ [ [ [ [ [ [ [ [ [ [ [ [ [ [ [ [ [ [ [ [ [ [ [ [ [ [ [ [ [ [ ",
"[ [ [ [ [ [ [ [ [ [ [ [ [ [ [ [ [ [ [ [ [ [ [ [ [ [ [ [ [ [ [ [ [ [ [ [ [ [ [ [ [ [ [ [ [ [ [ [ [ [ [ [ [ [ [ [ [ [ [ [ [ [ [ [ [ [ [ [ [ [ [ [ [ [ [ [ [ [ [ [ [ [ [ [ [ [ [ [ [ [ [ [ [ [ [ [ [ [ [ [ [ [ [ [ [ [ [ [ [ [ [ [ [ [ [ [ [ [ [ [ [ [ [ [ [ [ [ [ [ [ [ [ [ [ [ [ [ [ [ [ [ [ [ [ [ [ [ [ [ [ [ [ [ [ [ [ [ [ [ [ [ [ [ [ [ [ [ [ [ [ [ [ [ [ [ [ [ [ [ [ [ [ [ [ [ [ [ [ [ [ [ [ [ [ [ [ [ [ [ [ [ [ [ [ [ [ [ [ [ [ [ [ [ [ [ [ [ [ [ [ [ [ [ [ [ [ [ [ [ [ [ [ [ P n n F.F.j a a V.H.H.H.H.H.H.H.H.H.H.H.H.a a  .=.*.=.=.=.=.=.=.=.=.=.=.=.=.=.=.=.=.=.*.&.&.*.=.=.%.@.#.#.+.G 6 5 W &X&X&X&X&X&X,X<X<X<X<X<X<X<X<X<X<X<X<X<X2X2X2X2X4X2X-X=X>X>X>X>X>X>X>X>X>X>X>X>X>X>X>X>X>X>X>X>X>X>X>X>X>X>X>X>X>X>X>X>X>X>X>X>X>X>X>X>X>X>X>X>X>X-X-X=X=X=X=X=X&X&X&X&X&X&X&X&X&X&X&X&X&X&X&X&X&X&X&X&X&X&X&X&X&X&X&X&X&X&X&X&X&X&X&X&X&X&X&X&X&X&X&X&X&X&X&X&X&X&X&X&X&X&X&X&X&X&X&X&X&X&X&X&X&X&X&X&X&X&X&X&X&X&X&X&X&X&X&X&X&X&X&X&X>X<X<X5.a a |.|.H.H.H.H.H.H.H.H.j a a a a j F.F.F.F.F.F.o.n n K L L L L Y Y Y Y Y Y Y Y Y Y Y Y Y Y Y Y Y Y Y Y Y Y Y U n n n P [ [ [ [ [ [ [ [ [ [ [ [ [ [ [ [ [ [ [ [ [ [ [ [ [ [ [ [ [ [ [ [ [ [ [ [ [ [ [ [ [ [ [ [ [ [ [ [ [ [ [ [ [ [ [ [ [ [ [ [ [ [ [ [ [ [ [ [ [ [ [ [ [ [ [ [ [ [ [ [ [ [ [ [ [ [ [ [ [ [ [ [ [ [ [ [ [ [ [ [ [ [ [ [ [ [ [ [ [ [ [ [ [ [ [ [ [ [ [ [ [ [ [ [ [ } | | | | | | | | | | | | | | | | | | | | | | | | | | | | | | | | | | | | | | | | | | | | | | | | | | | | | | | | | | | | | | | | | | | | } [ [ [ [ [ [ [ [ [ [ [ [ [ [ [ [ [ [ [ [ [ [ [ [ [ [ [ [ [ [ [ [ [ [ [ [ [ [ [ [ [ [ [ [ [ [ [ [ [ [ [ [ [ [ [ [ [ [ [ [ [ [ [ [ [ [ ",
"[ [ [ [ [ [ [ [ [ [ [ [ [ [ [ [ [ [ [ [ [ [ [ [ [ [ [ [ [ [ [ [ [ [ [ [ [ [ [ [ [ [ [ [ [ [ [ [ [ [ [ [ [ [ [ [ [ [ [ [ [ [ [ [ [ [ [ [ [ [ [ [ [ [ [ [ [ [ [ [ [ [ [ [ [ [ [ [ [ [ [ [ [ [ [ [ [ [ [ [ [ [ [ [ [ [ [ [ [ [ [ [ [ [ [ [ [ [ [ [ [ [ [ [ [ [ [ [ [ [ [ [ [ [ [ [ [ [ [ [ [ [ [ [ [ [ [ [ [ [ [ [ [ [ [ [ [ [ [ [ [ [ [ [ [ [ [ [ [ [ [ [ [ [ [ [ [ [ [ [ [ [ [ [ [ [ [ [ [ [ [ [ [ [ [ [ [ [ [ [ [ [ [ [ [ [ [ [ [ [ [ [ [ [ [ [ [ [ [ [ [ [ [ [ [ [ [ [ [ [ [ [ [ P n n F.F.j a a V.H.H.H.H.H.H.H.H.H.H.H.H.a a  .=.=.=.=.=.=.=.=.=.=.=.=.=.=.=.=.=.=.*.&.&.*.=.=.*.@.#.#.+.+.H F 5 5 ^.&X&X&X&X>X<X<X<X<X<X<X<X<X<X<X<X<X<X<X<X<X<X<X,X=X&X&X=X=X=X=X=X>X>X>X>X>X>X>X>X>X>X>X>X>X>X>X>X>X>X>X>X>X>X>X>X>X>X>X>X>X>X>X>X>X>X>X>X>X>X>X>X>X>X>X>X>X>X>X-X-X=X=X=X=X&X&X&X&X&X&X&X&X&X&X&X&X&X&X&X&X&X&X&X&X&X&X&X&X&X&X&X&X&X&X&X&X&X&X&X&X&X&X&X&X&X&X&X&X&X&X&X&X&X&X&X&X&X&X&X&X&X&X&X&X&X&X&X&X&X&X&X&X&X&X&X&X&X&X&X&X&X=X<X2X2X5.a a |.|.H.H.H.H.H.H.H.H.j a a a a j F.F.F.F.F.F.o.n n K L L L L Y Y Y Y Y Y Y Y Y Y Y Y Y Y Y Y Y Y Y Y Y Y Y U n n n P [ [ [ [ [ [ [ [ [ [ [ [ [ [ [ [ [ [ [ [ [ [ [ [ [ [ [ [ [ [ [ [ [ [ [ [ [ [ [ [ [ [ [ [ [ [ [ [ [ [ [ [ [ [ [ [ [ [ [ [ [ [ [ [ [ [ [ [ [ [ [ [ [ [ [ [ [ [ [ [ [ [ [ [ [ [ [ [ [ [ [ [ [ [ [ [ [ [ [ [ [ [ [ [ [ [ [ [ [ [ [ [ [ [ [ [ [ [ [ [ [ [ [ [ [ } | | | | | | | | | | | | | | | | | | | | | | | | | | | | | | | | | | | | | | | | | | | | | | | | | | | | | | | | | | | | | | | | | | | | [ [ [ [ [ [ [ [ [ [ [ [ [ [ [ [ [ [ [ [ [ [ [ [ [ [ [ [ [ [ [ [ [ [ [ [ [ [ [ [ [ [ [ [ [ [ [ [ [ [ [ [ [ [ [ [ [ [ [ [ [ [ [ [ [ [ [ ",
"[ [ [ [ [ [ [ [ [ [ [ [ [ [ [ [ [ [ [ [ [ [ [ [ [ [ [ [ [ [ [ [ [ [ [ [ [ [ [ [ [ [ [ [ [ [ [ [ [ [ [ [ [ [ [ [ [ [ [ [ [ [ [ [ [ [ [ [ [ [ [ [ [ [ [ [ [ [ [ [ [ [ [ [ [ [ [ [ [ [ [ [ [ [ [ [ [ [ [ [ [ [ [ [ [ [ [ [ [ [ [ [ [ [ [ [ [ [ [ [ [ [ [ [ [ [ [ [ [ [ [ [ [ [ [ [ [ [ [ [ [ [ [ [ [ [ [ [ [ [ [ [ [ [ [ [ [ [ [ [ [ [ [ [ [ [ [ [ [ [ [ [ [ [ [ [ [ [ [ [ [ [ [ [ [ [ [ [ [ [ [ [ [ [ [ [ [ [ [ [ [ [ [ [ [ [ [ [ [ [ [ [ [ [ [ [ [ [ [ [ [ [ [ [ [ [ [ [ [ [ [ [ [ P n n F.F.j a a V.H.H.H.H.H.H.H.H.H.H.H.H.a a  .=.=.=.=.=.=.=.=.=.=.=.=.=.=.=.=.*.*.&.&.*.=.=.=.%.#.#.#.+.H H H 6 5 r.&X&X&X=X,X<X<X<X<X<X<X<X<X<X<X<X<X<X<X<X<X<X<X>X&X&X&X&X&X&X&X&X=X=X=X=X=X=X>X>X>X>X>X>X>X>X>X>X>X>X>X>X>X>X>X>X>X>X>X>X>X>X>X>X>X>X>X>X>X>X>X>X>X>X>X>X>X>X>X>X>X>X>X>X>X-X-X-X=X=X=X=X&X&X&X&X&X&X&X&X&X&X&X&X&X&X&X&X&X&X&X&X&X&X&X&X&X&X&X&X&X&X&X&X&X&X&X&X&X&X&X&X&X&X&X&X&X&X&X&X&X&X&X&X&X&X&X&X&X&X&X&X&X&X=X=X=X=X=X=X:X:X2X4X9X9X5.a d |.|.H.H.H.H.H.H.H.H.j a a a a j F.F.F.F.F.F.o.n n K L L L L Y Y Y Y Y Y Y Y Y Y Y Y Y Y Y Y Y Y Y Y Y Y Y U n n n P [ [ [ [ [ [ [ [ [ [ [ [ [ [ [ [ [ [ [ [ [ [ [ [ [ [ [ [ [ [ [ [ [ [ [ [ [ [ [ [ [ [ [ [ [ [ [ [ [ [ [ [ [ [ [ [ [ [ [ [ [ [ [ [ [ [ [ [ [ [ [ [ [ [ [ [ [ [ [ [ [ [ [ [ [ [ [ [ [ [ [ [ [ [ [ [ [ [ [ [ [ [ [ [ [ [ [ [ [ [ [ [ [ [ [ [ [ [ [ [ [ [ [ [ [ } | | | | | | | | | | | | | | | | | | | | | | | | | | | | | | | | | | | | | | | | | | | | | | | | | | | | | | | | | | | | | | | | | | | | [ [ [ [ [ [ [ [ [ [ [ [ [ [ [ [ [ [ [ [ [ [ [ [ [ [ [ [ [ [ [ [ [ [ [ [ [ [ [ [ [ [ [ [ [ [ [ [ [ [ [ [ [ [ [ [ [ [ [ [ [ [ [ [ [ [ [ ",
"[ [ [ [ [ [ [ [ [ [ [ [ [ [ [ [ [ [ [ [ [ [ [ [ [ [ [ [ [ [ [ [ [ [ [ [ [ [ [ [ [ [ [ [ [ [ [ [ [ [ [ [ [ [ [ [ [ [ [ [ [ [ [ [ [ [ [ [ [ [ [ [ [ [ [ [ [ [ [ [ [ [ [ [ [ [ [ [ [ [ [ [ [ [ [ [ [ [ [ [ [ [ [ [ [ [ [ [ [ [ [ [ [ [ [ [ [ [ [ [ [ [ [ [ [ [ [ [ [ [ [ [ [ [ [ [ [ [ [ [ [ [ [ [ [ [ [ [ [ [ [ [ [ [ [ [ [ [ [ [ [ [ [ [ [ [ [ [ [ [ [ [ [ [ [ [ [ [ [ [ [ [ [ [ [ [ [ [ [ [ [ [ [ [ [ [ [ [ [ [ [ [ [ [ [ [ [ [ [ [ [ [ [ [ [ [ [ [ [ [ [ [ [ [ [ [ [ [ [ [ [ [ [ P n n F.F.j a a V.H.H.H.H.H.H.H.H.H.H.H.H.a a  .=.=.=.=.=.=.=.=.=.=.=.=.=.=.=.*.*.&.&.*.=.*.=.%.@.#.@.+.H +.+.+.F V t Y.&X&X,X<X<X<X<X<X<X<X<X<X<X<X<X<X<X<X<X<X<X,X&X&X&X&X&X&X&X&X&X&X&X&X&X&X&X=X=X=X=X=X>X>X>X>X>X>X>X>X>X>X>X>X>X>X>X>X>X>X>X>X>X>X>X>X>X>X>X>X>X>X>X>X>X>X>X>X>X>X>X>X>X>X>X>X>X>X>X>X>X-X-X=X=X=X=X=X&X&X&X&X&X&X&X&X&X&X&X&X&X&X&X&X&X&X&X&X&X&X&X&X&X&X&X&X&X&X&X&X&X&X&X&X&X&X&X&X&X&X&X&X=X=X=X=X=X=X=X=X-X-X-X>X>X>X>X>X>X>X<X9X9X9X9X5.a l |.|.H.H.H.H.H.H.H.H.j a a a a j F.F.F.F.F.F.o.n n K L L L L Y Y Y Y Y Y Y Y Y Y Y Y Y Y Y Y Y Y Y Y Y Y Y U n n n P [ [ [ [ [ [ [ [ [ [ [ [ [ [ [ [ [ [ [ [ [ [ [ [ [ [ [ [ [ [ [ [ [ [ [ [ [ [ [ [ [ [ [ [ [ [ [ [ [ [ [ [ [ [ [ [ [ [ [ [ [ [ [ [ [ [ [ [ [ [ [ [ [ [ [ [ [ [ [ [ [ [ [ [ [ [ [ [ [ [ [ [ [ [ [ [ [ [ [ [ [ [ [ [ [ [ [ [ [ [ [ [ [ [ [ [ [ [ [ [ [ [ [ [ [ } | | | | | | | | | | | | | | | | | | | | | | | | | | | | | | | | | | | | | | | | | | | | | | | | | | | | | | | | | | | | | | | | | | | | } [ [ [ [ [ [ [ [ [ [ [ [ [ [ [ [ [ [ [ [ [ [ [ [ [ [ [ [ [ [ [ [ [ [ [ [ [ [ [ [ [ [ [ [ [ [ [ [ [ [ [ [ [ [ [ [ [ [ [ [ [ [ [ [ [ [ ",
"[ [ [ [ [ [ [ [ [ [ [ [ [ [ [ [ [ [ [ [ [ [ [ [ [ [ [ [ [ [ [ [ [ [ [ [ [ [ [ [ [ [ [ [ [ [ [ [ [ [ [ [ [ [ [ [ [ [ [ [ [ [ [ [ [ [ [ [ [ [ [ [ [ [ [ [ [ [ [ [ [ [ [ [ [ [ [ [ [ [ [ [ [ [ [ [ [ [ [ [ [ [ [ [ [ [ [ [ [ [ [ [ [ [ [ [ [ [ [ [ [ [ [ [ [ [ [ [ [ [ [ [ [ [ [ [ [ [ [ [ [ [ [ [ [ [ [ [ [ [ [ [ [ [ [ [ [ [ [ [ [ [ [ [ [ [ [ [ [ [ [ [ [ [ [ [ [ [ [ [ [ [ [ [ [ [ [ [ [ [ [ [ [ [ [ [ [ [ [ [ [ [ [ [ [ [ [ [ [ [ [ [ [ [ [ [ [ [ [ [ [ [ [ [ [ [ [ [ [ [ [ [ [ P n n F.F.j a a V.H.H.H.H.H.H.H.H.H.H.H.H.a a  .=.=.=.=.=.=.=.=.=.=.=.=.=.*.*.&.&.&.*.=.=.*.*.@.#.@.+.+.+.@.#.@.+.G 6 t U.>X<X<X<X<X<X<X<X<X<X<X<X<X<X<X<X<X<X<X,X=X&X&X&X&X&X&X&X&X&X&X&X&X&X&X&X&X&X&X&X&X=X=X=X=X=X>X>X>X>X>X>X>X>X>X>X>X>X>X>X>X>X>X>X>X>X>X>X>X>X>X>X>X>X>X>X>X>X>X>X>X>X>X>X>X>X>X>X>X>X>X>X>X>X>X>X>X-X-X=X=X=X=X&X&X&X&X&X&X&X&X&X&X&X&X&X&X&X&X&X&X&X&X&X&X&X&X&X&X&X&X=X=X=X=X=X=X=X=X-X-X>X>X>X>X>X>X>X>X>X>X>X>X>X>X>X>X>X>X4X9X9X9X9X5.a l |.|.H.H.H.H.H.H.H.H.j a a a a j F.F.F.F.F.F.o.n n K L L L L Y Y Y Y Y Y Y Y Y Y Y Y Y Y Y Y Y Y Y Y Y Y Y U n n n P [ [ [ [ [ [ [ [ [ [ [ [ [ [ [ [ [ [ [ [ [ [ [ [ [ [ [ [ [ [ [ [ [ [ [ [ [ [ [ [ [ [ [ [ [ [ [ [ [ [ [ [ [ [ [ [ [ [ [ [ [ [ [ [ [ [ [ [ [ [ [ [ [ [ [ [ [ [ [ [ [ [ [ [ [ [ [ [ [ [ [ [ [ [ [ [ [ [ [ [ [ [ [ [ [ [ [ [ [ [ [ [ [ [ [ [ [ [ [ [ [ [ [ [ [ } | | | | | | | | | | | | | | | | | | | | | | | | | | | | | | | | | | | | | | | | | | | | | | | | | | | | | | | | | | | | | | | | | | | | } [ [ [ [ [ [ [ [ [ [ [ [ [ [ [ [ [ [ [ [ [ [ [ [ [ [ [ [ [ [ [ [ [ [ [ [ [ [ [ [ [ [ [ [ [ [ [ [ [ [ [ [ [ [ [ [ [ [ [ [ [ [ [ [ [ [ ",
"[ [ [ [ [ [ [ [ [ [ [ [ [ [ [ [ [ [ [ [ [ [ [ [ [ [ [ [ [ [ [ [ [ [ [ [ [ [ [ [ [ [ [ [ [ [ [ [ [ [ [ [ [ [ [ [ [ [ [ [ [ [ [ [ [ [ [ [ [ [ [ [ [ [ [ [ [ [ [ [ [ [ [ [ [ [ [ [ [ [ [ [ [ [ [ [ [ [ [ [ [ [ [ [ [ [ [ [ [ [ [ [ [ [ [ [ [ [ [ [ [ [ [ [ [ [ [ [ [ [ [ [ [ [ [ [ [ [ [ [ [ [ [ [ [ [ [ [ [ [ [ [ [ [ [ [ [ [ [ [ [ [ [ [ [ [ [ [ [ [ [ [ [ [ [ [ [ [ [ [ [ [ [ [ [ [ [ [ [ [ [ [ [ [ [ [ [ [ [ [ [ [ [ [ [ [ [ [ [ [ [ [ [ [ [ [ [ [ [ [ [ [ [ [ [ [ [ [ [ [ [ [ [ P n n F.F.j a a V.H.H.H.H.H.H.H.H.H.H.H.H.a a  .=.=.=.=.=.=.=.=.=.=.=.=.*.*.&.&.*.*.=.=.=.=.%.#.@.+.+.@.#.#.#.#.#.#.F V 7 ^.<X<X<X<X<X<X<X<X<X<X<X<X<X<X<X<X<X<X-X&X&X&X&X&X&X&X&X&X&X&X&X&X&X&X&X&X&X&X&X&X&X&X&X&X&X=X=X=X=X=X=X>X>X>X>X>X>X>X>X>X>X>X>X>X>X>X>X>X>X>X>X>X>X>X>X>X>X>X>X>X>X>X>X>X>X>X>X>X>X>X>X>X>X>X>X>X>X>X>X>X>X>X=X=X=X=X=X=X=X=X=X&X&X&X&X&X&X&X&X&X&X&X&X&X=X=X=X=X-X-X>X>X>X>X>X>X>X>X>X>X>X>X>X>X>X>X>X>X>X>X>X>X>X>X>X>X>X2X9X9X9X9X9X5.a l |.|.).H.H.H.H.H.H.H.d a a a a j F.F.F.F.F.F.o.n n K L L L U Y Y Y Y Y Y Y Y Y Y Y Y Y Y Y Y Y Y Y Y Y Y Y U n n n P [ [ [ [ [ [ [ [ [ [ [ [ [ [ [ [ [ [ [ [ [ [ [ [ [ [ [ [ [ [ [ [ [ [ [ [ [ [ [ [ [ [ [ [ [ [ [ [ [ [ [ [ [ [ [ [ [ [ [ [ [ [ [ [ [ [ [ [ [ [ [ [ [ [ [ [ [ [ [ [ [ [ [ [ [ [ [ [ [ [ [ [ [ [ [ [ [ [ [ [ [ [ [ [ [ [ [ [ [ [ [ [ [ [ [ [ [ [ [ [ [ [ [ [ [ } | | | | | | | | | | | | | | | | | | | | | | | | | | | | | | | | | | | | | | | | | | | | | | | | | | | | | | | | | | | | | | | | | | | | } [ [ [ [ [ [ [ [ [ [ [ [ [ [ [ [ [ [ [ [ [ [ [ [ [ [ [ [ [ [ [ [ [ [ [ [ [ [ [ [ [ [ [ [ [ [ [ [ [ [ [ [ [ [ [ [ [ [ [ [ [ [ [ [ [ [ ",
"[ [ [ [ [ [ [ [ [ [ [ [ [ [ [ [ [ [ [ [ [ [ [ [ [ [ [ [ [ [ [ [ [ [ [ [ [ [ [ [ [ [ [ [ [ [ [ [ [ [ [ [ [ [ [ [ [ [ [ [ [ [ [ [ [ [ [ [ [ [ [ [ [ [ [ [ [ [ [ [ [ [ [ [ [ [ [ [ [ [ [ [ [ [ [ [ [ [ [ [ [ [ [ [ [ [ [ [ [ [ [ [ [ [ [ [ [ [ [ [ [ [ [ [ [ [ [ [ [ [ [ [ [ [ [ [ [ [ [ [ [ [ [ [ [ [ [ [ [ [ [ [ [ [ [ [ [ [ [ [ [ [ [ [ [ [ [ [ [ [ [ [ [ [ [ [ [ [ [ [ [ [ [ [ [ [ [ [ [ [ [ [ [ [ [ [ [ [ [ [ [ [ [ [ [ [ [ [ [ [ [ [ [ [ [ [ [ [ [ [ [ [ [ [ [ [ [ [ [ [ [ [ [ P n n F.F.j a a V.H.H.H.H.H.H.H.H.H.H.H.H.a a  .=.=.=.=.=.=.=.=.=.=.*.*.&.&.&.*.=.=.=.=.=.%.#.+.+.@.#.#.#.#.#.#.#.#.@.F D ~.<X<X<X<X<X<X<X<X<X<X<X<X<X<X<X<X<X,X&X&X&X&X&X&X&X&X&X&X&X&X&X&X&X&X&X&X&X&X&X&X&X&X&X&X&X&X&X&X&X&X&X=X=X=X=X=X>X>X>X>X>X>X>X>X>X>X>X>X>X>X>X>X>X>X>X>X>X>X>X>X>X>X>X>X>X>X>X>X>X>X>X>X>X=X=X=X=X=X=X=X=X=X=X&X&X&X&X&X&X&X&X&X&X&X&X&X&X&X&X&X&X&X&X&X&X=X=X=X=X=X=X=X>X>X>X>X>X>X>X>X>X>X>X>X>X>X>X>X>X>X>X>X>X>X>X>X,X9X9X9X9X9X9Xk a l |.|.).H.H.H.H.H.H.H.a a a a a j F.F.F.F.F.F.o.n n K L L L U Y Y Y Y Y Y Y Y Y Y Y Y Y Y Y Y Y Y Y Y Y Y Y U n n n P [ [ [ [ [ [ [ [ [ [ [ [ [ [ [ [ [ [ [ [ [ [ [ [ [ [ [ [ [ [ [ [ [ [ [ [ [ [ [ [ [ [ [ [ [ [ [ [ [ [ [ [ [ [ [ [ [ [ [ [ [ [ [ [ [ [ [ [ [ [ [ [ [ [ [ [ [ [ [ [ [ [ [ [ [ [ [ [ [ [ [ [ [ [ [ [ [ [ [ [ [ [ [ [ [ [ [ [ [ [ [ [ [ [ [ [ [ [ [ [ [ [ [ [ [ } | | | | | | | | | | | | | | | | | | | | | | | | | | | | | | | | | | | | | | | | | | | | | | | | | | | | | | | | | | | | | | | | | | | | } [ [ [ [ [ [ [ [ [ [ [ [ [ [ [ [ [ [ [ [ [ [ [ [ [ [ [ [ [ [ [ [ [ [ [ [ [ [ [ [ [ [ [ [ [ [ [ [ [ [ [ [ [ [ [ [ [ [ [ [ [ [ [ [ [ [ ",
"[ [ [ [ [ [ [ [ [ [ [ [ [ [ [ [ [ [ [ [ [ [ [ [ [ [ [ [ [ [ [ [ [ [ [ [ [ [ [ [ [ [ [ [ [ [ [ [ [ [ [ [ [ [ [ [ [ [ [ [ [ [ [ [ [ [ [ [ [ [ [ [ [ [ [ [ [ [ [ [ [ [ [ [ [ [ [ [ [ [ [ [ [ [ [ [ [ [ [ [ [ [ [ [ [ [ [ [ [ [ [ [ [ [ [ [ [ [ [ [ [ [ [ [ [ [ [ [ [ [ [ [ [ [ [ [ [ [ [ [ [ [ [ [ [ [ [ [ [ [ [ [ [ [ [ [ [ [ [ [ [ [ [ [ [ [ [ [ [ [ [ [ [ [ [ [ [ [ [ [ [ [ [ [ [ [ [ [ [ [ [ [ [ [ [ [ [ [ [ [ [ [ [ [ [ [ [ [ [ [ [ [ [ [ [ [ [ [ [ [ [ [ [ [ [ [ [ [ [ [ [ [ [ P n n F.F.j a a V.H.H.H.H.H.H.H.H.H.H.H.H.a a  .=.=.=.=.=.=.=.=.=.*.&.&.&.&.*.=.=.=.=.=.%.@.+.+.@.#.#.#.#.#.#.#.#.@.+.T  .^.<X<X<X<X<X<X<X<X<X<X<X<X<X<X<X<X,X&X&X&X&X&X&X&X&X&X&X&X&X&X&X&X&X&X&X&X&X&X&X&X&X&X&X&X&X&X&X&X&X&X&X&X&X&X&X&X=X=X=X=X=X=X>X>X>X>X>X>X>X>X>X>X>X>X>X>X>X>X>X>X>X>X=X=X=X=X=X=X=X=X=X=X=X&X&X&X&X&X&X&X&X&X&X&X&X&X&X&X&X&X&X&X&X&X&X&X&X&X&X&X&X&X&X&X&X&X&X&X&X&X&X&X=X=X=X=X=X=X>X>X>X>X>X>X>X>X>X>X>X>X>X>X>X>X>X>X2X9X9X9X9X9X9Xa a l |.|.).H.H.H.H.H.H.H.a a a a a j F.F.F.F.F.F.o.n n K L L L L Y Y Y Y Y Y Y Y Y Y Y Y Y Y Y Y Y Y Y Y Y Y Y U n n n P [ [ [ [ [ [ [ [ [ [ [ [ [ [ [ [ [ [ [ [ [ [ [ [ [ [ [ [ [ [ [ [ [ [ [ [ [ [ [ [ [ [ [ [ [ [ [ [ [ [ [ [ [ [ [ [ [ [ [ [ [ [ [ [ [ [ [ [ [ [ [ [ [ [ [ [ [ [ [ [ [ [ [ [ [ [ [ [ [ [ [ [ [ [ [ [ [ [ [ [ [ [ [ [ [ [ [ [ [ [ [ [ [ [ [ [ [ [ [ [ [ [ [ [ [ } | | | | | | | | | | | | | | | | | | | | | | | | | | | | | | | | | | | | | | | | | | | | | | | | | | | | | | | | | | | | | | | | | | | | } [ [ ' [ [ [ [ [ [ [ [ [ [ [ [ [ [ [ [ [ [ [ [ [ [ [ [ [ [ [ [ [ [ [ [ [ [ [ [ [ [ [ [ [ [ [ [ [ [ [ [ [ [ [ [ [ [ [ [ [ [ [ [ [ [ [ ",
"[ [ [ [ [ [ [ [ [ [ [ [ [ [ [ [ [ [ [ [ [ [ [ [ [ [ [ [ [ [ [ [ [ [ [ [ [ [ [ [ [ [ [ [ [ [ [ [ [ [ [ [ [ [ [ [ [ [ [ [ [ [ [ [ [ [ [ [ [ [ [ [ [ [ [ [ [ [ [ [ [ [ [ [ [ [ [ [ [ [ [ [ [ [ [ [ [ [ [ [ [ [ [ [ [ [ [ [ [ [ [ [ [ [ [ [ [ [ [ [ [ [ [ [ [ [ [ [ [ [ [ [ [ [ [ [ [ [ [ [ [ [ [ [ [ [ [ [ [ [ [ [ [ [ [ [ [ [ [ [ [ [ [ [ [ [ [ [ [ [ [ [ [ [ [ [ [ [ [ [ [ [ [ [ [ [ [ [ [ [ [ [ [ [ [ [ [ [ [ [ [ [ [ [ [ [ [ [ [ [ [ [ [ [ [ [ [ [ [ [ [ [ [ [ [ [ [ [ [ [ [ [ [ P n n F.F.j a a V.H.H.H.H.H.H.H.H.H.H.H.H.a a ) =.*.=.=.=.=.=.*.*.&.&.&.&.*.=.=.=.=.=.*.@.+.@.#.#.#.#.#.#.#.#.#.@.+.J  .o.*X<X<X<X<X<X<X<X<X<X<X<X<X<X<X<X,X-X&X&X&X&X&X&X&X&X&X&X&X&X&X&X&X&X&X&X&X&X&X&X&X&X&X&X&X&X&X&X&X&X&X&X&X&X&X&X&X&X&X&X&X&X&X=X=X=X=X>X>X>X>X>X>X=X=X=X=X=X=X=X=X=X=X&X&X&X&X&X&X&X&X&X&X&X&X&X&X&X&X&X&X&X&X&X&X&X&X&X&X&X&X&X&X&X&X&X&X&X&X&X&X&X&X&X&X&X&X&X&X&X&X&X&X&X&X&X&X&X&X=X=X=X=X=X=X=X>X>X>X>X>X>X>X>X>X>X<X4X9X9X9X9X9X9Xa a l |.|.).H.H.H.H.H.H.H.a a a a a j F.F.F.F.F.F.o.n n K L L L U Y Y Y Y Y Y Y Y Y Y Y Y Y Y Y Y Y Y Y Y Y Y Y U n n n P [ [ [ [ [ [ [ [ [ [ [ [ [ [ [ [ [ [ [ [ [ [ [ [ [ [ [ [ [ [ [ [ [ [ [ [ [ [ [ [ [ [ [ [ [ [ [ [ [ [ [ [ [ [ [ [ [ [ [ [ [ [ [ [ [ [ [ [ [ [ [ [ [ [ [ [ [ [ [ [ [ [ [ [ [ [ [ [ [ [ [ [ [ [ [ [ [ [ [ [ [ [ [ [ [ [ [ [ [ [ [ [ [ [ [ [ [ [ [ [ [ [ [ [ [ } | | | | | | | | | | | | | | | | | | | | | | | | | | | | | | | | | | | | | | | | | | | | | | | | | | | | | | | | | | | | | | | | | | | | } [ [ ' [ [ [ [ [ [ [ [ [ [ [ [ [ [ [ [ [ [ [ [ [ [ [ [ [ [ [ [ [ [ [ [ [ [ [ [ [ [ [ [ [ [ [ [ [ [ [ [ [ [ [ [ [ [ [ [ [ [ [ [ [ [ [ ",
"[ [ [ [ [ [ [ [ [ [ [ [ [ [ [ [ [ [ [ [ [ [ [ [ [ [ [ [ [ [ [ [ [ [ [ [ [ [ [ [ [ [ [ [ [ [ [ [ [ [ [ [ [ [ [ [ [ [ [ [ [ [ [ [ [ [ [ [ [ [ [ [ [ [ [ [ [ [ [ [ [ [ [ [ [ [ [ [ [ [ [ [ [ [ [ [ [ [ [ [ [ [ [ [ [ [ [ [ [ [ [ [ [ [ [ [ [ [ [ [ [ [ [ [ [ [ [ [ [ [ [ [ [ [ [ [ [ [ [ [ [ [ [ [ [ [ [ [ [ [ [ [ [ [ [ [ [ [ [ [ [ [ [ [ [ [ [ [ [ [ [ [ [ [ [ [ [ [ [ [ [ [ [ [ [ [ [ [ [ [ [ [ [ [ [ [ [ [ [ [ [ [ [ [ [ [ [ [ [ [ [ [ [ [ [ [ [ [ [ [ [ [ [ [ [ [ [ [ [ [ [ [ [ P n n F.F.j a a V.H.H.H.H.H.H.H.H.H.H.H.H.a a ) =.*.*.=.=.*.*.&.&.&.&.*.*.=.=.=.=.=.=.%.#.#.#.#.#.#.#.#.#.#.#.@.+.J Q  .J.2X<X<X<X<X<X<X<X<X<X<X<X<X<X<X<X>X&X&X&X&X&X&X&X&X&X&X&X&X&X&X&X&X&X&X&X&X&X&X&X&X&X&X&X&X&X&X&X&X&X&X&X&X&X&X&X&X&X&X&X&X&X&X&X&X&X&X>X=X=X=X=X=X&X&X&X&X&X&X&X&X&X&X&X&X&X&X&X&X&X&X&X&X&X&X&X&X&X&X&X&X&X&X&X&X&X&X&X&X&X&X&X&X&X&X&X&X&X&X&X&X&X&X&X&X&X&X&X&X&X&X&X&X&X&X&X&X&X&X&X&X&X&X&X&X&X=X=X=X=X=X=X=X>X>X,X4X4X9X9X9X9X9X9Xa a l |.|.).H.H.H.H.H.H.H.a a a a a k F.F.F.F.F.F.o.n n K L L L U Y Y Y Y Y Y Y Y Y Y Y Y Y Y Y Y Y Y Y Y Y Y Y U n n n P [ [ [ [ [ [ [ [ [ [ [ [ [ [ [ [ [ [ [ [ [ [ [ [ [ [ [ [ [ [ [ [ [ [ [ [ [ [ [ [ [ [ [ [ [ [ [ [ [ [ [ [ [ [ [ [ [ [ [ [ [ [ [ [ [ [ [ [ [ [ [ [ [ [ [ [ [ [ [ [ [ [ [ [ [ [ [ [ [ [ [ [ [ [ [ [ [ [ [ [ [ [ [ [ [ [ [ [ [ [ [ [ [ [ [ [ [ [ [ [ [ [ [ [ [ } | | | | | | | | | | | | | | | | | | | | | | | | | | | | | | | | | | | | | | | | | | | | | | | | | | | | | | | | | | | | | | | | | | | | } [ [ [ [ [ [ [ [ [ [ [ [ [ [ [ [ [ [ [ [ [ [ [ [ [ [ [ [ [ [ [ [ [ [ [ [ [ [ [ [ [ [ [ [ [ [ [ [ [ [ [ [ [ [ [ [ [ [ [ [ [ [ [ [ [ [ ",
"[ [ [ [ [ [ [ [ [ [ [ [ [ [ [ [ [ [ [ [ [ [ [ [ [ [ [ [ [ [ [ [ [ [ [ [ [ [ [ [ [ [ [ [ [ [ [ [ [ [ [ [ [ [ [ [ [ [ [ [ [ [ [ [ [ [ [ [ [ [ [ [ [ [ [ [ [ [ [ [ [ [ [ [ [ [ [ [ [ [ [ [ [ [ [ [ [ [ [ [ [ [ [ [ [ [ [ [ [ [ [ [ [ [ [ [ [ [ [ [ [ [ [ [ [ [ [ [ [ [ [ [ [ [ [ [ [ [ [ [ [ [ [ [ [ [ [ [ [ [ [ [ [ [ [ [ [ [ [ [ [ [ [ [ [ [ [ [ [ [ [ [ [ [ [ [ [ [ [ [ [ [ [ [ [ [ [ [ [ [ [ [ [ [ [ [ [ [ [ [ [ [ [ [ [ [ [ [ [ [ [ [ [ [ [ [ [ [ [ [ [ [ [ [ [ [ [ [ [ [ [ [ [ P n n F.F.j a a V.H.H.H.H.H.H.H.H.H.H.H.H.a a ) =.*.*.*.*.&.&.&.&.&.*.=.=.=.=.=.=.=.%.@.#.#.#.#.#.#.#.#.#.#.@.+.G T  . .J.2X2X<X<X<X<X<X<X<X<X<X<X<X<X<X,X&X&X&X&X&X&X&X&X&X&X&X&X&X&X&X&X&X&X&X&X&X&X&X&X&X&X&X&X&X&X&X&X&X&X&X&X&X&X&X&X&X&X&X&X&X&X&X&X&X&X&X-X=X=X=X&X&X&X&X&X&X&X&X&X&X&X&X&X&X&X&X&X&X&X&X&X&X&X&X&X&X&X&X&X&X&X&X&X&X&X&X&X&X&X&X&X&X&X&X&X&X&X&X&X&X&X&X&X&X&X&X&X&X&X&X&X&X&X&X&X&X&X&X&X&X&X&X&X&X&X&X&X&X&X&X&X&X=X=X<X2X4X4X4X4X4X9X9Xa a l |.|.).H.H.H.H.H.H.H.a a a a a l F.F.F.F.F.F. .n n L L L L Y Y Y Y Y Y Y Y Y Y Y Y Y Y Y Y Y Y Y Y Y Y Y Y U n n n P [ [ [ [ [ [ [ [ [ [ [ [ [ [ [ [ [ [ [ [ [ [ [ [ [ [ [ [ [ [ [ [ [ [ [ [ [ [ [ [ [ [ [ [ [ [ [ [ [ [ [ [ [ [ [ [ [ [ [ [ [ [ [ [ [ [ [ [ [ [ [ [ [ [ [ [ [ [ [ [ [ [ [ [ [ [ [ [ [ [ [ [ [ [ [ [ [ [ [ [ [ [ [ [ [ [ [ [ [ [ [ [ [ [ [ [ [ [ [ [ [ [ [ [ [ } | | | | | | | | | | | | | | | | | | | | | | | | | | | | | | | | | | | | | | | | | | | | | | | | | | | | | | | | | | | | | | | | | | | | } [ [ [ [ [ [ [ [ [ [ [ [ [ [ [ [ [ [ [ [ [ [ [ [ [ [ [ [ [ [ [ [ [ [ [ [ [ [ [ [ [ [ [ [ [ [ [ [ [ [ [ [ [ [ [ [ [ [ [ [ [ [ [ [ [ [ ",
"[ [ [ [ [ [ [ [ [ [ [ [ [ [ [ [ [ [ [ [ [ [ [ [ [ [ [ [ [ [ [ [ [ [ [ [ [ [ [ [ [ [ [ [ [ [ [ [ [ [ [ [ [ [ [ [ [ [ [ [ [ [ [ [ [ [ [ [ [ [ [ [ [ [ [ [ [ [ [ [ [ [ [ [ [ [ [ [ [ [ [ [ [ [ [ [ [ [ [ [ [ [ [ [ [ [ [ [ [ [ [ [ [ [ [ [ [ [ [ [ [ [ [ [ [ [ [ [ [ [ [ [ [ [ [ [ [ [ [ [ [ [ [ [ [ [ [ [ [ [ [ [ [ [ [ [ [ [ [ [ [ [ [ [ [ [ [ [ [ [ [ [ [ [ [ [ [ [ [ [ [ [ [ [ [ [ [ [ [ [ [ [ [ [ [ [ [ [ [ [ [ [ [ [ [ [ [ [ [ [ [ [ [ [ [ [ [ [ [ [ [ [ [ [ [ [ [ [ [ [ [ [ [ P n n F.F.j a a V.H.H.H.H.H.H.H.H.H.H.H.H.a a ) =.*.*.&.&.&.&.&.*.=.=.=.=.=.=.=.=.*.@.#.#.#.#.#.#.#.#.#.#.+.+.G S  .z. .S.2X2X<X<X<X<X<X<X<X<X<X<X<X<X,X=X&X&X&X&X&X&X&X&X&X&X&X&X&X&X&X&X&X&X&X&X&X&X&X&X&X&X&X&X&X&X&X&X&X&X&X&X&X&X&X&X&X=X=X=X=X=X=X=X=X-X-X>X>X>X>X-X-X=X=X=X=X&X&X&X&X&X&X&X&X&X&X&X&X&X&X&X&X&X&X&X&X&X&X&X&X&X&X&X&X&X&X&X&X&X&X&X&X&X&X&X&X&X&X&X&X&X&X&X&X&X&X&X&X&X&X&X&X&X&X&X&X&X&X&X&X&X&X&X&X&X&X&X&X&X&X&X&X&X=X<X<X2X2X2X2X2X4X4Xa a l |.|.).H.H.H.H.H.H.H.a a a a a l F.F.F.F.F.F. .n n L L L L Y Y Y Y Y Y Y Y Y Y Y Y Y Y Y Y Y Y Y Y Y Y Y Y U n n n P [ [ [ [ [ [ [ [ [ [ [ [ [ [ [ [ [ [ [ [ [ [ [ [ [ [ [ [ [ [ [ [ [ [ [ [ [ [ [ [ [ [ [ [ [ [ [ [ [ [ [ [ [ [ [ [ [ [ [ [ [ [ [ [ [ [ [ [ [ [ [ [ [ [ [ [ [ [ [ [ [ [ [ [ [ [ [ [ [ [ [ [ [ [ [ [ [ [ [ [ [ [ [ [ [ [ [ [ [ [ [ [ [ [ [ [ [ [ [ [ [ [ [ [ [ } | | | | | | | | | | | | | | | | | | | | | | | | | | | | | | | | | | | | | | | | | | | | | | | | | | | | | | | | | | | | | | | | | | | | } [ [ [ [ [ [ [ [ [ [ [ [ [ [ [ [ [ [ [ [ [ [ [ [ [ [ [ [ [ [ [ [ [ [ [ [ [ [ [ [ [ [ [ [ [ [ [ [ [ [ [ [ [ [ [ [ [ [ [ [ [ [ [ [ [ [ ",
"[ [ [ [ [ [ [ [ [ [ [ [ [ [ [ [ [ [ [ [ [ [ [ [ [ [ [ [ [ [ [ [ [ [ [ [ [ [ [ [ [ [ [ [ [ [ [ [ [ [ [ [ [ [ [ [ [ [ [ [ [ [ [ [ [ [ [ [ [ [ [ [ [ [ [ [ [ [ [ [ [ [ [ [ [ [ [ [ [ [ [ [ [ [ [ [ [ [ [ [ [ [ [ [ [ [ [ [ [ [ [ [ [ [ [ [ [ [ [ [ [ [ [ [ [ [ [ [ [ [ [ [ [ [ [ [ [ [ [ [ [ [ [ [ [ [ [ [ [ [ [ [ [ [ [ [ [ [ [ [ [ [ [ [ [ [ [ [ [ [ [ [ [ [ [ [ [ [ [ [ [ [ [ [ [ [ [ [ [ [ [ [ [ [ [ [ [ [ [ [ [ [ [ [ [ [ [ [ [ [ [ [ [ [ [ [ [ [ [ [ [ [ [ [ [ [ [ [ [ [ [ [ [ P n n F.F.j a a V.H.H.H.H.H.H.H.H.H.H.H.H.a a ) *.&.&.&.&.*.*.*.=.=.=.=.=.=.=.=.=.%.#.#.#.#.#.#.#.#.#.#.+.H G V  .z.x.z...2X2X<X<X<X<X<X<X<X<X<X<X<X<X>X&X&X&X&X&X&X&X&X&X&X&X&X&X&X&X&X&X&X&X&X&X&X&X&X&X&X&X&X&X&X&X=X=X=X=X=X=X=X=X=X-X-X>X>X>X>X>X>X>X>X>X>X>X>X>X>X>X>X>X>X>X>X-X-X=X=X=X&X=X&X&X&X&X&X&X&X&X&X&X&X&X&X&X&X&X&X&X&X&X&X&X&X&X&X&X&X&X&X&X&X&X&X&X&X&X&X&X&X&X&X&X&X&X&X&X&X&X&X&X&X&X&X&X&X&X&X&X&X&X&X&X&X&X&X&X&X&X&X&X,X<X<X<X<X<X<X<X<X2Xa a l |.|.).H.H.H.H.H.H.H.a a a a a l F.F.F.F.F.F. .n n L L L L Y Y Y Y Y Y Y Y Y Y Y Y Y Y Y Y Y Y Y Y Y Y Y Y U n n n P [ [ [ [ [ [ [ [ [ [ [ [ [ [ [ [ [ [ [ [ [ [ [ [ [ [ [ [ [ [ [ [ [ [ [ [ [ [ [ [ [ [ [ [ [ [ [ [ [ [ [ [ [ [ [ [ [ [ [ [ [ [ [ [ [ [ [ [ [ [ [ [ [ [ [ [ [ [ [ [ [ [ [ [ [ [ [ [ [ [ [ [ [ [ [ [ [ [ [ [ [ [ [ [ [ [ [ [ [ [ [ [ [ [ [ [ [ [ [ [ [ [ [ [ [ } | | | | | | | | | | | | | | | | | | | | | | | | | | | | | | | | | | | | | | | | | | | | | | | | | | | | | | | | | | | | | | | | | | | | } [ [ [ [ [ [ [ [ [ [ [ [ [ [ [ [ [ [ [ [ [ [ [ [ [ [ [ [ [ [ [ [ [ [ [ [ [ [ [ [ [ [ [ [ [ [ [ [ [ [ [ [ [ [ [ [ [ [ [ [ [ [ [ [ [ [ ",
"[ [ [ [ [ [ [ [ [ [ [ [ [ [ [ [ [ [ [ [ [ [ [ [ [ [ [ [ [ [ [ [ [ [ [ [ [ [ [ [ ' ` ` ` [ [ [ [ [ [ [ [ [ [ [ [ [ [ [ [ [ [ [ [ [ [ [ [ [ [ [ [ [ [ [ [ [ [ [ [ [ [ [ [ [ [ [ [ [ [ [ [ [ [ [ [ [ [ [ [ [ [ [ [ [ [ [ [ [ [ [ [ [ [ [ [ [ [ [ [ [ [ [ [ [ [ [ [ [ [ [ [ [ [ [ [ [ [ [ [ [ [ [ [ [ [ [ [ [ [ [ [ [ [ [ [ [ [ [ [ [ [ [ [ [ [ [ [ [ [ [ [ [ [ [ [ [ [ [ [ [ [ [ [ [ [ [ [ [ [ [ [ [ [ [ [ [ [ [ [ [ [ [ [ [ [ [ [ [ [ [ [ [ [ [ [ [ [ [ [ [ [ [ [ [ [ [ [ [ [ [ [ [ P n n F.F.d a a V.H.H.H.H.H.H.H.H.H.H.H.H.a a ..O.&.&.*.*.=.=.=.=.=.=.=.=.=.=.=.%.@.#.#.#.#.#.#.#.#.#.+.H F V f z.n.m.z. .;X2X<X<X<X<X<X<X<X<X<X<X<X,X&X&X&X&X&X&X&X&X&X&X&X&X&X&X&X&X&X&X&X&X&X&X=X=X=X=X=X=X=X=X-X-X>X>X>X>X>X>X>X>X>X>X>X>X>X>X>X>X>X>X>X>X>X>X>X>X>X>X>X>X>X>X>X>X>X>X>X>X-X-X=X=X=X=X&X&X&X&X&X&X&X&X&X&X&X&X&X&X&X&X&X&X&X&X&X&X&X&X&X&X&X&X&X&X&X&X&X&X&X&X&X&X&X&X&X&X&X&X&X&X&X&X&X&X&X&X&X&X&X&X&X&X&X&X&X&X&X&X&X:X<X<X2X2X2X2X2X2X2X2Xa a l |.|.).H.H.H.H.H.H.H.a a a a a l F.F.F.F.F.F. .n n L L L L Y Y Y Y Y Y Y Y Y Y Y Y Y Y Y Y Y Y Y Y Y Y Y Y U n n n P [ [ [ [ [ [ [ [ [ [ [ [ [ [ [ [ [ [ [ [ [ [ [ [ [ [ [ [ [ [ [ [ [ [ [ [ [ [ [ [ [ [ [ [ [ [ [ [ [ [ [ [ [ [ [ [ [ [ [ [ [ [ [ [ [ [ [ [ [ [ [ [ [ [ [ [ [ [ [ [ [ [ [ [ [ [ [ [ [ [ [ [ [ [ [ [ [ [ [ [ [ [ [ [ [ [ [ [ [ [ [ [ [ [ [ [ [ [ [ [ [ [ [ [ [ } | | | | | | | | | | | | | | | | | | | | | | | | | | | | | | | | | | | | | | | | | | | | | | | | | | | | | | | | | | | | | | | | | } } } [ [ [ [ [ [ [ [ [ [ [ [ [ [ [ [ [ [ [ [ [ [ [ [ [ [ [ [ [ [ [ [ [ [ [ [ [ [ [ [ [ [ [ [ [ [ [ [ [ [ [ [ [ [ [ [ [ [ [ [ [ [ [ [ [ [ [ ",
"[ [ [ [ [ [ [ [ [ [ [ [ [ [ [ [ [ [ [ [ [ [ [ [ [ [ [ [ [ [ [ [ [ ' ' ` ` ` ` ` ` ` ` ` [ [ [ [ [ [ [ [ [ [ [ [ [ [ [ [ [ [ [ [ [ [ [ [ [ [ [ [ [ [ [ [ [ [ [ [ [ [ [ [ [ [ [ [ [ [ [ [ [ [ [ [ [ [ [ [ [ [ [ [ [ [ [ [ [ [ [ [ [ [ [ [ [ [ [ [ [ [ [ [ [ [ [ [ [ [ [ [ [ [ [ [ [ [ [ [ [ [ [ [ [ [ [ [ [ [ [ [ [ [ [ [ [ [ [ [ [ [ [ [ [ [ [ [ [ [ [ [ [ [ [ [ [ [ [ [ [ [ [ [ [ [ [ [ [ [ [ [ [ [ [ [ [ [ [ [ [ [ [ [ [ [ [ [ [ [ [ [ [ [ [ [ [ [ [ [ [ [ [ [ [ [ [ [ [ [ [ [ [ P n n F.F.a a a V.H.H.H.H.H.H.H.H.H.H.H.H.a a ..y.O.&.&.*.=.=.=.=.=.=.=.=.=.=.%.@.#.#.#.#.#.#.#.#.+.+.G F 6 7 x.n.m.m.D. .~.2X<X<X<X<X<X<X<X<X<X<X,X=X&X&X&X&X&X&X&X&X&X&X&X&X=X=X=X=X=X=X=X=X-X-X>X>X>X>X>X>X>X>X>X>X>X>X>X>X>X>X>X>X>X>X>X>X>X>X>X>X>X>X>X>X>X>X>X>X>X>X>X>X>X>X>X>X>X>X>X>X>X>X>X>X>X>X-X=X=X=X=X&X&X&X&X&X&X&X&X&X&X&X&X&X&X&X&X&X&X&X&X&X&X&X&X&X&X&X&X&X&X&X&X&X&X&X&X&X&X&X&X&X&X&X&X&X&X&X&X&X&X&X&X&X&X&X&X&X&X&X=X<X2X2X4X4X4X4X4X4X4X9Xa a N.|.|._.H.H.H.H.H.H.H.a a a a a l F.F.F.F.F.F. .n n L L L L Y Y Y Y Y Y Y Y Y Y Y Y Y Y Y Y Y Y Y Y Y Y Y Y U n n n P [ [ [ [ [ [ [ [ [ [ [ [ [ [ [ [ [ [ [ [ [ [ [ [ [ [ [ [ [ [ [ [ [ [ [ [ [ [ [ [ [ [ [ [ [ [ [ [ [ [ [ [ [ [ [ [ [ [ [ [ [ [ [ [ [ [ [ [ [ [ [ [ [ [ [ [ [ [ [ [ [ [ [ [ [ [ [ [ [ [ [ [ [ [ [ [ [ [ [ [ [ [ [ [ [ [ [ [ [ [ [ [ [ [ [ [ [ [ [ [ [ [ [ [ [ } | | | | | | | | | | | | | | | | | | | | | | | | | | | | | | | | | | | | | | | | | | | | | | | | | | | | | | | | | | | | } } } } } } [ [ [ [ [ [ [ [ [ [ [ [ [ [ [ [ [ [ [ [ [ [ [ [ [ [ [ [ [ [ [ [ [ [ [ [ [ [ [ [ [ [ [ [ [ [ [ [ [ [ [ [ [ [ [ [ [ [ [ [ [ [ [ [ [ [ [ [ [ ",
"[ [ [ [ [ [ [ [ [ [ [ [ [ [ [ [ [ [ [ [ [ [ [ [ [ [ [ ' ` ` ` ` ` ` ` ` ` ` Y Y Y Y Y Y [ [ [ [ [ [ [ [ [ [ [ [ [ [ [ [ [ [ [ [ [ [ [ [ [ [ [ [ [ [ [ [ [ [ [ [ [ [ [ [ [ [ [ [ [ [ [ [ [ [ [ [ [ [ [ [ [ [ [ [ [ [ [ [ [ [ [ [ [ [ [ [ [ [ [ [ [ [ [ [ [ [ [ [ [ [ [ [ [ [ [ [ [ [ [ [ [ [ [ [ [ [ [ [ [ [ [ [ [ [ [ [ [ [ [ [ [ [ [ [ [ [ [ [ [ [ [ [ [ [ [ [ [ [ [ [ [ [ [ [ [ [ [ [ [ [ [ [ [ [ [ [ [ [ [ [ [ [ [ [ [ [ [ [ [ [ [ [ [ [ [ [ [ [ [ [ [ [ [ [ [ [ [ [ [ [ [ [ [ P n n F.F.a a a V.H.H.H.H.H.H.H.H.H.H.H.V.a a w.Q.J.J.y.O.&.*.=.=.=.=.=.=.=.=.%.#.#.#.#.#.#.#.@.+.H G V 5 7 g.n.m.m.m.(. .J.2X<X<X<X<X<X<X<X<X<X<X>X&X&X&X=X=X=X=X=X=X=X=X-X-X>X>X>X>X>X>X>X>X>X>X>X>X>X>X>X>X>X>X>X>X>X>X>X>X>X>X>X>X>X>X>X>X>X>X>X>X>X>X>X>X>X>X>X>X>X>X>X>X>X>X>X>X>X>X>X>X>X>X>X>X>X>X>X>X>X>X>X-X-X=X=X=X&X&X&X&X&X&X&X&X&X&X&X&X&X&X&X&X&X&X&X&X&X&X&X&X&X&X&X&X&X&X&X&X&X&X&X&X&X&X&X&X&X&X&X&X&X=X=X=X=X=X=X=X:X>X2X9X9X9X9X9X4X4X4X4X9X4Xa a V.|.|._.H.H.H.H.H.H.H.a a a a a l F.F.F.F.F.F. .n n L L L L Y Y Y Y Y Y Y Y Y Y Y Y Y Y Y Y Y Y Y Y Y Y Y Y U n n n P [ [ [ [ [ [ [ [ [ [ [ [ [ [ [ [ [ [ [ [ [ [ [ [ [ [ [ [ [ [ [ [ [ [ [ [ [ [ [ [ [ [ [ [ [ [ [ [ [ [ [ [ [ [ [ [ [ [ [ [ [ [ [ [ [ [ [ [ [ [ [ [ [ [ [ [ [ [ [ [ [ [ [ [ [ [ [ [ [ [ [ [ [ [ [ [ [ [ [ [ [ [ [ [ [ [ [ [ [ [ [ [ [ [ [ [ [ [ [ [ [ [ [ [ [ } | | | | | | | | | | | | | | | | | | | | | | | | | | | | | | | | | | | | | | | | | | | | | | | | | | | | | | | } } } } } } [ [ [ [ [ [ [ [ [ [ [ [ [ [ [ [ [ [ [ [ [ [ [ [ [ [ [ [ [ [ [ [ [ [ [ [ [ [ [ [ [ [ [ [ [ [ [ [ [ [ [ [ [ [ [ [ [ [ [ [ [ [ [ [ [ [ [ [ [ [ [ [ [ [ ",
"[ [ [ [ [ [ [ [ [ [ [ [ [ [ [ [ [ [ [ [ ' ` ` ` ` ` ` ` ` ` ` ` Y Y Y Y Y Y Y Y Y Y Y Y [ [ [ [ [ [ [ [ [ [ [ [ [ [ [ [ [ [ [ [ [ [ [ [ [ [ [ [ [ [ [ [ [ [ [ [ [ [ [ [ [ [ [ [ [ [ [ [ [ [ [ [ [ [ [ [ [ [ [ [ [ [ [ [ [ [ [ [ [ [ [ [ [ [ [ [ [ [ [ [ [ [ [ [ [ [ [ [ [ [ [ [ [ [ [ [ [ [ [ [ [ [ [ [ [ [ [ [ [ [ [ [ [ [ [ [ [ [ [ [ [ [ [ [ [ [ [ [ [ [ [ [ [ [ [ [ [ [ [ [ [ [ [ [ [ [ [ [ [ [ [ [ [ [ [ [ [ [ [ [ [ [ [ [ [ [ [ [ [ [ [ [ [ [ [ [ [ [ [ [ [ [ [ [ [ [ [ [ [ P n n F.F.a a a V.H.H.H.H.H.H.H.H.H.H.H.F.a a W.tX7XoXQ.J.S.y.&.*.=.=.=.=.=.%.#.#.#.#.#.#.@.+.+.b b V 5 i g.n.m.m.(.m.m...e.2X<X<X<X<X<X<X<X<X<X,X&X&X&X=X=X=X>X>X>X>X>X>X>X>X>X>X>X>X>X>X>X>X>X>X>X>X>X>X>X>X>X>X>X>X>X>X>X>X>X>X>X>X>X>X>X>X>X>X>X>X>X>X>X>X>X>X>X>X>X>X>X>X>X>X>X>X>X>X>X>X>X>X>X>X>X>X>X>X>X>X>X>X>X>X>X>X-X-X=X=X=X=X&X&X&X&X&X&X&X&X&X&X&X&X&X&X&X&X&X&X&X&X&X&X&X&X&X&X&X&X&X=X=X=X=X=X=X=X=X-X-X>X>X>X>X>X>X>X>X<X9X9X9X9X9X9X4X4X9X4X9X2Xa a V.|.|.).H.H.H.H.H.H.H.a a a a a l F.F.F.F.F.F. .n n L L L L Y Y Y Y Y Y Y Y Y Y Y Y Y Y Y Y Y Y Y Y Y Y Y Y U n n n P [ [ [ [ [ [ [ [ [ [ [ [ [ [ [ [ [ [ [ [ [ [ [ [ [ [ [ [ [ [ [ [ [ [ [ [ [ [ [ [ [ [ [ [ [ [ [ [ [ [ [ [ [ [ [ [ [ [ [ [ [ [ [ [ [ [ [ [ [ [ [ [ [ [ [ [ [ [ [ [ [ [ [ [ [ [ [ [ [ [ [ [ [ [ [ [ [ [ [ [ [ [ [ [ [ [ [ [ [ [ [ [ [ [ [ [ [ [ [ [ [ [ [ [ [ } | | | | | | | | | | | | | | | | | | | | | | | | | | | | | | | | | | | | | | | | | | | | | | | | | | } } } } } } [ [ [ [ [ [ [ [ [ [ [ [ [ [ [ [ [ [ [ [ [ [ [ [ [ [ [ [ [ [ [ [ [ [ [ [ [ [ [ [ [ [ [ [ [ [ [ [ [ [ [ [ [ [ [ [ [ [ [ [ [ [ [ [ [ [ [ [ [ [ [ [ [ [ [ [ [ [ [ ",
"[ [ [ [ [ [ [ [ [ [ [ [ [ [ ' ` ` ` ` ` ` ` ` ` ` Y Y Y Y Y Y Y Y Y Y Y Y Y Y Y Y Y Y Y [ [ [ [ [ [ [ [ [ [ [ [ [ [ [ [ [ [ [ [ [ [ [ [ [ [ [ [ [ [ [ [ [ [ [ [ [ [ [ [ [ [ [ [ [ [ [ [ [ [ [ [ [ [ [ [ [ [ [ [ [ [ [ [ [ [ [ [ [ [ [ [ [ [ [ [ [ [ [ [ [ [ [ [ [ [ [ [ [ [ [ [ [ [ [ [ [ [ [ [ [ [ [ [ [ [ [ [ [ [ [ [ [ [ [ [ [ [ [ [ [ [ [ [ [ [ [ [ [ [ [ [ [ [ [ [ [ [ [ [ [ [ [ [ [ [ [ [ [ [ [ [ [ [ [ [ [ [ [ [ [ [ [ [ [ [ [ [ [ [ [ [ [ [ [ [ [ [ [ [ [ [ [ [ [ [ [ [ [ P n n F.F.a a a V.H.H.H.H.H.H.H.H.H.H.H.F.a a ~.mXiXiXtX@XoXK.y.O.*.=.=.=.%.@.#.#.#.@.@.+.+.G b c 7 i g.l.m.m.m.(.z.z.m.z. .<X<X<X<X<X<X<X<X<X,X=X&X&X&X&X&X&X=X=X=X=X=X>X>X>X>X>X>X>X>X>X>X>X>X>X>X>X>X>X>X>X>X>X>X>X>X>X>X>X>X>X>X>X>X>X>X>X>X>X>X>X>X>X>X>X>X>X>X>X>X>X>X>X>X>X>X>X>X>X>X>X>X>X>X>X>X>X>X>X>X>X>X>X>X>X>X>X>X>X>X>X>X>X-X-X=X=X=X&X&X&X&X&X&X&X&X&X&X&X&X&X&X&X=X=X=X=X=X=X=X-X-X>X>X>X>X>X>X>X>X>X>X>X>X>X>X>X>X>X>X4X4X4X9X9X9X9X9X9X9X9X4X>Xa a V.|.|.).H.H.H.H.H.H.V.a a a a a l F.F.F.F.F.F. .n n L L L L Y Y Y Y Y Y Y Y Y Y Y Y Y Y Y Y Y Y Y Y Y Y Y Y U n n n P [ [ [ [ [ [ [ [ [ [ [ [ [ [ [ [ [ [ [ [ [ [ [ [ [ [ [ [ [ [ [ [ [ [ [ [ [ [ [ [ [ [ [ [ [ [ [ [ [ [ [ [ [ [ [ [ [ [ [ [ [ [ [ [ [ [ [ [ [ [ [ [ [ [ [ [ [ [ [ [ [ [ [ [ [ [ [ [ [ [ [ [ [ [ [ [ [ [ [ [ [ [ [ [ [ [ [ [ [ [ [ [ [ [ [ [ [ [ [ [ [ [ [ [ [ } | | | | | | | | | | | | | | | | | | | | | | | | | | | | | | | | | | | | | | | | | | | | } } } } } } [ [ [ [ [ [ [ [ [ [ [ [ [ [ [ [ [ [ [ [ [ [ [ [ [ [ [ [ [ [ [ [ [ [ [ [ [ [ [ [ [ [ [ [ [ [ [ [ [ [ [ [ [ [ [ [ [ [ [ [ [ [ [ [ [ [ [ [ [ [ [ [ [ [ [ [ [ [ [ [ [ [ [ [ [ ",
"[ [ [ [ [ [ [ ' ` ` ` ` ` ` ` ` ` ` Y Y Y Y Y Y Y Y Y Y Y Y Y Y Y Y Y Y Y Y Y Y Y Y Y Y [ [ [ [ [ [ [ [ [ [ [ [ [ [ [ [ [ [ [ [ [ [ [ [ [ [ [ [ [ [ [ [ [ [ [ [ [ [ [ [ [ [ [ [ [ [ [ [ [ [ [ [ [ [ [ [ [ [ [ [ [ [ [ [ [ [ [ [ [ [ [ [ [ [ [ [ [ [ [ [ [ [ [ [ [ [ [ [ [ [ [ [ [ [ [ [ [ [ [ [ [ [ [ [ [ [ [ [ [ [ [ [ [ [ [ [ [ [ [ [ [ [ [ [ [ [ [ [ [ [ [ [ [ [ [ [ [ [ [ [ [ [ [ [ [ [ [ [ [ [ [ [ [ [ [ [ [ [ [ [ [ [ [ [ [ [ [ [ [ [ [ [ [ [ [ [ [ [ [ [ [ [ [ [ [ [ [ [ [ P n n F.F.a a a V.H.H.H.H.H.H.H.H.H.H.F.F.a a Q.mXmXmXiXiXiX@XJ.S.O.*.=.*.%.#.#.#.@.+.+.G C V 7 7 g.g.l.n.aXaX(.z. . .(.z. .[.<X<X<X<X<X<X<X<X>X&X&X&X&X&X&X&X&X&X&X&X&X=X=X=X=X=X>X>X>X>X>X>X>X>X>X>X>X>X>X>X>X>X>X>X>X>X>X>X>X>X>X>X>X>X>X>X>X>X>X>X>X>X>X>X>X>X>X>X>X>X>X>X>X>X>X>X>X>X>X>X>X>X>X>X>X>X>X>X>X>X>X>X>X>X>X>X>X>X>X>X>X>X>X>X>X>X>X=X=X=X&X&X&X&X&X&X&X&X=X=X=X=X>X>X>X>X>X>X>X>X>X>X>X>X>X>X>X>X>X>X>X>X>X>X>X>X>X>X,X4X4X9X9X9X9X9X9X9X9X9X2X*Xa a V.|.|.).H.H.H.H.H.H.V.a a a a a l F.F.F.F.F.F. .n n L L L L Y Y Y Y Y Y Y Y Y Y Y Y Y Y Y Y Y Y Y Y Y Y Y Y U n n n P [ [ [ [ [ [ [ [ [ [ [ [ [ [ [ [ [ [ [ [ [ [ [ [ [ [ [ [ [ [ [ [ [ [ [ [ [ [ [ [ [ [ [ [ [ [ [ [ [ [ [ [ [ [ [ [ [ [ [ [ [ [ [ [ [ [ [ [ [ [ [ [ [ [ [ [ [ [ [ [ [ [ [ [ [ [ [ [ [ [ [ [ [ [ [ [ [ [ [ [ [ [ [ [ [ [ [ [ [ [ [ [ [ [ [ [ [ [ [ [ [ [ [ [ [ } | | | | | | | | | | | | | | | | | | | | | | | | | | | | | | | | | | | | | | | } } } } } } [ [ [ [ [ [ [ [ [ [ [ [ [ [ [ [ [ [ [ [ [ [ [ [ [ [ [ [ [ [ [ [ [ [ [ [ [ [ [ [ [ [ [ [ [ [ [ [ [ [ [ [ [ [ [ [ [ [ [ [ [ [ [ [ [ [ [ [ [ [ [ [ [ [ [ [ [ [ [ [ [ [ [ [ [ [ [ [ [ [ ",
"' ` ` ` ` ` ` ` ` ` ` ` Y Y Y Y Y Y Y Y Y Y Y Y Y Y Y Y Y Y Y Y Y Y Y Y Y Y Y Y Y Y Y Y [ [ [ [ [ [ [ [ [ [ [ [ [ [ [ [ [ [ [ [ [ [ [ [ [ [ [ [ [ [ [ [ [ [ [ [ [ [ [ [ [ [ [ [ [ [ [ [ [ [ [ [ [ [ [ [ [ [ [ [ [ [ [ [ [ [ [ [ [ [ [ [ [ [ [ [ [ [ [ [ [ [ [ [ [ [ [ [ [ [ [ [ [ [ [ [ [ [ [ [ [ [ [ [ [ [ [ [ [ [ [ [ [ [ [ [ [ [ [ [ [ [ [ [ [ [ [ [ [ [ [ [ [ [ [ [ [ [ [ [ [ [ [ [ [ [ [ [ [ [ [ [ [ [ [ [ [ [ [ [ [ [ [ [ [ [ [ [ [ [ [ [ [ [ [ [ [ [ [ [ [ [ [ [ [ [ [ [ [ P n n F.F.a a a V.H.H.H.H.H.H.H.H.H.F.F.F.a a ~.mXmXmXmXiXiXiX@XJ.S.O.*.%.#.#.@.+.b b b V 7 7 g.g.g.k.n.aX(.(.z. . . .z.(. .S.^.[.*X;X<X<X<X,X&X&X&X&X&X&X&X&X&X&X&X&X&X&X&X&X&X&X=X=X=X=X=X=X>X>X>X>X>X>X>X>X>X>X>X>X>X>X>X>X>X>X>X>X>X>X>X>X>X>X>X>X>X>X>X>X>X>X>X>X>X>X>X>X>X>X>X>X>X>X>X>X>X>X>X>X>X>X>X>X>X>X>X>X>X>X>X>X>X=X=X=X=X=X=X=X=X=X=X&X&X&X&X&X&X&X&X&X&X&X&X&X&X=X=X=X=X=X>X>X>X>X>X>X>X>X>X>X>X>X>X>X>X>X>X>X>X>X>X,X4X9X9X4X9X9X9X9X9X9X9X4X,XE.a a V.|.|.).H.H.H.H.H.H.V.a a a a a l F.F.F.F.F.F. .n n L L L L Y Y Y Y Y Y Y Y Y Y Y Y Y Y Y Y Y Y Y Y Y Y Y Y U n n n P [ [ [ [ [ [ [ [ [ [ [ [ [ [ [ [ [ [ [ [ [ [ [ [ [ [ [ [ [ [ [ [ [ [ [ [ [ [ [ [ [ [ [ [ [ [ [ [ [ [ [ [ [ [ [ [ [ [ [ [ [ [ [ [ [ [ [ [ [ [ [ [ [ [ [ [ [ [ [ [ [ [ [ [ [ [ [ [ [ [ [ [ [ [ [ [ [ [ [ [ [ [ [ [ [ [ [ [ [ [ [ [ [ [ [ [ [ [ [ [ [ [ [ [ [ } | | | | | | | | | | | | | | | | | | | | | | | | | | | | | | | | | | } } } } } } [ [ [ [ [ [ [ [ [ [ [ [ [ [ [ [ [ [ [ [ [ [ [ [ [ [ [ [ [ [ [ [ [ [ [ [ [ [ [ [ [ [ [ [ [ [ [ [ [ [ [ [ [ [ [ [ [ [ [ [ [ [ [ [ [ [ [ [ [ [ [ [ [ [ [ [ [ [ [ [ [ [ [ [ [ [ [ [ [ [ [ [ [ [ [ ",
"` ` ` ` ` Y Y Y Y Y Y Y Y Y Y Y Y Y Y Y Y Y Y Y Y Y Y Y Y Y Y Y Y Y Y Y Y Y Y Y Y Y Y Y [ [ [ [ [ [ [ [ [ [ [ [ [ [ [ [ [ [ [ [ [ [ [ [ [ [ [ [ [ [ [ [ [ [ [ [ [ [ [ [ [ [ [ [ [ [ [ [ [ [ [ [ [ [ [ [ [ [ [ [ [ [ [ [ [ [ [ [ [ [ [ [ [ [ [ [ [ [ [ [ [ [ [ [ [ [ [ [ [ [ [ [ [ [ [ [ [ [ [ [ [ [ [ [ [ [ [ [ [ [ [ [ [ [ [ [ [ [ [ [ [ [ [ [ [ [ [ [ [ [ [ [ [ [ [ [ [ [ [ [ [ [ [ [ [ [ [ [ [ [ [ [ [ [ [ [ [ [ [ [ [ [ [ [ [ [ [ [ [ [ [ [ [ [ [ [ [ [ [ [ [ [ [ [ [ [ [ [ [ P n n F.F.a a a V.H.H.H.H.H.H.H.H.F.F.F.F.a a ~.mXmXmXmXmXiXiXiX@XJ.S.O.@.@.H b C c c 7 7 g.g.g.g.i g.(.(.z. . .Q )  ...m. .o.H._.T.T.^.[.>X&X&X&X&X&X&X&X&X&X&X&X&X&X&X&X&X&X&X&X&X&X&X&X&X&X=X=X=X=X=X>X>X>X>X>X>X>X>X>X>X>X>X>X>X>X>X>X>X>X>X>X>X>X>X>X>X>X>X>X>X>X>X>X>X>X>X>X>X>X>X>X>X>X>X>X>X>X>X>X>X>X=X=X=X=X=X=X=X=X=X&X&X&X&X&X&X&X&X&X&X&X&X&X&X&X&X&X&X&X&X&X&X&X&X&X&X&X&X&X=X=X=X=X=X=X>X>X>X>X>X>X>X>X>X>X>X>X>X>X>X2X9X9X9X9X9X9X9X9X9X9X4X,X>XE.a a V.|.|.).H.H.H.H.H.H.V.a a a a a l F.F.F.F.F.F. .n n L L L L Y Y Y Y Y Y Y Y Y Y Y Y Y Y Y Y Y Y Y Y Y Y Y Y U n n n P [ [ [ [ [ [ [ [ [ [ [ [ [ [ [ [ [ [ [ [ [ [ [ [ [ [ [ [ [ [ [ [ [ [ [ [ [ [ [ [ [ [ [ [ [ [ [ [ [ [ [ [ [ [ [ [ [ [ [ [ [ [ [ [ [ [ [ [ [ [ [ [ [ [ [ [ [ [ [ [ [ [ [ [ [ [ [ [ [ [ [ [ [ [ [ [ [ [ [ [ [ [ [ [ [ [ [ [ [ [ [ [ [ [ [ [ [ [ [ [ [ [ [ [ [ } | | | | | | | | | | | | | | | | | | | | | | | | | | | | } } } } } } } [ [ [ [ [ [ [ [ [ [ [ [ [ [ [ [ [ [ [ [ [ [ [ [ [ [ [ [ [ [ [ [ [ [ [ [ [ [ [ [ [ [ [ [ [ [ [ [ [ [ [ [ [ [ [ [ [ [ [ [ [ [ [ [ [ [ [ [ [ [ [ [ [ [ [ [ [ [ [ [ [ [ [ [ [ [ [ [ [ [ [ [ [ [ [ [ [ [ [ [ ",
"Y Y Y Y Y Y Y Y Y Y Y Y Y Y Y Y Y Y Y Y Y Y Y Y Y Y Y Y Y Y Y Y Y Y Y Y Y Y Y Y Y Y Y Y [ [ [ [ [ [ [ [ [ [ [ [ [ [ [ [ [ [ [ [ [ [ [ [ [ [ [ [ [ [ [ [ [ [ [ [ [ [ [ [ [ [ [ [ [ [ [ [ [ [ [ [ [ [ [ [ [ [ [ [ [ [ [ [ [ [ [ [ [ [ [ [ [ [ [ [ [ [ [ [ [ [ [ [ [ [ [ [ [ [ [ [ [ [ [ [ [ [ [ [ [ [ [ [ [ [ [ [ [ [ [ [ [ [ [ [ [ [ [ [ [ [ [ [ [ [ [ [ [ [ [ [ [ [ [ [ [ [ [ [ [ [ [ [ [ [ [ [ [ [ [ [ [ [ [ [ [ [ [ [ [ [ [ [ [ [ [ [ [ [ [ [ [ [ [ [ [ [ [ [ [ [ [ [ [ [ [ [ [ P n n F.F.a a a V.H.H.H.H.H.H.H.F.F.F.F.V.a a Q.mXmXmXmXmXiXiXiXiX@XJ.o.J F V c 5 5 i g.i g.g.4 6 7 ..z.z. . .Q ) )  . .(. .o.kXkX|.).H.V.T.^.^.^.;X;X[.*X^.&X&X&X&X&X&X&X&X&X&X&X&X&X&X&X&X&X&X&X&X&X&X=X=X=X=X=X>X>X>X>X>X>X>X>X>X>X>X>X>X>X>X>X>X>X>X>X>X>X>X>X>X>X>X>X>X>X>X>X>X>X>X>X=X=X=X=X=X=X=X=X=X=X&X&X&X&X&X&X&X&X&X&X&X&X&X&X&X&X&X&X&X&X&X&X&X&X&X&X&X&X&X&X&X&X&X&X&X&X&X&X&X&X&X&X&X&X=X=X=X=X=X>X>X>X>X>X>X>X>X>X<X9X9X9X9X9X9X9X9X9X9X4X2X>X>XE.a a V.|.|.).H.H.H.H.H.H.V.a a a a a l F.F.F.F.F.F. .n n L L L L Y Y Y Y Y Y Y Y Y Y Y Y Y Y Y Y Y Y Y Y Y Y Y Y U n n n P [ [ [ [ [ [ [ [ [ [ [ [ [ [ [ [ [ [ [ [ [ [ [ [ [ [ [ [ [ [ [ [ [ [ [ [ [ [ [ [ [ [ [ [ [ [ [ [ [ [ [ [ [ [ [ [ [ [ [ [ [ [ [ [ [ [ [ [ [ [ [ [ [ [ [ [ [ [ [ [ [ [ [ [ [ [ [ [ [ [ [ [ [ [ [ [ [ [ [ [ [ [ [ [ [ [ [ [ [ [ [ [ [ [ [ [ [ [ [ [ [ [ [ [ [ } | | | | | | | | | | | | | | | | | | | | | | | } } } } } } [ [ [ [ [ [ [ [ [ [ [ [ [ [ [ [ [ [ [ [ [ [ [ [ [ [ [ [ [ [ [ [ [ [ [ [ [ [ [ [ [ [ [ [ [ [ [ [ [ [ [ [ [ [ [ [ [ [ [ [ [ [ [ [ [ [ [ [ [ [ [ [ [ [ [ [ [ [ [ [ [ [ [ [ [ [ [ [ [ [ [ [ [ [ [ [ [ [ [ [ [ [ [ [ [ [ ",
"Y Y Y Y Y Y Y Y Y Y Y Y Y Y Y Y Y Y Y Y Y Y Y Y Y Y Y Y Y Y Y Y Y Y Y Y Y Y Y Y Y Y Y Y [ [ [ [ [ [ [ [ [ [ [ [ [ [ [ [ [ [ [ [ [ [ [ [ [ [ [ [ [ [ [ [ [ [ [ [ [ [ [ [ [ [ [ [ [ [ [ [ [ [ [ [ [ [ [ [ [ [ [ [ [ [ [ [ [ [ [ [ [ [ [ [ [ [ [ [ [ [ [ [ [ [ [ [ [ [ [ [ [ [ [ [ [ [ [ [ [ [ [ [ [ [ [ [ [ [ [ [ [ [ [ [ [ [ [ [ [ [ [ [ [ [ [ [ [ [ [ [ [ [ [ [ [ [ [ [ [ [ [ [ [ [ [ [ [ [ [ [ [ [ [ [ [ [ [ [ [ [ [ [ [ [ [ [ [ [ [ [ [ [ [ [ [ [ [ [ [ [ [ [ [ [ [ [ [ [ [ [ [ P n n F.F.a a a V.H.H.H.H.H.H.H.F.F.F.F.N.a a ~.mXmXmXmXmXiXiXiXiXiXXX..D 7 7 i g.g.g.g.i 4 B S ( t. . . .Q ) ) ) ) Q  .(.z. .BXBXBXBX|.H.F.1XdXdXkXkXdXfX|.^.&X&X&X&X&X&X&X&X&X&X&X&X&X&X&X&X&X&X&X&X&X&X&X&X&X&X=X=X=X=X=X>X>X>X>X>X>X>X>X>X>X>X>X>X>X>X>X>X>X>X>X>X=X=X=X=X=X=X=X=X=X=X&X&X&X&X&X&X&X&X&X&X&X&X&X&X&X&X&X&X&X&X&X&X&X&X&X&X&X&X&X&X&X&X&X&X&X&X&X&X&X&X&X&X&X&X&X&X&X&X&X&X&X&X&X&X&X&X&X&X&X=X=X=X=X=X=X>X>X>X4X9X9X9X9X9X4X4X9X9X9X4X>X>X>XE.a a V.|.|.).H.H.H.H.H.H.V.a a a a a l F.F.F.F.F.F. .n n L L L L Y Y Y Y Y Y Y Y Y Y Y Y Y Y Y Y Y Y Y Y Y Y Y Y U n n n P [ [ [ [ [ [ [ [ [ [ [ [ [ [ [ [ [ [ [ [ [ [ [ [ [ [ [ [ [ [ [ [ [ [ [ [ [ [ [ [ [ [ [ [ [ [ [ [ [ [ [ [ [ [ [ [ [ [ [ [ [ [ [ [ [ [ [ [ [ [ [ [ [ [ [ [ [ [ [ [ [ [ [ [ [ [ [ [ [ [ [ [ [ [ [ [ [ [ [ [ [ [ [ [ [ [ [ [ [ [ [ [ [ [ [ [ [ [ [ [ [ [ [ [ [ } | | | | | | | | | | | | | | | | | | } } } } } } [ [ [ [ [ [ [ [ [ [ [ [ [ [ [ [ [ [ [ [ [ [ [ [ [ [ [ [ [ [ [ [ [ [ [ [ [ [ [ [ [ [ [ [ [ [ [ [ [ [ [ [ [ [ [ [ [ [ [ [ [ [ [ [ [ [ [ [ [ [ [ [ [ [ [ [ [ [ [ [ [ [ [ [ [ [ [ [ [ [ [ [ [ [ [ [ [ [ [ [ [ [ [ [ [ [ [ [ [ [ [ ",
"Y Y Y Y Y Y Y Y Y Y Y Y Y Y Y Y Y Y Y Y Y Y Y Y Y Y Y Y Y Y Y Y Y Y Y Y Y Y Y Y Y Y Y Y [ [ [ [ [ [ [ [ [ [ [ [ [ [ [ [ [ [ [ [ [ [ [ [ [ [ [ [ [ [ [ [ [ [ [ [ [ [ [ [ [ [ [ [ [ [ [ [ [ [ [ [ [ [ [ [ [ [ [ [ [ [ [ [ [ [ [ [ [ [ [ [ [ [ [ [ [ [ [ [ [ [ [ [ [ [ [ [ [ [ [ [ [ [ [ [ [ [ [ [ [ [ [ [ [ [ [ [ [ [ [ [ [ [ [ [ [ [ [ [ [ [ [ [ [ [ [ [ [ [ [ [ [ [ [ [ [ [ [ [ [ [ [ [ [ [ [ [ [ [ [ [ [ [ [ [ [ [ [ [ [ [ [ [ [ [ [ [ [ [ [ [ [ [ [ [ [ [ [ [ [ [ [ [ [ [ [ [ [ P n n F.F.a a a V.H.H.H.H.H.H.F.F.F.F.F.V.a a Q.mXmXmXmXmXiXiXiXiXiXuX.. .g.g.g.g.i 4 B B S 8.p.d.p. . .) ) ) ) ) Q Q  .z.z. .lXBXlXzXkXdX XkXzXzXlXZXZXZXBX_.%X&X&X&X&X&X&X&X&X&X&X&X&X&X&X&X&X&X&X&X&X&X&X&X&X&X&X&X&X&X&X=X=X=X=X=X>X>X>X>X>X>X>X=X=X=X=X=X=X=X=X=X&X&X&X&X&X&X&X&X&X&X&X&X&X&X&X&X&X&X&X&X&X&X&X&X&X&X&X&X&X&X&X&X&X&X&X&X&X&X&X&X&X&X&X&X&X&X&X&X&X&X&X&X&X&X&X&X&X&X&X&X&X&X&X&X&X&X&X&X&X&X&X&X&X&X&X=X=X,X4X4X4X4X9X9X4X4X4X4X9X<X>X>X>XE.a a V.|.|.).H.H.H.H.H.H.V.a a a a a N.F.F.F.F.F.F. .n n L L L L U Y Y Y Y Y Y Y Y Y Y Y Y Y Y Y Y Y Y Y Y Y Y Y U n n n P [ [ [ [ [ [ [ [ [ [ [ [ [ [ [ [ [ [ [ [ [ [ [ [ [ [ [ [ [ [ [ [ [ [ [ [ [ [ [ [ [ [ [ [ [ [ [ [ [ [ [ [ [ [ [ [ [ [ [ [ [ [ [ [ [ [ [ [ [ [ [ [ [ [ [ [ [ [ [ [ [ [ [ [ [ [ [ [ [ [ [ [ [ [ [ [ [ [ [ [ [ [ [ [ [ [ [ [ [ [ [ [ [ [ [ [ [ [ [ [ [ [ [ [ [ } | | | | | | | | | | | | | } } } } } } [ [ [ [ [ [ [ [ [ [ [ [ [ [ [ [ [ [ [ [ [ [ [ [ [ [ [ [ [ [ [ [ [ [ [ [ [ [ [ [ [ [ [ [ [ [ [ [ [ [ [ [ [ [ [ [ [ [ [ [ [ [ [ [ [ [ [ [ [ [ [ [ [ [ [ [ [ [ [ [ [ [ [ [ [ [ [ [ [ [ [ [ [ [ [ [ [ [ [ [ [ [ [ [ [ [ [ [ [ [ [ [ [ [ [ [ ",
"Y Y Y Y Y Y Y Y Y Y Y Y Y Y Y Y Y Y Y Y Y Y Y Y Y Y Y Y Y Y Y Y Y Y Y Y Y Y Y Y Y Y Y Y [ [ [ [ [ [ [ [ [ [ [ [ [ [ [ [ [ [ [ [ [ [ [ [ [ [ [ [ [ [ [ [ [ [ [ [ [ [ [ [ [ [ [ [ [ [ [ [ [ [ [ [ [ [ [ [ [ [ [ [ [ [ [ [ [ [ [ [ [ [ [ [ [ [ [ [ [ [ [ [ [ [ [ [ [ [ [ [ [ [ [ [ [ [ [ [ [ [ [ [ [ [ [ [ [ [ [ [ [ [ [ [ [ [ [ [ [ [ [ [ [ [ [ [ [ [ [ [ [ [ [ [ [ [ [ [ [ [ [ [ [ [ [ [ [ [ [ [ [ [ [ [ [ [ [ [ [ [ [ [ [ [ [ [ [ [ [ [ [ [ [ [ [ [ [ [ [ [ [ [ [ [ [ [ [ [ [ [ [ P n n F.F.a a a V.H.H.H.H.H.F.F.F.F.F.H.V.a a K.pXiXmXmXmXiXiXiXiXuXuXq. .g.g.i i B S 8.8.p.p.d.d.d.X. .) ) ) ) Q Q  . .z.(. .$XlXfXfXkX X_.G.[.[.~.BXZXZXZXfX^.&X&X&X&X&X&X&X&X&X&X&X&X&X&X&X&X&X&X&X&X&X&X&X&X&X&X&X&X&X&X&X&X&X&X&X=X=X=X=X=X=X=X&X&X&X&X&X&X&X&X&X&X&X&X&X&X&X&X&X&X&X&X&X&X&X&X&X&X&X&X&X&X&X&X&X&X&X&X&X&X&X&X&X&X&X&X&X&X&X&X&X&X&X&X&X&X&X&X&X&X&X&X&X&X&X&X&X&X&X&X&X&X&X&X&X&X&X&X&X&X&X&X&X&X&X&X&X=X<X2X2X2X2X4X4X4X4X4X4X4X>X>X>X>XE.a a V.|.|.H.H.H.H.H.H.H.V.a a a a a N.F.F.F.F.F.F. .n n L L L L L Y Y Y Y Y Y Y Y Y Y Y Y Y Y Y Y Y Y Y Y Y Y Y U n n n P [ [ [ [ [ [ [ [ [ [ [ [ [ [ [ [ [ [ [ [ [ [ [ [ [ [ [ [ [ [ [ [ [ [ [ [ [ [ [ [ [ [ [ [ [ [ [ [ [ [ [ [ [ [ [ [ [ [ [ [ [ [ [ [ [ [ [ [ [ [ [ [ [ [ [ [ [ [ [ [ [ [ [ [ [ [ [ [ [ [ [ [ [ [ [ [ [ [ [ [ [ [ [ [ [ [ [ [ [ [ [ [ [ [ [ [ [ [ [ [ [ [ [ [ [ } | | | | | | | | } } } } } [ [ [ [ [ [ [ [ [ [ [ [ [ [ [ [ [ [ [ [ [ [ [ [ [ [ [ [ [ [ [ [ [ [ [ [ [ [ [ [ [ [ [ [ [ [ [ [ [ [ [ [ [ [ [ [ [ [ [ [ [ [ [ [ [ [ [ [ [ [ [ [ [ [ [ [ [ [ [ [ [ [ [ [ [ [ [ [ [ [ [ [ [ [ [ [ [ [ [ [ [ [ [ [ [ [ [ [ [ [ [ [ [ [ [ [ [ [ [ [ [ [ ",
"Y Y Y Y Y Y Y Y Y Y Y Y Y Y Y Y Y Y Y Y Y Y Y Y Y Y Y Y Y Y Y Y Y Y Y Y Y Y Y Y Y Y Y Y [ [ [ [ [ [ [ [ [ [ [ [ [ [ [ [ [ [ [ [ [ [ [ [ [ [ [ [ [ [ [ [ [ [ [ [ [ [ [ [ [ [ [ [ [ [ [ [ [ [ [ [ [ [ [ [ [ [ [ [ [ [ [ [ [ [ [ [ [ [ [ [ [ [ [ [ [ [ [ [ [ [ [ [ [ [ [ [ [ [ [ [ [ [ [ [ [ [ [ [ [ [ [ [ [ [ [ [ [ [ [ [ [ [ [ [ [ [ [ [ [ [ [ [ [ [ [ [ [ [ [ [ [ [ [ [ [ [ [ [ [ [ [ [ [ [ [ [ [ [ [ [ [ [ [ [ [ [ [ [ [ [ [ [ [ [ [ [ [ [ [ [ [ [ [ [ [ [ [ [ [ [ [ [ [ [ [ [ [ P n n F.F.a a a V.H.H.H.H.H.F.F.F.F.F.H.V.a a J.tXiXiXpXpXiXiXiXuXyXOX..t i B B S 8.p.p.p.8.p.t.p.d.t. .Q ) Q Q  . . . .z.(. .J.fXfX X)._.F.F.T.T.F.fXZXZXZXdXE.%X&X&X&X&X&X&X&X&X&X&X&X&X&X&X&X&X&X&X&X&X&X&X&X&X&X&X&X&X&X&X&X&X&X&X&X&X&X&X&X&X&X&X&X&X&X&X&X&X&X&X&X&X&X&X&X&X&X&X&X&X&X&X&X&X&X&X&X&X&X&X&X&X&X&X&X&X&X&X&X&X&X&X&X&X&X&X&X&X&X&X&X&X&X&X&X&X&X&X&X&X&X&X&X&X&X&X&X&X&X&X&X&X&X&X&X&X&X&X&X&X&X&X&X&X&X&X,X<X<X<X<X<X<X2X2X2X2X2X>X=X=X>X>XE.a a H.|.|.H.H.H.H.H.H.H.V.a a a a a N.F.F.F.F.F.F. .n n L L L L L Y Y Y Y Y Y Y Y Y Y Y Y Y Y Y Y Y Y Y Y Y Y Y U n n n P [ [ [ [ [ [ [ [ [ [ [ [ [ [ [ [ [ [ [ [ [ [ [ [ [ [ [ [ [ [ [ [ [ [ [ [ [ [ [ [ [ [ [ [ [ [ [ [ [ [ [ [ [ [ [ [ [ [ [ [ [ [ [ [ [ [ [ [ [ [ [ [ [ [ [ [ [ [ [ [ [ [ [ [ [ [ [ [ [ [ [ [ [ [ [ [ [ [ [ [ [ [ [ [ [ [ [ [ [ [ [ [ [ [ [ [ [ [ [ [ [ [ [ [ [ } | | } } } } } } [ [ [ [ [ [ [ [ [ [ [ [ [ [ [ [ [ [ [ [ [ [ [ [ [ [ [ [ [ [ [ [ [ [ [ [ [ [ [ [ [ [ [ [ [ [ [ [ [ [ [ [ [ [ [ [ [ [ [ [ [ [ [ [ [ [ [ [ [ [ [ [ [ [ [ [ [ [ [ [ [ [ [ [ [ [ [ [ [ [ [ [ [ [ [ [ [ [ [ [ [ [ [ [ [ [ [ [ [ [ [ [ [ [ [ [ [ [ [ [ [ [ [ [ [ [ [ ",
"Y Y Y Y Y Y Y Y Y Y Y Y Y Y Y Y Y Y Y Y Y Y Y Y Y Y Y Y Y Y Y Y Y Y Y Y Y Y Y Y Y Y Y Y [ [ [ [ [ [ [ [ [ [ [ [ [ [ [ [ [ [ [ [ [ [ [ [ [ [ [ [ [ [ [ [ [ [ [ [ [ [ [ [ [ [ [ [ [ [ [ [ [ [ [ [ [ [ [ [ [ [ [ [ [ [ [ [ [ [ [ [ [ [ [ [ [ [ [ [ [ [ [ [ [ [ [ [ [ [ [ [ [ [ [ [ [ [ [ [ [ [ [ [ [ [ [ [ [ [ [ [ [ [ [ [ [ [ [ [ [ [ [ [ [ [ [ [ [ [ [ [ [ [ [ [ [ [ [ [ [ [ [ [ [ [ [ [ [ [ [ [ [ [ [ [ [ [ [ [ [ [ [ [ [ [ [ [ [ [ [ [ [ [ [ [ [ [ [ [ [ [ [ [ [ [ [ [ [ [ [ [ [ P n n F.F.a a a V.H.H.H.H.F.F.F.F.F.H.H.V.a a o.Q.rXtXiXiXiXiXuXyXOXy. .W S 8.8.p.p.8.8.8.S 9. .q.d.p. . .Q Q  . . .....(.aX .C. XH.H.).).).).H._._.zXZXZXzXH.w.Z.U.U.U.%X&X&X&X&X&X&X&X&X&X&X&X&X&X&X&X&X&X&X&X&X&X&X=X=X=X=X=X=X=X=X=X=X=X&X&X&X&X&X&X&X&X&X&X&X&X&X&X&X&X&X&X&X&X&X&X&X&X&X&X&X&X&X&X&X&X&X&X&X&X&X&X&X&X&X&X&X&X&X&X&X&X&X&X&X&X&X&X&X&X&X&X&X&X&X&X&X&X&X&X&X&X&X&X&X&X&X&X&X&X&X&X&X&X&X&X&X&X&X&X&X&X=X<X<X<X<X<X<X<X<X<X<X<X>X&X&X&X=X=XE.a a ).|.|.H.H.H.H.H.H.H.V.a a a a a N.F.F.F.F.F.F. .n n L L L L L Y Y Y Y Y Y Y Y Y Y Y Y Y Y Y Y Y Y Y Y Y Y Y U n n n P [ [ [ [ [ [ [ [ [ [ [ [ [ [ [ [ [ [ [ [ [ [ [ [ [ [ [ [ [ [ [ [ [ [ [ [ [ [ [ [ [ [ [ [ [ [ [ [ [ [ [ [ [ [ [ [ [ [ [ [ [ [ [ [ [ [ [ [ [ [ [ [ [ [ [ [ [ [ [ [ [ [ [ [ [ [ [ [ [ [ [ [ [ [ [ [ [ [ [ [ [ [ [ [ [ [ [ [ [ [ [ [ [ [ [ [ [ [ [ [ [ [ [ [ [ } } } } [ [ [ [ [ [ [ [ [ [ [ [ [ [ [ [ [ [ [ [ [ [ [ [ [ [ [ [ [ [ [ [ [ [ [ [ [ [ [ [ [ [ [ [ [ [ [ [ [ [ [ [ [ [ [ [ [ [ [ [ [ [ [ [ [ [ [ [ [ [ [ [ [ [ [ [ [ [ [ [ [ [ [ [ [ [ [ [ [ [ [ [ [ [ [ [ [ [ [ [ [ [ [ [ [ [ [ [ [ [ [ [ [ [ [ [ [ [ [ [ [ [ [ [ [ [ [ [ [ [ [ ` ",
"Y Y Y Y Y Y Y Y Y Y Y Y Y Y Y Y Y Y Y Y Y Y Y Y Y Y Y Y Y Y Y Y Y Y Y Y Y Y Y Y Y Y Y Y [ [ [ [ [ [ [ [ [ [ [ [ [ [ [ [ [ [ [ [ [ [ [ [ [ [ [ [ [ [ [ [ [ [ [ [ [ [ [ [ [ [ [ [ [ [ [ [ [ [ [ [ [ [ [ [ [ [ [ [ [ [ [ [ [ [ [ [ [ [ [ [ [ [ [ [ [ [ [ [ [ [ [ [ [ [ [ [ [ [ [ [ [ [ [ [ [ [ [ [ [ [ [ [ [ [ [ [ [ [ [ [ [ [ [ [ [ [ [ [ [ [ [ [ [ [ [ [ [ [ [ [ [ [ [ [ [ [ [ [ [ [ [ [ [ [ [ [ [ [ [ [ [ [ [ [ [ [ [ [ [ [ [ [ [ [ [ [ [ [ [ [ [ [ [ [ [ [ [ [ [ [ [ [ [ [ [ [ [ P n n F.F.a a a V.H.H.H.F.F.F.F.F.H.H.H.V.a a g.C.J.oXrXtXtXtXOXoXy...W 8.p.8.8.8.( S B ; A Q  . .p.d.X. . . . . ...z.z.(.m. .o.).F.V.).`.). X XkXfX XfXfX`.N.j j d k k Z.U.U.%X&X&X&X&X&X&X&X&X&X=X=X=X=X=X=X=X=X-X-X>X>X>X>X>X>X>X>X>X>X>X-X-X=X=X=X=X=X&X&X&X&X&X&X&X&X&X&X&X&X&X&X&X&X&X&X&X&X&X&X&X&X&X&X&X&X&X&X&X&X&X&X&X&X&X&X&X&X&X&X&X&X&X&X&X&X&X&X&X&X&X&X&X&X&X&X&X&X&X&X&X&X&X&X&X&X&X&X&X&X&X&X&X&X&X&X&X&X=X,X<X<X<X<X<X<X<X<X<X<X,X&X&X&X&X&X&XY.a a ).|.|.H.H.H.H.H.H.H.V.a a a a a N.F.F.F.F.F.F.A n M L L L L L Y Y Y Y Y Y Y Y Y Y Y Y Y Y Y Y Y Y Y Y Y Y Y U n n n P [ [ [ [ [ [ [ [ [ [ [ [ [ [ [ [ [ [ [ [ [ [ [ [ [ [ [ [ [ [ [ [ [ [ [ [ [ [ [ [ [ [ [ [ [ [ [ [ [ [ [ [ [ [ [ [ [ [ [ [ [ [ [ [ [ [ [ [ [ [ [ [ [ [ [ [ [ [ [ [ [ [ [ [ [ [ [ [ [ [ [ [ [ [ [ [ [ [ [ [ [ [ [ [ [ [ [ [ [ [ [ [ [ [ [ [ [ [ [ [ [ [ [ [ [ [ [ [ [ [ [ [ [ [ [ [ [ [ [ [ [ [ [ [ [ [ [ [ [ [ [ [ [ [ [ [ [ [ [ [ [ [ [ [ [ [ [ [ [ [ [ [ [ [ [ [ [ [ [ [ [ [ [ [ [ [ [ [ [ [ [ [ [ [ [ [ [ [ [ [ [ [ [ [ [ [ [ [ [ [ [ [ [ [ [ [ [ [ [ [ [ [ [ [ [ [ [ [ [ [ [ [ [ [ [ [ [ [ [ [ [ [ [ [ [ [ [ [ [ [ [ [ [ [ [ [ [ [ [ ` ` ",
"Y Y Y Y Y Y Y Y Y Y Y Y Y Y Y Y Y Y Y Y Y Y Y Y Y Y Y Y Y Y Y Y Y Y Y Y Y Y Y Y Y Y Y Y [ [ [ [ [ [ [ [ [ [ [ [ [ [ [ [ [ [ [ [ [ [ [ [ [ [ [ [ [ [ [ [ [ [ [ [ [ [ [ [ [ [ [ [ [ [ [ [ [ [ [ [ [ [ [ [ [ [ [ [ [ [ [ [ [ [ [ [ [ [ [ [ [ [ [ [ [ [ [ [ [ [ [ [ [ [ [ [ [ [ [ [ [ [ [ [ [ [ [ [ [ [ [ [ [ [ [ [ [ [ [ [ [ [ [ [ [ [ [ [ [ [ [ [ [ [ [ [ [ [ [ [ [ [ [ [ [ [ [ [ [ [ [ [ [ [ [ [ [ [ [ [ [ [ [ [ [ [ [ [ [ [ [ [ [ [ [ [ [ [ [ [ [ [ [ [ [ [ [ [ [ [ [ [ [ [ [ [ [ P n n F.F.a a a V.H.H.H.F.F.F.F.F.H.H.H.V.a a g.V.C.C.J.oXoXQ.y...W W 8.8.8.B S 5 5 6 ; V Q ) )  .t.d.t. . . ...z.(.m.(.(.m...o._.H.|. X X_.BX|.|.).H.H.H._.).).).F.N.l j a j Z.U.E.=X=X=X=X=X=X-X>X>X>X>X>X>X>X>X>X>X>X>X>X>X>X>X>X>X>X>X>X>X>X>X>X>X-X-X=X=X=X&X&X&X&X&X&X&X&X&X&X&X&X&X&X&X&X&X&X&X&X&X&X&X&X&X&X&X&X&X&X&X&X&X&X&X&X&X&X&X&X&X&X&X&X&X&X&X&X&X&X&X&X&X&X&X&X&X&X&X&X&X&X&X&X&X&X&X&X&X&X&X&X&X&X&X&X&X,X<X<X<X<X<X<X<X<X<X<X<X=X&X&X&X&X&X&XY.a a ).|.`.H.H.H.H.H.H.H.l a a a a a N.F.F.F.F.F.F.A n M L L L L L Y Y Y Y Y Y Y Y Y Y Y Y Y Y Y Y Y Y Y Y Y Y Y U n n n P [ [ [ [ [ [ [ [ [ [ [ [ [ [ [ [ [ [ [ [ [ [ [ [ [ [ [ [ [ [ [ [ [ [ [ [ [ [ [ [ [ [ [ [ [ [ [ [ [ [ [ [ [ [ [ [ [ [ [ [ [ [ [ [ [ [ [ [ [ [ [ [ [ [ [ [ [ [ [ [ [ [ [ [ [ [ [ [ [ [ [ [ [ [ [ [ [ [ [ [ [ [ [ [ [ [ [ [ [ [ [ [ [ [ [ [ [ [ [ [ [ [ [ [ [ [ [ [ [ [ [ [ [ [ [ [ [ [ [ [ [ [ [ [ [ [ [ [ [ [ [ [ [ [ [ [ [ [ [ [ [ [ [ [ [ [ [ [ [ [ [ [ [ [ [ [ [ [ [ [ [ [ [ [ [ [ [ [ [ [ [ [ [ [ [ [ [ [ [ [ [ [ [ [ [ [ [ [ [ [ [ [ [ [ [ [ [ [ [ [ [ [ [ [ [ [ [ [ [ [ [ [ [ [ [ [ [ [ [ [ [ [ [ [ [ [ [ [ [ [ [ [ [ [ [ [ [ [ ` ` Y ",
"Y Y Y Y Y Y Y Y Y Y Y Y Y Y Y Y Y Y Y Y Y Y Y Y Y Y Y Y Y Y Y Y Y Y Y Y Y Y Y Y Y Y Y Y [ [ [ [ [ [ [ [ [ [ [ [ [ [ [ [ [ [ [ [ [ [ [ [ [ [ [ [ [ [ [ [ [ [ [ [ [ [ [ [ [ [ [ [ [ [ [ [ [ [ [ [ [ [ [ [ [ [ [ [ [ [ [ [ [ [ [ [ [ [ [ [ [ [ [ [ [ [ [ [ [ [ [ [ [ [ [ [ [ [ [ [ [ [ [ [ [ [ [ [ [ [ [ [ [ [ [ [ [ [ [ [ [ [ [ [ [ [ [ [ [ [ [ [ [ [ [ [ [ [ [ [ [ [ [ [ [ [ [ [ [ [ [ [ [ [ [ [ [ [ [ [ [ [ [ [ [ [ [ [ [ [ [ [ [ [ [ [ [ [ [ [ [ [ [ [ [ [ [ [ [ [ [ [ [ [ [ [ [ P n n F.F.a a a V.H.H.F.F.F.F.F.H.H.H.H.V.a a g.z.z.o.e.e...W W t 7 S 8.A ; ; 6 6 V V V T ) ) )  .X.d.p. . ...D.m.m.m.m.m.m.z.o.lXkXBX XfX|. X|.H.|.dXkXkXzXkXdX X|._.H.H.F.N.j a 5.U.^.>X>X>X>X>X>X>X>X>X>X>X>X>X>X>X>X>X>X>X>X>X>X>X>X>X>X>X>X>X>X>X>X>X>X>X>X-X-X=X=X=X&X&X&X&X&X&X&X&X&X&X&X&X&X&X&X&X&X&X&X&X&X&X&X&X&X&X&X&X&X&X&X&X&X&X&X&X&X&X&X&X&X&X&X&X&X&X&X&X&X&X&X&X&X&X&X&X&X&X&X&X&X&X&X&X&X&X&X&X&X&X&X=X<X<X<X<X<X<X<X<X<X<X<X,X&X&X&X&X&X&X&XY.a a ).|.`.H.H.H.H.H.H.H.N.a a a a a N.F.F.F.F.F.F.A n M L L L L L Y Y Y Y Y Y Y Y Y Y Y Y Y Y Y Y Y Y Y Y Y Y Y U n n n P [ [ [ [ [ [ [ [ [ [ [ [ [ [ [ [ [ [ [ [ [ [ [ [ [ [ [ [ [ [ [ [ [ [ [ [ [ [ [ [ [ [ [ [ [ [ [ [ [ [ [ [ [ [ [ [ [ [ [ [ [ [ [ [ [ [ [ [ [ [ [ [ [ [ [ [ [ [ [ [ [ [ [ [ [ [ [ [ [ [ [ [ [ [ [ [ [ [ [ [ [ [ [ [ [ [ [ [ [ [ [ [ [ [ [ [ [ [ [ [ [ [ [ [ [ [ [ [ [ [ [ [ [ [ [ [ [ [ [ [ [ [ [ [ [ [ [ [ [ [ [ [ [ [ [ [ [ [ [ [ [ [ [ [ [ [ [ [ [ [ [ [ [ [ [ [ [ [ [ [ [ [ [ [ [ [ [ [ [ [ [ [ [ [ [ [ [ [ [ [ [ [ [ [ [ [ [ [ [ [ [ [ [ [ [ [ [ [ [ [ [ [ [ [ [ [ [ [ [ [ [ [ [ [ [ [ [ [ [ [ [ [ [ [ [ [ [ [ [ [ [ [ [ [ [ [ [ ` ` Y Y ",
"Y Y Y Y Y Y Y Y Y Y Y Y Y Y Y Y Y Y Y Y Y Y Y Y Y Y Y Y Y Y Y Y Y Y Y Y Y Y Y Y Y Y Y Y [ [ [ [ [ [ [ [ [ [ [ [ [ [ [ [ [ [ [ [ [ [ [ [ [ [ [ [ [ [ [ [ [ [ [ [ [ [ [ [ [ [ [ [ [ [ [ [ [ [ [ [ [ [ [ [ [ [ [ [ [ [ [ [ [ [ [ [ [ [ [ [ [ [ [ [ [ [ [ [ [ [ [ [ [ [ [ [ [ [ [ [ [ [ [ [ [ [ [ [ [ [ [ [ [ [ [ [ [ [ [ [ [ [ [ [ [ [ [ } } } } } | [ [ [ [ [ [ [ [ [ [ [ [ [ [ [ [ [ [ [ [ [ [ [ [ [ [ [ [ [ [ [ [ [ [ [ [ [ [ [ [ [ [ [ [ [ [ [ [ [ [ [ [ [ [ [ [ [ [ [ [ [ [ [ [ P n n F.F.a a a V.H.F.F.F.F.F.F.H.H.H.H.V.a a x.D. . ... .7 7 7 ; ; A ( 5 ; c V V V V S Q Q Q Q  . .p.d. ...(.m.m.m.m.m.m.m.o. .BXlXdX|. X X|.kXkXZXVXBXfXfX X|._.|.dXdXfXzXdX).N.j a 5.E.*X>X>X>X>X>X>X>X>X>X>X>X>X>X>X>X>X>X>X>X>X>X>X>X>X>X>X>X>X>X>X>X>X>X>X>X>X>X>X>X-X-X=X=X=X&X&X&X&X&X&X&X&X&X&X&X&X&X&X&X&X&X&X&X&X&X&X&X&X&X&X&X&X&X&X&X&X&X&X&X&X&X&X&X&X&X&X&X&X&X&X&X&X&X&X&X&X&X&X&X&X&X&X&X&X&X&X&X&X&X&X,X<X<X<X<X<X<X<X<X<X<X<X&X&X&X&X&X&X&X&XU.a a ).|.`.H.H.H.H.H.H.H.N.a a a a a N.F.F.F.F.F.F.A n M L L L L L Y Y Y Y Y Y Y Y Y Y Y Y Y Y Y Y Y Y Y Y Y Y Y U n n n P [ [ [ [ [ [ [ [ [ [ [ [ [ [ [ [ [ [ [ [ [ [ [ [ [ [ [ [ [ [ [ [ [ [ [ [ [ [ [ [ [ [ [ [ [ [ [ [ [ [ [ [ [ [ [ [ [ [ [ [ [ [ [ [ [ [ [ [ [ [ [ [ [ [ [ [ [ [ [ [ [ [ [ [ [ [ [ [ [ [ [ [ [ [ [ [ [ [ [ [ [ [ [ [ [ [ [ [ [ [ [ [ [ [ [ [ [ [ [ [ [ [ [ [ [ [ [ [ [ [ [ [ [ [ [ [ [ [ [ [ [ [ [ [ [ [ [ [ [ [ [ [ [ [ [ [ [ [ [ [ [ [ [ [ [ [ [ [ [ [ [ [ [ [ [ [ [ [ [ [ [ [ [ [ [ [ [ [ [ [ [ [ [ [ [ [ [ [ [ [ [ [ [ [ [ [ [ [ [ [ [ [ [ [ [ [ [ [ [ [ [ [ [ [ [ [ [ [ [ [ [ [ [ [ [ [ [ [ [ [ [ [ [ [ [ [ [ [ [ [ [ [ [ [ [ [ ` ` Y Y Y ",
"Y Y Y Y Y Y Y Y Y Y Y Y Y Y Y Y Y Y Y Y Y Y Y Y Y Y Y Y Y Y Y Y Y Y Y Y Y Y Y Y Y Y Y Y [ [ [ [ [ [ [ [ [ [ [ [ [ [ [ [ [ [ [ [ [ [ [ [ [ [ [ [ [ [ [ [ [ [ [ [ [ [ [ [ [ [ [ [ [ [ [ [ [ [ [ [ [ [ [ [ [ [ [ [ [ [ [ [ [ [ [ [ [ [ [ [ [ [ [ [ [ [ [ [ [ [ [ [ [ [ [ [ [ [ [ [ [ [ [ [ [ [ [ [ [ [ [ [ [ [ [ [ [ [ [ [ } } } } } | | | | | | | | [ [ [ [ [ [ [ [ [ [ [ [ [ [ [ [ [ [ [ [ [ [ [ [ [ [ [ [ [ [ [ [ [ [ [ [ [ [ [ [ [ [ [ [ [ [ [ [ [ [ [ [ [ [ [ [ [ [ [ [ [ [ [ [ P n n F.F.a a a V.H.F.F.F.F.F.H.H.H.H.H.V.a a x.(. .Q Q V V V V V 6 5 8.; ; c c n n V D  . . . . . .t.p. .z.m.m.m.m.m.m.m.m.f 5  X|. X`.H.kXZXZXBXBXfXdX_.dXdXfXzXzXzXzXzXzXzXzXdX).N.j j A.E.>X>X>X>X>X>X>X>X>X>X>X>X>X>X>X>X>X>X>X>X>X>X>X>X>X>X>X>X>X>X>X>X>X>X>X>X>X>X>X>X>X>X>X-X-X=X=X=X&X&X&X&X&X&X&X&X&X&X&X&X&X&X&X&X&X&X&X&X&X&X&X&X&X&X&X&X&X&X&X&X&X&X&X&X&X&X&X&X&X&X&X&X&X&X&X&X&X&X&X&X&X&X&X&X&X&X&X&X=X<X<X<X<X<X<X<X<X<X<X<X>X&X&X&X&X&X&X&X=XA.a a ).|._.H.H.H.H.H.H.H.N.a a a a a N.F.F.F.F.F.F.A n M L L L L L L Y Y Y Y Y Y Y Y Y Y Y Y Y Y Y Y Y Y Y Y Y Y U n n n P [ [ [ [ [ [ [ [ [ [ [ [ [ [ [ [ [ [ [ [ [ [ [ [ [ [ [ [ [ [ [ [ [ [ [ [ [ [ [ [ [ [ [ [ [ [ [ [ [ [ [ [ [ [ [ [ [ [ [ [ [ [ [ [ [ [ [ [ [ [ [ [ [ [ [ [ [ [ [ [ [ [ [ [ [ [ [ [ [ [ [ [ [ [ [ [ [ [ [ [ [ [ [ [ [ [ [ [ [ [ [ [ [ [ [ [ [ [ [ [ [ [ [ [ [ [ [ [ [ [ [ [ [ [ [ [ [ [ [ [ [ [ [ [ [ [ [ [ [ [ [ [ [ [ [ [ [ [ [ [ [ [ [ [ [ [ [ [ [ [ [ [ [ [ [ [ [ [ [ [ [ [ [ [ [ [ [ [ [ [ [ [ [ [ [ [ [ [ [ [ [ [ [ [ [ [ [ [ [ [ [ [ [ [ [ [ [ [ [ [ [ [ [ [ [ [ [ [ [ [ [ [ [ [ [ [ [ [ [ [ [ [ [ [ [ [ [ [ [ [ [ [ [ [ [ ` ` Y Y Y Y ",
"Y Y Y Y Y Y Y Y Y Y Y Y Y Y Y Y Y Y Y Y Y Y Y Y Y Y Y Y Y Y Y Y Y Y Y Y Y Y Y Y Y Y Y Y [ [ [ [ [ [ [ [ [ [ [ [ [ [ [ [ [ [ [ [ [ [ [ [ [ [ [ [ [ [ [ [ [ [ [ [ [ [ [ [ [ [ [ [ [ [ [ [ [ [ [ [ [ [ [ [ [ [ [ [ [ [ [ [ [ [ [ [ [ [ [ [ [ [ [ [ [ [ [ [ [ [ [ [ [ [ [ [ [ [ [ [ [ [ [ [ [ [ [ [ [ [ [ [ [ [ } } } } } | | | | | | | | | | | | | | [ [ [ [ [ [ [ [ [ [ [ [ [ [ [ [ [ [ [ [ [ [ [ [ [ [ [ [ [ [ [ [ [ [ [ [ [ [ [ [ [ [ [ [ [ [ [ [ [ [ [ [ [ [ [ [ [ [ [ [ [ [ [ [ P n n F.F.a a a V.F.F.F.F.F.H.H.H.H.H.H.V.a a x.aX..) S V V V V V V 5 ( ; ; ; ; ; 6 D  . . . ...X.X.t.X. .D.m.m.m.m.m.m.m.m.i 7 dXfX|.dXkXZXVXBX XfXdXfXzXzXzXzXzXzXzXzXzXzXzXzXzXzXdX).N.a j E.*X>X>X>X>X>X>X>X>X>X>X>X>X>X>X>X>X>X>X>X>X>X>X>X>X>X>X>X>X>X>X>X>X>X>X>X>X>X>X>X>X>X>X>X>X>X>X-X-X=X=X=X&X&X&X&X&X&X&X&X&X&X&X&X&X&X&X&X&X&X&X&X&X&X&X&X&X&X&X&X&X&X&X&X&X&X&X&X&X&X&X&X&X&X&X&X&X&X&X&X&X&X&X&X&X&X&X,X<X<X<X<X<X2X2X2X2X2X<X=X=X=X=X=X=X-X-X>XA.a a ).|.).H.H.H.H.H.H.H.N.a a a a a N.F.F.F.F.F.F.A n M L L L L L L Y Y Y Y Y Y Y Y Y Y Y Y Y Y Y Y Y Y Y Y Y Y U n n n P [ [ [ [ [ [ [ [ [ [ [ [ [ [ [ [ [ [ [ [ [ [ [ [ [ [ [ [ [ [ [ [ [ [ [ [ [ [ [ [ [ [ [ [ [ [ [ [ [ [ [ [ [ [ [ [ [ [ [ [ [ [ [ [ [ [ [ [ [ [ [ [ [ [ [ [ [ [ [ [ [ [ [ [ [ [ [ [ [ [ [ [ [ [ [ [ [ [ [ [ [ [ [ [ [ [ [ [ [ [ [ [ [ [ [ [ [ [ [ [ [ [ [ [ [ [ [ [ [ [ [ [ [ [ [ [ [ [ [ [ [ [ [ [ [ [ [ [ [ [ [ [ [ [ [ [ [ [ [ [ [ [ [ [ [ [ [ [ [ [ [ [ [ [ [ [ [ [ [ [ [ [ [ [ [ [ [ [ [ [ [ [ [ [ [ [ [ [ [ [ [ [ [ [ [ [ [ [ [ [ [ [ [ [ [ [ [ [ [ [ [ [ [ [ [ [ [ [ [ [ [ [ [ [ [ [ [ [ [ [ [ [ [ [ [ [ [ [ [ [ [ [ [ [ ` ` Y Y Y Y Y ",
"Y Y Y Y Y Y Y Y Y Y Y Y Y Y Y Y Y Y Y Y Y Y Y Y Y Y Y Y Y Y Y Y Y Y Y Y Y Y Y Y Y Y Y Y [ [ [ [ [ [ [ [ [ [ [ [ [ [ [ [ [ [ [ [ [ [ [ [ [ [ [ [ [ [ [ [ [ [ [ [ [ [ [ [ [ [ [ [ [ [ [ [ [ [ [ [ [ [ [ [ [ [ [ [ [ [ [ [ [ [ [ [ [ [ [ [ [ [ [ [ [ [ [ [ [ [ [ [ [ [ [ [ [ [ [ [ [ [ [ [ [ [ [ } } } } } | | | | | | | | | | | | | | | | | | | | | [ [ [ [ [ [ [ [ [ [ [ [ [ [ [ [ [ [ [ [ [ [ [ [ [ [ [ [ [ [ [ [ [ [ [ [ [ [ [ [ [ [ [ [ [ [ [ [ [ [ [ [ [ [ [ [ [ [ [ [ [ [ [ [ P n n F.F.a a a V.F.F.F.F.F.H.H.H.H.H.H.N.a a x.m.z.D n V V V V V V 5 S B 5 ; 5 5 7 ....X.X.t.q.t.t.X.....(.m.m.m.m.m.m.m.n.i  .fX|.kXZXZXBX XdXdXzXzXzXzXzXzXzXzXzXzXzXzXzXzXzXzXzXzXzXdXN.j j A.^.>X>X>X>X>X>X>X>X>X>X>X>X>X>X>X>X>X>X>X>X>X>X>X>X>X>X>X>X>X>X>X>X>X>X>X>X>X>X>X>X>X>X>X>X>X>X>X>X>X>X-X-X=X=X=X&X&X&X&X&X&X&X&X&X&X&X&X&X&X&X&X&X&X&X&X&X&X&X&X&X&X&X&X&X&X&X&X&X&X&X&X&X&X&X&X&X&X&X&X&X&X&X&X&X,X2X2X2X2X2X2X4X4X4X4X4X,X>X>X>X>X>X>X>X>X>XA.a a ).|.).H.H.H.H.H.H.H.N.a a a a a N.F.F.F.F.F.F.A n M L L L L L L Y Y Y Y Y Y Y Y Y Y Y Y Y Y Y Y Y Y Y Y Y Y U n n n P [ [ [ [ [ [ [ [ [ [ [ [ [ [ [ [ [ [ [ [ [ [ [ [ [ [ [ [ [ [ [ [ [ [ [ [ [ [ [ [ [ [ [ [ [ [ [ [ [ [ [ [ [ [ [ [ [ [ [ [ [ [ [ [ [ [ [ [ [ [ [ [ [ [ [ [ [ [ [ [ [ [ [ [ [ [ [ [ [ [ [ [ [ [ [ [ [ [ [ [ [ [ [ [ [ [ [ [ [ [ [ [ [ [ [ [ [ [ [ [ [ [ [ [ [ [ [ [ [ [ [ [ [ [ [ [ [ [ [ [ [ [ [ [ [ [ [ [ [ [ [ [ [ [ [ [ [ [ [ [ [ [ [ [ [ [ [ [ [ [ [ [ [ [ [ [ [ [ [ [ [ [ [ [ [ [ [ [ [ [ [ [ [ [ [ [ [ [ [ [ [ [ [ [ [ [ [ [ [ [ [ [ [ [ [ [ [ [ [ [ [ [ [ [ [ [ [ [ [ [ [ [ [ [ [ [ [ [ [ [ [ [ [ [ [ [ [ [ [ [ [ [ ` ` ` Y Y Y Y Y Y ",
"Y Y Y Y Y Y Y Y Y Y Y Y Y Y Y Y Y Y Y Y Y Y Y Y Y Y Y Y Y Y Y Y Y Y Y Y Y Y Y Y Y Y Y Y [ [ [ [ [ [ [ [ [ [ [ [ [ [ [ [ [ [ [ [ [ [ [ [ [ [ [ [ [ [ [ [ [ [ [ [ [ [ [ [ [ [ [ [ [ [ [ [ [ [ [ [ [ [ [ [ [ [ [ [ [ [ [ [ [ [ [ [ [ [ [ [ [ [ [ [ [ [ [ [ [ [ [ [ [ [ [ [ [ [ [ [ [ } } } } | | | | | | | | | | | | | | | | | | | | | | | | | | | | [ [ [ [ [ [ [ [ [ [ [ [ [ [ [ [ [ [ [ [ [ [ [ [ [ [ [ [ [ [ [ [ [ [ [ [ [ [ [ [ [ [ [ [ [ [ [ [ [ [ [ [ [ [ [ [ [ [ [ [ [ [ [ [ P n n F.F.a a a F.F.F.F.F.H.H.H.H.H.H.H.N.a a x.aXz.V 6 o 6 6 6 6 6 5 A ( 6 ; A A X.t.t.p.t.t.X.X...o.x.(.m.m.m.m.m.m.m.n.l.5  .|.kXZXZXlX X_.fXzXzXzXzXzXzXzXzXzXzXzXzXzXzXzXzXzXzXzXzXzXdX).l a 5.^.>X>X>X>X>X>X>X>X>X>X>X>X>X>X>X>X>X>X>X>X>X>X>X>X>X>X>X>X>X>X>X>X>X>X>X>X>X>X>X>X>X>X>X>X>X>X>X>X>X>X>X>X>X>X-X-X=X=X=X&X&X&X&X&X&X&X&X&X&X&X&X&X&X&X&X&X&X&X&X&X&X&X&X&X&X&X&X&X&X&X&X&X&X&X&X&X=X=X=X=X=X=X,X4X4X9X9X9X4X4X4X9X9X9X2X>X>X>X>X>X>X>X>X>X>XA.a a ).|.).H.H.H.H.H.H.H.N.a a a a a N.F.F.F.F.F.F.A n M L L L L L L Y Y Y Y Y Y Y Y Y Y Y Y Y Y Y Y Y Y Y Y Y Y U n n n P [ [ [ [ [ [ [ [ [ [ [ [ [ [ [ [ [ [ [ [ [ [ [ [ [ [ [ [ [ [ [ [ [ [ [ [ [ [ [ [ [ [ [ [ [ [ [ [ [ [ [ [ [ [ [ [ [ [ [ [ [ [ [ [ [ [ [ [ [ [ [ [ [ [ [ [ [ [ [ [ [ [ [ [ [ [ [ [ [ [ [ [ [ [ [ [ [ [ [ [ [ [ [ [ [ [ [ [ [ [ [ [ [ [ [ [ [ [ [ [ [ [ [ [ [ [ [ [ [ [ [ [ [ [ [ [ [ [ [ [ [ [ [ [ [ [ [ [ [ [ [ [ [ [ [ [ [ [ [ [ [ [ [ [ [ [ [ [ [ [ [ [ [ [ [ [ [ [ [ [ [ [ [ [ [ [ [ [ [ [ [ [ [ [ [ [ [ [ [ [ [ [ [ [ [ [ [ [ [ [ [ [ [ [ [ [ [ [ [ [ [ [ [ [ [ [ [ [ [ [ [ [ [ [ [ [ [ [ [ [ [ [ [ [ [ [ [ [ [ [ [ ` ` Y Y Y Y Y Y Y Y ",
"Y Y Y Y Y Y Y Y Y Y Y Y Y Y Y Y Y Y Y Y Y Y Y Y Y Y Y Y Y Y Y Y Y Y Y Y Y Y Y Y Y Y Y Y [ [ [ [ [ [ [ [ [ [ [ [ [ [ [ [ [ [ [ [ [ [ [ [ [ [ [ [ [ [ [ [ [ [ [ [ [ [ [ [ [ [ [ [ [ [ [ [ [ [ [ [ [ [ [ [ [ [ [ [ [ [ [ [ [ [ [ [ [ [ [ [ [ [ [ [ [ [ [ [ [ [ [ [ [ [ } } } } } | | | | | | | | | | | | | | | | | | | | | | | | | | | | | | | | | | [ [ [ [ [ [ [ [ [ [ [ [ [ [ [ [ [ [ [ [ [ [ [ [ [ [ [ [ [ [ [ [ [ [ [ [ [ [ [ [ [ [ [ [ [ [ [ [ [ [ [ [ [ [ [ [ [ [ [ [ [ [ [ [ P n n F.F.a a a F.F.F.F.H.H.H.H.H.H.H.F.N.a a x.m.g.6 6 6 6 6 6 6 6 5 6 8.( ( 8.t.t.t.t.q.X. ...z.z.x.m.m.m.m.m.m.m.m.m.n.l.o  .kXZXBXfX_.dXzXzXzXzXzXzXzXzXzXzXzXzXzXzXzXzXzXzXzXzXzXzXzXzXzX|.l a 5.^.>X>X>X>X>X>X>X>X>X>X>X>X>X>X>X>X>X>X>X>X>X>X>X>X>X>X>X>X>X>X>X>X>X>X>X>X>X>X>X>X>X>X>X>X>X>X>X>X>X>X>X>X>X>X>X>X>X>X-X-X=X=X&X&X&X&X&X&X&X&X&X&X&X&X&X&X&X&X&X&X&X&X&X&X&X&X=X=X=X=X=X=X=X-X-X>X>X>X>X>X>X4X4X9X9X9X9X9X9X9X9X9X4X,X>X>X>X>X>X>X>X>X>X>XA.a a ).|.).H.H.H.H.H.H.H.N.a a a a a V.F.F.F.F.F.F.A n M L L L L L L Y Y Y Y Y Y Y Y Y Y Y Y Y Y Y Y Y Y Y Y Y Y U n n n P [ [ [ [ [ [ [ [ [ [ [ [ [ [ [ [ [ [ [ [ [ [ [ [ [ [ [ [ [ [ [ [ [ [ [ [ [ [ [ [ [ [ [ [ [ [ [ [ [ [ [ [ [ [ [ [ [ [ [ [ [ [ [ [ [ [ [ [ [ [ [ [ [ [ [ [ [ [ [ [ [ [ [ [ [ [ [ [ [ [ [ [ [ [ [ [ [ [ [ [ [ [ [ [ [ [ [ [ [ [ [ [ [ [ [ [ [ [ [ [ [ [ [ [ [ [ [ [ [ [ [ [ [ [ [ [ [ [ [ [ [ [ [ [ [ [ [ [ [ [ [ [ [ [ [ [ [ [ [ [ [ [ [ [ [ [ [ [ [ [ [ [ [ [ [ [ [ [ [ [ [ [ [ [ [ [ [ [ [ [ [ [ [ [ [ [ [ [ [ [ [ [ [ [ [ [ [ [ [ [ [ [ [ [ [ [ [ [ [ [ [ [ [ [ [ [ [ [ [ [ [ [ [ [ [ [ [ [ [ [ [ [ [ [ [ [ [ [ [ [ ` ` Y Y Y Y Y Y Y Y Y ",
"Y Y Y Y Y Y Y Y Y Y Y Y Y Y Y Y Y Y Y Y Y Y Y Y Y Y Y Y Y Y Y Y Y Y Y Y Y Y Y Y Y Y Y Y [ [ [ [ [ [ [ [ [ [ [ [ [ [ [ [ [ [ [ [ [ [ [ [ [ [ [ [ [ [ [ [ [ [ [ [ [ [ [ [ [ [ [ [ [ [ [ [ [ [ [ [ [ [ [ [ [ [ [ [ [ [ [ [ [ [ [ [ [ [ [ [ [ [ [ [ [ [ [ } } } } } | | | | | | | | | | | | | | | | | | | | | | | | | | | | | | | | | | | | | | | | | [ [ [ [ [ [ [ [ [ [ [ [ [ [ [ [ [ [ [ [ [ [ [ [ [ [ [ [ [ [ [ [ [ [ [ [ [ [ [ [ [ [ [ [ [ [ [ [ [ [ [ [ [ [ [ [ [ [ [ [ [ [ [ [ P n n F.F.a a a V.F.F.F.H.H.H.H.H.H.H.F.N.a a x.n.l.5 5 5 5 5 5 5 5 5 5 ( ( ( 9.q.X.X.....z.z.D.n.n.m.m.m.aXaXm.m.m.m.n.n.l.5 ~.ZXBX`.H.dXzXzXzXzXzXzXzXzXzXzXzXzXzXzXzXzXzXzXzXzXzXzXzXzXzXzXzX|.l a 5.^.>X>X>X>X>X>X>X>X>X>X>X>X>X>X>X>X>X>X>X>X>X>X>X>X>X>X>X>X>X>X>X>X>X>X>X>X>X>X>X>X>X>X>X>X>X>X>X>X>X>X>X>X>X-X-X-X=X=X=X=X=X=X&X&X&X&X&X&X&X&X&X&X&X&X&X&X&X&X&X=X=X=X=X-X-X>X>X>X>X>X>X>X>X>X>X>X>X>X>X,X4X4X9X9X9X9X9X9X9X9X9X2X>X>X>X>X>X>X>X>X>X>X>XA.a a ).|.).H.H.H.H.H.H.H.N.a a a a a F.F.F.F.F.F.F.A n M L L L L L L L Y Y Y Y Y Y Y Y Y Y Y Y Y Y Y Y Y Y Y Y Y U n n n P [ [ [ [ [ [ [ [ [ [ [ [ [ [ [ [ [ [ [ [ [ [ [ [ [ [ [ [ [ [ [ [ [ [ [ [ [ [ [ [ [ [ [ [ [ [ [ [ [ [ [ [ [ [ [ [ [ [ [ [ [ [ [ [ [ [ [ [ [ [ [ [ [ [ [ [ [ [ [ [ [ [ [ [ [ [ [ [ [ [ [ [ [ [ [ [ [ [ [ [ [ [ [ [ [ [ [ [ [ [ [ [ [ [ [ [ [ [ [ [ [ [ [ [ [ [ [ [ [ [ [ [ [ [ [ [ [ [ [ [ [ [ [ [ [ [ [ [ [ [ [ [ [ [ [ [ [ [ [ [ [ [ [ [ [ [ [ [ [ [ [ [ [ [ [ [ [ [ [ [ [ [ [ [ [ [ [ [ [ [ [ [ [ [ [ [ [ [ [ [ [ [ [ [ [ [ [ [ [ [ [ [ [ [ [ [ [ [ [ [ [ [ [ [ [ [ [ [ [ [ [ [ [ [ [ [ [ [ [ [ [ [ [ [ [ [ [ [ ` ` ` Y Y Y Y Y Y Y Y Y Y ",
"Y Y Y Y Y Y Y Y Y Y Y Y Y Y Y Y Y Y Y Y Y Y Y Y Y Y Y Y Y Y Y Y Y Y Y Y Y Y Y Y Y Y Y Y [ [ [ [ [ [ [ [ [ [ [ [ [ [ [ [ [ [ [ [ [ [ [ [ [ [ [ [ [ [ [ [ [ [ [ [ [ [ [ [ [ [ [ [ [ [ [ [ [ [ [ [ [ [ [ [ [ [ [ [ [ [ [ [ [ [ [ [ [ [ [ [ [ } } } } | | | | | | | | | | | | | | | | | | | | | | | | | | | | | | | | | | | | | | | | | | | | | | | | [ [ [ [ [ [ [ [ [ [ [ [ [ [ [ [ [ [ [ [ [ [ [ [ [ [ [ [ [ [ [ [ [ [ [ [ [ [ [ [ [ [ [ [ [ [ [ [ [ [ [ [ [ [ [ [ [ [ [ [ [ [ [ [ P n n F.F.a a a F.F.F.H.H.H.H.H.H.H.F.F.N.a a ).(.(. .f i i i i i i i 5 6 7 7 ....o.z.g.D.n.n.m.m.m.m.m.m.m.aXm.m.m.n.n.n.g.5 gXBX|.).dXzXzXzXzXzXzXzXzXzXzXzXzXzXzXzXzXzXzXzXzXzXzXzXzXzXzXzXzXzX|.l a 5.>X>X>X>X>X>X>X>X>X>X>X>X>X>X>X>X>X>X>X>X>X>X>X>X>X>X>X>X>X>X>X>X>X>X>X>X>X>X>X>X>X>X>X>X-X-X-X=X=X=X=X=X=X&X&X&X&X&X&X&X&X&X&X&X&X&X&X&X&X&X&X&X&X&X&X&X&X&X&X&X=X=X=X=X-X>X>X>X>X>X>X>X>X>X>X>X>X>X>X4X4X4X9X9X9X9X9X9X9X9X4X,X>X>X>X>X>X>X>X>X>X>X>XA.a a _.|.).H.H.H.H.H.H.H.l a a a a a F.F.F.F.F.F.F.A n M L L L L L L L Y Y Y Y Y Y Y Y Y Y Y Y Y Y Y Y Y Y Y Y Y U n n n P [ [ [ [ [ [ [ [ [ [ [ [ [ [ [ [ [ [ [ [ [ [ [ [ [ [ [ [ [ [ [ [ [ [ [ [ [ [ [ [ [ [ [ [ [ [ [ [ [ [ [ [ [ [ [ [ [ [ [ [ [ [ [ [ [ [ [ [ [ [ [ [ [ [ [ [ [ [ [ [ [ [ [ [ [ [ [ [ [ [ [ [ [ [ [ [ [ [ [ [ [ [ [ [ [ [ [ [ [ [ [ [ [ [ [ [ [ [ [ [ [ [ [ [ [ [ [ [ [ [ [ [ [ [ [ [ [ [ [ [ [ [ [ [ [ [ [ [ [ [ [ [ [ [ [ [ [ [ [ [ [ [ [ [ [ [ [ [ [ [ [ [ [ [ [ [ [ [ [ [ [ [ [ [ [ [ [ [ [ [ [ [ [ [ [ [ [ [ [ [ [ [ [ [ [ [ [ [ [ [ [ [ [ [ [ [ [ [ [ [ [ [ [ [ [ [ [ [ [ [ [ [ [ [ [ [ [ [ [ [ [ [ [ [ [ [ [ ` ` Y Y Y Y Y Y Y Y Y Y Y Y ",
"Y Y Y Y Y Y Y Y Y Y Y Y Y Y Y Y Y Y Y Y Y Y Y Y Y Y Y Y Y Y Y Y Y Y Y Y Y Y Y Y Y Y Y Y [ [ [ [ [ [ [ [ [ [ [ [ [ [ [ [ [ [ [ [ [ [ [ [ [ [ [ [ [ [ [ [ [ [ [ [ [ [ [ [ [ [ [ [ [ [ [ [ [ [ [ [ [ [ [ [ [ [ [ [ [ [ [ [ [ [ } } } } } | | | | | | | | | | | | | | | | | | | | | | | | | | | | | | | | | | | | | | | | | | | | | | | | | | | | | | [ [ [ [ [ [ [ [ [ [ [ [ [ [ [ [ [ [ [ [ [ [ [ [ [ [ [ [ [ [ [ [ [ [ [ [ [ [ [ [ [ [ [ [ [ [ [ [ [ [ [ [ [ [ [ [ [ [ [ [ [ [ [ [ P n n F.F.a a a F.F.F.H.H.H.H.H.H.H.F.F.N.a a dXkXkXdXdX(.l.k.k.k.k.k.i i i g.D.D.x.n.n.n.m.m.aXm.m.m.m.m.m.aXm.m.n.n.n.n.i 5 |. X|.zXzXzXzXzXzXzXzXzXzXzXzXzXzXzXzXzXzXzXzXzXzXzXzXzXzXzXzXzXzXzXzX|.l a ^.=X=X=X>X>X>X>X>X>X>X>X>X>X>X>X>X>X>X>X>X>X>X>X>X>X>X>X>X>X>X>X>X>X>X-X-X-X=X=X=X=X=X=X&X&X&X&X&X&X&X&X&X&X&X&X&X&X&X&X&X&X&X&X&X&X&X&X&X&X&X&X&X&X&X&X&X&X&X&X&X&X&X&X&X=X=X=X=X-X>X>X>X>X>X>X>X>X2X9X4X4X9X9X9X9X9X9X9X4X,X>X>X>X>X>X>X>X>X>X>X>X>XA.a a |.|.H.H.H.H.H.H.H.H.j a a a a a F.F.F.F.F.F.F.A n M L L L L L L L Y Y Y Y Y Y Y Y Y Y Y Y Y Y Y Y Y Y Y Y Y U n n n P [ [ [ [ [ [ [ [ [ [ [ [ [ [ [ [ [ [ [ [ [ [ [ [ [ [ [ [ [ [ [ [ [ [ [ [ [ [ [ [ [ [ [ [ [ [ [ [ [ [ [ [ [ [ [ [ [ [ [ [ [ [ [ [ [ [ [ [ [ [ [ [ [ [ [ [ [ [ [ [ [ [ [ [ [ [ [ [ [ [ [ [ [ [ [ [ [ [ [ [ [ [ [ [ [ [ [ [ [ [ [ [ [ [ [ [ [ [ [ [ [ [ [ [ [ [ [ [ [ [ [ [ [ [ [ [ [ [ [ [ [ [ [ [ [ [ [ [ [ [ [ [ [ [ [ [ [ [ [ [ [ [ [ [ [ [ [ [ [ [ [ [ [ [ [ [ [ [ [ [ [ [ [ [ [ [ [ [ [ [ [ [ [ [ [ [ [ [ [ [ [ [ [ [ [ [ [ [ [ [ [ [ [ [ [ [ [ [ [ [ [ [ [ [ [ [ [ [ [ [ [ [ [ [ [ [ [ [ [ [ [ [ [ [ [ ` ` ` Y Y Y Y Y Y Y Y Y Y Y Y Y ",
"Y Y Y Y Y Y Y Y Y Y Y Y Y Y Y Y Y Y Y Y Y Y Y Y Y Y Y Y Y Y Y Y Y Y Y Y Y Y Y Y Y Y Y Y [ [ [ [ [ [ [ [ [ [ [ [ [ [ [ [ [ [ [ [ [ [ [ [ [ [ [ [ [ [ [ [ [ [ [ [ [ [ [ [ [ [ [ [ [ [ [ [ [ [ [ [ [ [ [ [ [ [ [ } } } } } | | | | | | | | | | | | | | | | | | | | | | | | | | | | | | | | | | | | | | | | | | | | | | | | | | | | | | | | | | | | | [ [ [ [ [ [ [ [ [ [ [ [ [ [ [ [ [ [ [ [ [ [ [ [ [ [ [ [ [ [ [ [ [ [ [ [ [ [ [ [ [ [ [ [ [ [ [ [ [ [ [ [ [ [ [ [ [ [ [ [ [ [ [ [ P n n F.F.a a a F.F.H.H.H.H.H.H.H.F.F.F.N.a a  XBXZXZXZXkXx.n.l.n.n.k.k.k.n.m.n.n.m.m.m.m.m.m.m.m.m.m.m.m.m.m.m.m.n.n.l.l.7 6 ).dXzXzXzXzXzXzXzXzXzXzXzXzXzXzXzXzXzXzXzXzXzXzXzXzXzXzXzXzXzXzXzXzXzXzX|.a 5.Y.&X&X=X=X=X=X>X>X>X>X>X>X>X>X>X>X>X>X>X>X>X>X>X-X-X-X=X=X=X=X=X=X=X&X&X&X&X&X&X&X&X&X&X&X&X&X&X&X&X&X&X&X&X&X&X&X&X&X&X&X&X&X&X&X&X&X&X&X&X&X&X&X&X&X&X&X&X&X&X&X&X&X&X&X&X&X&X&X=X=X=X=X-X>X>X,X9X9X9X9X9X9X9X9X9X9X9X2X>X>X>X>X>X>X>X>X>X>X>X>X>XA.a a |.|.H.H.H.H.H.H.H.H.j a a a a a F.F.F.F.F.F.F.A n M L L L L L L L Y Y Y Y Y Y Y Y Y Y Y Y Y Y Y Y Y Y Y Y Y U n n n P [ [ [ [ [ [ [ [ [ [ [ [ [ [ [ [ [ [ [ [ [ [ [ [ [ [ [ [ [ [ [ [ [ [ [ [ [ [ [ [ [ [ [ [ [ [ [ [ [ [ [ [ [ [ [ [ [ [ [ [ [ [ [ [ [ [ [ [ [ [ [ [ [ [ [ [ [ [ [ [ [ [ [ [ [ [ [ [ [ [ [ [ [ [ [ [ [ [ [ [ [ [ [ [ [ [ [ [ [ [ [ [ [ [ [ [ [ [ [ [ [ [ [ [ [ [ [ [ [ [ [ [ [ [ [ [ [ [ [ [ [ [ [ [ [ [ [ [ [ [ [ [ [ [ [ [ [ [ [ [ [ [ [ [ [ [ [ [ [ [ [ [ [ [ [ [ [ [ [ [ [ [ [ [ [ [ [ [ [ [ [ [ [ [ [ [ [ [ [ [ [ [ [ [ [ [ [ [ [ [ [ [ [ [ [ [ [ [ [ [ [ [ [ [ [ [ [ [ [ [ [ [ [ [ [ [ [ [ [ [ [ [ [ ` ` ` Y Y Y Y Y Y Y Y Y Y Y Y Y Y Y ",
"Y Y Y Y Y Y Y Y Y Y Y Y Y Y Y Y Y Y Y Y Y Y Y Y Y Y Y Y Y Y Y Y Y Y Y Y Y Y Y Y Y Y Y Y [ [ [ [ [ [ [ [ [ [ [ [ [ [ [ [ [ [ [ [ [ [ [ [ [ [ [ [ [ [ [ [ [ [ [ [ [ [ [ [ [ [ [ [ [ [ [ [ [ [ [ [ [ [ [ [ } } | | | | | | | | | | | | | | | | | | | | | | | | | | | | | | | | | | | | | | | | | | | | | | | | | | | | | | | | | | | | | | | | | | | [ [ [ [ [ [ [ [ [ [ [ [ [ [ [ [ [ [ [ [ [ [ [ [ [ [ [ [ [ [ [ [ [ [ [ [ [ [ [ [ [ [ [ [ [ [ [ [ [ [ [ [ [ [ [ [ [ [ [ [ [ [ [ [ P n n F.F.a a a F.H.H.H.H.H.H.H.H.F.F.F.N.a a z.`.ZXZXZXZXD.n.l.n.n.n.n.n.m.m.m.m.m.m.m.m.m.m.m.m.m.m.m.m.m.m.m.n.l.n.n.l.o z.zXzXzXzXzXzXzXzXzXzXzXzXzXzXzXzXzXzXzXzXzXzXzXzXzXzXzXzXzXzXzXzXzXzXzXzXzXl a A.&X&X&X&X&X&X=X=X=X=X>X>X>X>X-X-X-X=X=X=X=X=X=X&X&X&X&X&X&X&X&X&X&X&X&X&X&X&X&X&X&X&X&X&X&X&X&X&X&X&X&X&X&X&X&X&X&X&X&X&X&X&X&X&X&X&X&X&X&X&X&X&X&X&X&X&X&X&X&X&X&X&X&X&X&X&X&X&X&X&X&X&X&X=X=X2X4X4X4X4X9X9X9X9X9X9X4X,X>X>X>X>X>X>X>X>X>X>X>X>X>XA.a a |.|.H.H.H.H.H.H.H.H.j a a a a a F.F.F.F.F.F.F.A n M L L L L L L L L Y Y Y Y Y Y Y Y Y Y Y Y Y Y Y Y Y Y Y Y U n n n P [ [ [ [ [ [ [ [ [ [ [ [ [ [ [ [ [ [ [ [ [ [ [ [ [ [ [ [ [ [ [ [ [ [ [ [ [ [ [ [ [ [ [ [ [ [ [ [ [ [ [ [ [ [ [ [ [ [ [ [ [ [ [ [ [ [ [ [ [ [ [ [ [ [ [ [ [ [ [ [ [ [ [ [ [ [ [ [ [ [ [ [ [ [ [ [ [ [ [ [ [ [ [ [ [ [ [ [ [ [ [ [ [ [ [ [ [ [ [ [ [ [ [ [ [ [ [ [ [ [ [ [ [ [ [ [ [ [ [ [ [ [ [ [ [ [ [ [ [ [ [ [ [ [ [ [ [ [ [ [ [ [ [ [ [ [ [ [ [ [ [ [ [ [ [ [ [ [ [ [ [ [ [ [ [ [ [ [ [ [ [ [ [ [ [ [ [ [ [ [ [ [ [ [ [ [ [ [ [ [ [ [ [ [ [ [ [ [ [ [ [ [ [ [ [ [ [ [ [ [ [ [ [ [ [ [ [ [ [ [ [ [ ` ` ` Y Y Y Y Y Y Y Y Y Y Y Y Y Y Y Y ",
"Y Y Y Y Y Y Y Y Y Y Y Y Y Y Y Y Y Y Y Y Y Y Y Y Y Y Y Y Y Y Y Y Y Y Y Y Y Y Y Y Y Y Y Y [ [ [ [ [ [ [ [ [ [ [ [ [ [ [ [ [ [ [ [ [ [ [ [ [ [ [ [ [ [ [ [ [ [ [ [ [ [ [ [ [ [ [ [ [ [ [ [ [ [ [ [ [ [ [ [ } | | | | | | | | | | | | | | | | | | | | | | | | | | | | | | | | | | | | | | | | | | | | | | | | | | | | | | | | | | | | | | | | | | | | [ [ [ [ [ [ [ [ [ [ [ [ [ [ [ [ [ [ [ [ [ [ [ [ [ [ [ [ [ [ [ [ [ [ [ [ [ [ [ [ [ [ [ [ [ [ [ [ [ [ [ [ [ [ [ [ [ [ [ [ [ [ [ [ P n n F.F.a a a F.H.H.H.H.H.H.H.F.F.F.F.N.a a g.H.ZXZXZXVXD.l.l.l.n.n.n.m.m.m.m.m.m.m.m.m.m.m.m.m.m.m.m.m.m.m.n.l.l.n.n.g.7 dXzXzXzXzXzXzXzXzXzXzXzXzXzXzXzXzXzXzXzXzXzXzXzXzXzXzXzXzXzXzXzXzXzXzXzXzXzX|.a 5.&X&X&X&X&X&X&X&X&X&X=X=X=X=X&X&X&X&X&X&X&X&X&X&X&X&X&X&X&X&X&X&X&X&X&X&X&X&X&X&X&X&X&X&X&X&X&X&X&X&X&X&X&X&X&X&X&X&X&X&X&X&X&X&X&X&X&X&X&X&X&X&X&X&X&X&X&X&X&X&X&X&X&X&X&X&X&X&X&X&X&X&X&X&X>X<X2X2X4X4X4X4X4X4X4X9X2X>X>X>X>X>X>X>X>X>X>X>X>X>X>XZ.a a |.|.H.H.H.H.H.H.H.H.j a a a a a F.F.F.F.F.F.F.A n M L L L L L L L L Y Y Y Y Y Y Y Y Y Y Y Y Y Y Y Y Y Y Y Y U n n n P [ [ [ [ [ [ [ [ [ [ [ [ [ [ [ [ [ [ [ [ [ [ [ [ [ [ [ [ [ [ [ [ [ [ [ [ [ [ [ [ [ [ [ [ [ [ [ [ [ [ [ [ [ [ [ [ [ [ [ [ [ [ [ [ [ [ [ [ [ [ [ [ [ [ [ [ [ [ [ [ [ [ [ [ [ [ [ [ [ [ [ [ [ [ [ [ [ [ [ [ [ [ [ [ [ [ [ [ [ [ [ [ [ [ [ [ [ [ [ [ [ [ [ [ [ [ [ [ [ [ [ [ [ [ [ [ [ [ [ [ [ [ [ [ [ [ [ [ [ [ [ [ [ [ [ [ [ [ [ [ [ [ [ [ [ [ [ [ [ [ [ [ [ [ [ [ [ [ [ [ [ [ [ [ [ [ [ [ [ [ [ [ [ [ [ [ [ [ [ [ [ [ [ [ [ [ [ [ [ [ [ [ [ [ [ [ [ [ [ [ [ [ [ [ [ [ [ [ [ [ [ [ [ [ [ [ [ [ [ [ ` ` ` Y Y Y Y Y Y Y Y Y Y Y Y Y Y Y Y Y Y ",
"Y Y Y Y Y Y Y Y Y Y Y Y Y Y Y Y Y Y Y Y Y Y Y Y Y Y Y Y Y Y Y Y Y Y Y Y Y Y Y Y Y Y Y Y [ [ [ [ [ [ [ [ [ [ [ [ [ [ [ [ [ [ [ [ [ [ [ [ [ [ [ [ [ [ [ [ [ [ [ [ [ [ [ [ [ [ [ [ [ [ [ [ [ [ [ [ [ [ [ [ } | | | | | | | | | | | | | | | | | | | | | | | | | | | | | | | | | | | | | | | | | | | | | | | | | | | | | | | | | | | | | | | | | | | | [ [ [ [ [ [ [ [ [ [ [ [ [ [ [ [ [ [ [ [ [ [ [ [ [ [ [ [ [ [ [ [ [ [ [ [ [ [ [ [ [ [ [ [ [ [ [ [ [ [ [ [ [ [ [ [ [ [ [ [ [ [ [ [ P n n F.F.a a a F.H.H.H.H.H.H.H.F.F.F.F.N.a a V.dXVXZXBXdXl g.g.g.l.l.n.m.m.m.m.m.m.m.m.m.m.m.m.m.m.m.m.m.m.m.n.l.n.n.l.7 ..zXzXzXzXzXzXzXzXzXzXzXzXzXzXzXzXzXzXzXzXzXzXzXzXzXzXzXzXzXzXzXzXzXzXzXzXzXzXzXl a Y.&X&X&X&X&X&X&X&X&X&X&X&X&X&X&X&X&X&X&X&X&X&X&X&X&X&X&X&X&X&X&X&X&X&X&X&X&X&X&X&X&X&X&X&X&X&X&X&X&X&X&X&X&X&X&X&X&X&X&X&X&X&X&X&X&X&X&X&X&X&X&X&X&X&X&X&X&X&X&X&X&X&X&X&X&X&X&X&X&X&X&X&X&X<X<X<X<X<X<X<X<X<X2X4X2X>X=X>X>X>X>X>X>X>X>X>X>X>X>X>X5.a a |.|.H.H.H.H.H.H.H.H.j a a a a a F.F.F.F.F.F.F.A n M L L L L L L L L Y Y Y Y Y Y Y Y Y Y Y Y Y Y Y Y Y Y Y Y U n n n P [ [ [ [ [ [ [ [ [ [ [ [ [ [ [ [ [ [ [ [ [ [ [ [ [ [ [ [ [ [ [ [ [ [ [ [ [ [ [ [ [ [ [ [ [ [ [ [ [ [ [ [ [ [ [ [ [ [ [ [ [ [ [ [ [ [ [ [ [ [ [ [ [ [ [ [ [ [ [ [ [ [ [ [ [ [ [ [ [ [ [ [ [ [ [ [ [ [ [ [ [ [ [ [ [ [ [ [ [ [ [ [ [ [ [ [ [ [ [ [ [ [ [ [ [ [ [ [ [ [ [ [ [ [ [ [ [ [ [ [ [ [ [ [ [ [ [ [ [ [ [ [ [ [ [ [ [ [ [ [ [ [ [ [ [ [ [ [ [ [ [ [ [ [ [ [ [ [ [ [ [ [ [ [ [ [ [ [ [ [ [ [ [ [ [ [ [ [ [ [ [ [ [ [ [ [ [ [ [ [ [ [ [ [ [ [ [ [ [ [ [ [ [ [ [ [ [ [ [ [ [ [ [ [ [ [ [ [ ` ` ` Y Y Y Y Y Y Y Y Y Y Y Y Y Y Y Y Y Y Y Y ",
"Y Y Y Y Y Y Y Y Y Y Y Y Y Y Y Y Y Y Y Y Y Y Y Y Y Y Y Y Y Y Y Y Y Y Y Y Y Y Y Y Y Y Y Y [ [ [ [ [ [ [ [ [ [ [ [ [ [ [ [ [ [ [ [ [ [ [ [ [ [ [ [ [ [ [ [ [ [ [ [ [ [ [ [ [ [ [ [ [ [ [ [ [ [ [ [ [ [ [ [ } | | | | | | | | | | | | | | | | | | | | | | | | | | | | | | | | | | | | | | | | | | | | | | | | | | | | | | | | | | | | | | | | | | | | [ [ [ [ [ [ [ [ [ [ [ [ [ [ [ [ [ [ [ [ [ [ [ [ [ [ [ [ [ [ [ [ [ [ [ [ [ [ [ [ [ [ [ [ [ [ [ [ [ [ [ [ [ [ [ [ [ [ [ [ [ [ [ [ P n n F.F.a a a V.H.H.H.H.H.H.F.F.F.F.F.N.a a H.dX XfX`.H.j j d d d g.(.(.(.m.m.m.m.m.m.m.m.m.m.m.m.m.m.m.m.n.l.l.l.l.g.7 '.zXzXzXzXzXzXzXzXzXzXzXzXzXzXzXzXzXzXzXzXzXzXzXzXzXzXzXzXzXzXzXzXzXzXzXzXzXzXzX_.a w.&X&X&X&X&X&X&X&X=X=X=X=X&X&X&X&X&X&X&X&X&X&X&X&X&X&X&X&X&X&X&X&X&X&X&X&X&X&X&X&X&X&X&X&X&X&X&X&X&X&X&X&X&X&X&X&X&X&X&X&X&X&X&X&X&X&X&X&X&X&X&X&X&X&X&X&X&X&X&X&X&X&X&X&X&X&X&X&X&X&X&X&X,X<X<X<X<X<X<X<X<X<X<X<X=X&X&X=X=X=X=X=X>X>X>X>X>X>X>X>X5.a a |.`.H.H.H.H.H.H.H.H.j a a a a a F.F.F.F.F.F.F.A n M L L L L L L L L Y Y Y Y Y Y Y Y Y Y Y Y Y Y Y Y Y Y Y Y U n n n P [ [ [ [ [ [ [ [ [ [ [ [ [ [ [ [ [ [ [ [ [ [ [ [ [ [ [ [ [ [ [ [ [ [ [ [ [ [ [ [ [ [ [ [ [ [ [ [ [ [ [ [ [ [ [ [ [ [ [ [ [ [ [ [ [ [ [ [ [ [ [ [ [ [ [ [ [ [ [ [ [ [ [ [ [ [ [ [ [ [ [ [ [ [ [ [ [ [ [ [ [ [ [ [ [ [ [ [ [ [ [ [ [ [ [ [ [ [ [ [ [ [ [ [ [ [ [ [ [ [ [ [ [ [ [ [ [ [ [ [ [ [ [ [ [ [ [ [ [ [ [ [ [ [ [ [ [ [ [ [ [ [ [ [ [ [ [ [ [ [ [ [ [ [ [ [ [ [ [ [ [ [ [ [ [ [ [ [ [ [ [ [ [ [ [ [ [ [ [ [ [ [ [ [ [ [ [ [ [ [ [ [ [ [ [ [ [ [ [ [ [ [ [ [ [ [ [ [ [ [ [ [ [ [ [ [ ` ` ` Y Y Y Y Y Y Y Y Y Y Y Y Y Y Y Y Y Y Y Y Y Y ",
"Y Y Y Y Y Y Y Y Y Y Y Y Y Y Y Y Y Y Y Y Y Y Y Y Y Y Y Y Y Y Y Y Y Y Y Y Y Y Y Y Y Y Y Y [ [ [ [ [ [ [ [ [ [ [ [ [ [ [ [ [ [ [ [ [ [ [ [ [ [ [ [ [ [ [ [ [ [ [ [ [ [ [ [ [ [ [ [ [ [ [ [ [ [ [ [ [ [ [ [ } | | | | | | | | | | | | | | | | | | | | | | | | | | | | | | | | | | | | | | | | | | | | | | | | | | | | | | | | | | | | | | | | | | | | [ [ [ [ [ [ [ [ [ [ [ [ [ [ [ [ [ [ [ [ [ [ [ [ [ [ [ [ [ [ [ [ [ [ [ [ [ [ [ [ [ [ [ [ [ [ [ [ [ [ [ [ [ [ [ [ [ [ [ [ [ [ [ [ P n n F.F.a a a V.H.H.H.H.H.H.F.F.F.F.F.N.a a F.).H.H.).`.`._.H.V.N.V.V.N.D.(.(.m.aXaXm.m.m.m.m.m.m.m.m.m.n.n.l.l.k.g.7 B.zXzXzXzXzXzXzXzXzXzXzXzXzXzXzXzXzXzXzXzXzXzXzXzXzXzXzXzXzXzXzXzXzXzXzXzXzXzXzXzXdXa j =X=X=X=X=X=X=X-X>X>X>X>X-X=X=X=X&X&X&X&X&X&X&X&X&X&X&X&X&X&X&X&X&X&X&X&X&X&X&X&X&X&X&X&X&X&X&X&X&X&X&X&X&X&X&X&X&X&X&X&X&X&X&X&X&X&X&X&X&X&X&X&X&X&X&X&X&X&X&X&X&X&X&X&X&X&X&X&X&X&X&X=X<X<X<X<X<X<X<X<X<X<X<X>X&X&X&X&X&X&X&X&X=X=X=X-X>X>X>X>X5.a a |.`.H.H.H.H.H.H.H.H.j a a a a a F.F.F.F.F.F.F.A n N L L L L L L L L L Y Y Y Y Y Y Y Y Y Y Y Y Y Y Y Y Y Y Y U n n n P [ [ [ [ [ [ [ [ [ [ [ [ [ [ [ [ [ [ [ [ [ [ [ [ [ [ [ [ [ [ [ [ [ [ [ [ [ [ [ [ [ [ [ [ [ [ [ [ [ [ [ [ [ [ [ [ [ [ [ [ [ [ [ [ [ [ [ [ [ [ [ [ [ [ [ [ [ [ [ [ [ [ [ [ [ [ [ [ [ [ [ [ [ [ [ [ [ [ [ [ [ [ [ [ [ [ [ [ [ [ [ [ [ [ [ [ [ [ [ [ [ [ [ [ [ [ [ [ [ [ [ [ [ [ [ [ [ [ [ [ [ [ [ [ [ [ [ [ [ [ [ [ [ [ [ [ [ [ [ [ [ [ [ [ [ [ [ [ [ [ [ [ [ [ [ [ [ [ [ [ [ [ [ [ [ [ [ [ [ [ [ [ [ [ [ [ [ [ [ [ [ [ [ [ [ [ [ [ [ [ [ [ [ [ [ [ [ [ [ [ [ [ [ [ [ [ [ [ [ [ [ [ [ [ ` ` ` Y Y Y Y Y Y Y Y Y Y Y Y Y Y Y Y Y Y Y Y Y Y Y Y ",
"Y Y Y Y Y Y Y Y Y Y Y Y Y Y Y Y Y Y Y Y Y Y Y Y Y Y Y Y Y Y Y Y Y Y Y Y Y Y Y Y Y Y Y Y [ [ [ [ [ [ [ [ [ [ [ [ [ [ [ [ [ [ [ [ [ [ [ [ [ [ [ [ [ [ [ [ [ [ [ [ [ [ [ [ [ [ [ [ [ [ [ [ [ [ [ [ [ [ [ [ } | | | | | | | | | | | | | | | | | | | | | | | | | | | | | | | | | | | | | | | | | | | | | | | | | | | | | | | | | | | | | | | | | | | | [ [ [ [ [ [ [ [ [ [ [ [ [ [ [ [ [ [ [ [ [ [ [ [ [ [ [ [ [ [ [ [ [ [ [ [ [ [ [ [ [ [ [ [ [ [ [ [ [ [ [ [ [ [ [ [ [ [ [ [ [ [ [ [ P n n F.F.a a a V.H.H.H.H.H.F.F.F.F.F.F.N.a a H.dXkXkXkXBXzXkX|.`.|.|.`.H.H.V.D.(.(.(.m.m.m.m.m.m.m.m.m.m.n.n.l.k.g.7 D dXzXzXzXzXzXzXzXzXzXzXzXzXzXzXzXzXzXzXzXzXzXzXzXzXzXzXzXzXzXzXzXzXzXzXzXzXzXzXzXzXzXj a ^.>X>X>X>X>X>X>X>X>X>X>X>X>X>X>X-X=X=X=X&X&X&X&X&X&X&X&X&X&X&X&X&X&X&X&X&X&X&X&X&X&X&X&X&X&X&X&X&X&X&X&X&X&X&X&X&X&X&X&X&X&X&X&X&X&X&X&X&X&X&X&X&X&X&X&X&X&X&X&X&X&X&X&X&X&X&X&X&X&X&X,X<X<X<X<X<X<X<X<X<X<X<X&X&X&X&X&X&X&X&X&X&X&X&X=X>X=X=X&X5.a a |.`.H.H.H.H.H.H.H.H.j a a a a a F.F.F.F.F.F.F.n n Z L L L L L L L L L Y Y Y Y Y Y Y Y Y Y Y Y Y Y Y Y Y Y Y U n n n P [ [ [ [ [ [ [ [ [ [ [ [ [ [ [ [ [ [ [ [ [ [ [ [ [ [ [ [ [ [ [ [ [ [ [ [ [ [ [ [ [ [ [ [ [ [ [ [ [ [ [ [ [ [ [ [ [ [ [ [ [ [ [ [ [ [ [ [ [ [ [ [ [ [ [ [ [ [ [ [ [ [ [ [ [ [ [ [ [ [ [ [ [ [ [ [ [ [ [ [ [ [ [ [ [ [ [ [ [ [ [ [ [ [ [ [ [ [ [ [ [ [ [ [ [ [ [ [ [ [ [ [ [ [ [ [ [ [ [ [ [ [ [ [ [ [ [ [ [ [ [ [ [ [ [ [ [ [ [ [ [ [ [ [ [ [ [ [ [ [ [ [ [ [ [ [ [ [ [ [ [ [ [ [ [ [ [ [ [ [ [ [ [ [ [ [ [ [ [ [ [ [ [ [ [ [ [ [ [ [ [ [ [ [ [ [ [ [ [ [ [ [ [ [ [ [ [ [ [ [ [ [ ` ` ` Y Y Y Y Y Y Y Y Y Y Y Y Y Y Y Y Y Y Y Y Y Y Y Y Y Y ",
"Y Y Y Y Y Y Y Y Y Y Y Y Y Y Y Y Y Y Y Y Y Y Y Y Y Y Y Y Y Y Y Y Y Y Y Y Y Y Y Y Y Y Y Y [ [ [ [ [ [ [ [ [ [ [ [ [ [ [ [ [ [ [ [ [ [ [ [ [ [ [ [ [ [ [ [ [ [ [ [ [ [ [ [ [ [ [ [ [ [ [ [ [ [ [ [ [ [ [ [ } | | | | | | | | | | | | | | | | | | | | | | | | | | | | | | | | | | | | | | | | | | | | | | | | | | | | | | | | | | | | | | | | | | | | [ [ [ [ [ [ [ [ [ [ [ [ [ [ [ [ [ [ [ [ [ [ [ [ [ [ [ [ [ [ [ [ [ [ [ [ [ [ [ [ [ [ [ [ [ [ [ [ [ [ [ [ [ [ [ [ [ [ [ [ [ [ [ [ P n n F.F.a a a V.H.H.H.H.H.F.F.F.F.F.F.N.a a fXVXBXkX X X|.).|.dXfXlXBXkXkX|.H.V.D.(.(.m.m.m.m.m.m.m.m.n.l.k.k.g.i 7 '.zXzXzXzXzXzXzXzXzXzXzXzXzXzXzXzXzXzXzXzXzXzXzXzXzXzXzXzXzXzXzXzXzXzXzXzXzXzXzXzXzXzXV.a A.>X>X>X>X>X>X>X>X>X>X>X>X>X>X>X>X>X>X>X-X=X=X=X&X&X&X&X&X&X&X&X&X&X&X&X&X&X&X&X&X&X&X&X&X&X&X&X&X&X&X&X&X&X&X&X&X&X&X&X&X&X&X&X&X&X&X&X&X&X&X&X&X&X&X&X&X&X&X&X&X&X&X&X&X&X&X&X&X&X,X<X<X<X<X<X<X<X<X<X<X<X>X&X&X&X&X&X&X&X&X&X&X&X&X=X-X=X=X=X5.a a |.`.H.H.H.H.H.H.H.H.j a a a a a F.F.F.F.F.F.F.n n Z L L L L L L L L L L Y Y Y Y Y Y Y Y Y Y Y Y Y Y Y Y Y Y U n n n K [ [ [ [ [ [ [ [ [ [ [ [ [ [ [ [ [ [ [ [ [ [ [ [ [ [ [ [ [ [ [ [ [ [ [ [ [ [ [ [ [ [ [ [ [ [ [ [ [ [ [ [ [ [ [ [ [ [ [ [ [ [ [ [ [ [ [ [ [ [ [ [ [ [ [ [ [ [ [ [ [ [ [ [ [ [ [ [ [ [ [ [ [ [ [ [ [ [ [ [ [ [ [ [ [ [ [ [ [ [ [ [ [ [ [ [ [ [ [ [ [ [ [ [ [ [ [ [ [ [ [ [ [ [ [ [ [ [ [ [ [ [ [ [ [ [ [ [ [ [ [ [ [ [ [ [ [ [ [ [ [ [ [ [ [ [ [ [ [ [ [ [ [ [ [ [ [ [ [ [ [ [ [ [ [ [ [ [ [ [ [ [ [ [ [ [ [ [ [ [ [ [ [ [ [ [ [ [ [ [ [ [ [ [ [ [ [ [ [ [ [ [ [ [ [ [ [ [ [ ` ` ` ` Y Y Y Y Y Y Y Y Y Y Y Y Y Y Y Y Y Y Y Y Y Y Y Y Y Y Y Y ",
"Y Y Y Y Y Y Y Y Y Y Y Y Y Y Y Y Y Y Y Y Y Y Y Y Y Y Y Y Y Y Y Y Y Y Y Y Y Y Y Y Y ` ` ` [ [ [ [ [ [ [ [ [ [ [ [ [ [ [ [ [ [ [ [ [ [ [ [ [ [ [ [ [ [ [ [ [ [ [ [ [ [ [ [ [ [ [ [ [ [ [ [ [ [ [ [ [ [ [ [ } | | | | | | | | | | | | | | | | | | | | | | | | | | | | | | | | | | | | | | | | | | | | | | | | | | | | | | | | | | | | | | | | | | | | [ [ [ [ [ [ [ [ [ [ [ [ [ [ [ [ [ [ [ [ [ [ [ [ [ [ [ [ [ [ [ [ [ [ [ [ [ [ [ [ [ [ [ [ [ [ [ [ [ [ [ [ [ [ [ [ [ [ [ [ [ [ [ [ P n n F.F.a a a F.H.H.H.H.F.F.F.F.F.V.F.N.a a  XfXdX).dXdXfXzXzXzXBXBXBXBXBXBXkX|.H.N.D.(.m.m.m.m.m.m.n.l.k.k.g.i 6 J.zXzXzXzXzXzXzXzXzXzXzXzXzXzXzXzXzXzXzXzXzXzXzXzXzXzXzXzXzXzXzXzXzXzXzXzXzXzXzXzXzXzXzX).a A.>X>X>X>X>X>X>X>X>X>X>X>X>X>X>X>X>X>X>X>X>X>X>X-X=X=X=X&X&X&X&X&X&X&X&X&X&X&X&X&X&X&X&X&X&X&X&X&X&X&X&X&X&X&X&X&X&X&X&X&X&X&X&X&X&X&X&X&X&X&X&X&X&X&X&X&X&X&X&X&X&X&X&X&X&X&X&X&X=X<X<X<X<X<X<X<X<X<X<X2X,X&X&X&X&X=X=X=X=X=X=X=X-X-X>X>X>X>X>X5.a a |.).H.H.H.H.H.H.H.H.j a a a a a F.F.F.F.F.F.F.n n Z L L L L L L L L L L Y Y Y Y Y Y Y Y Y Y Y Y Y Y Y Y Y Y U n n n K ` [ [ [ [ [ [ [ [ [ [ [ [ [ [ [ [ [ [ [ [ [ [ [ [ [ [ [ [ [ [ [ [ [ [ [ [ [ [ [ [ [ [ [ [ [ [ [ [ [ [ [ [ [ [ [ [ [ [ [ [ [ [ [ [ [ [ [ [ [ [ [ [ [ [ [ [ [ [ [ [ [ [ [ [ [ [ [ [ [ [ [ [ [ [ [ [ [ [ [ [ [ [ [ [ [ [ [ [ [ [ [ [ [ [ [ [ [ [ [ [ [ [ [ [ [ [ [ [ [ [ [ [ [ [ [ [ [ [ [ [ [ [ [ [ [ [ [ [ [ [ [ [ [ [ [ [ [ [ [ [ [ [ [ [ [ [ [ [ [ [ [ [ [ [ [ [ [ [ [ [ [ [ [ [ [ [ [ [ [ [ [ [ [ [ [ [ [ [ [ [ [ [ [ [ [ [ [ [ [ [ [ [ [ [ [ [ [ [ [ [ [ [ [ [ [ [ ` ` ` ` Y Y Y Y Y Y Y Y Y Y Y Y Y Y Y Y Y Y Y Y Y Y Y Y Y Y Y Y Y Y ",
"Y Y Y Y Y Y Y Y Y Y Y Y Y Y Y Y Y Y Y Y Y Y Y Y Y Y Y Y Y Y Y Y Y Y Y _ ` ` ` ` ` ` ` ` [ [ [ [ [ [ [ [ [ [ [ [ [ [ [ [ [ [ [ [ [ [ [ [ [ [ [ [ [ [ [ [ [ [ [ [ [ [ [ [ [ [ [ [ [ [ [ [ [ [ [ [ [ [ [ [ } | | | | | | | | | | | | | | | | | | | | | | | | | | | | | | | | | | | | | | | | | | | | | | | | | | | | | | | | | | | | | | | | | | | | [ [ [ [ [ [ [ [ [ [ [ [ [ [ [ [ [ [ [ [ [ [ [ [ [ [ [ [ [ [ [ [ [ [ [ [ [ [ [ [ [ [ [ [ [ [ [ [ [ [ [ [ [ [ [ [ [ [ [ [ [ [ [ [ P n n F.F.a a a H.H.H.H.H.F.F.F.F.F.F.F.N.a a _.$XfXzXzXzXzXzXzXBXBXBXBXBXBXBXBXzXkX).F.N.D.m.m.m.m.n.l.g.g.g.i 7 J.zXzXzXzXzXzXzXzXzXzXzXzXzXzXzXzXzXzXzXzXzXzXzXzXzXzXzXzXzXzXzXzXzXzXzXzXzXzXzXzXzXzXzXzX_.a Z.>X>X>X>X>X>X>X>X>X>X>X>X>X>X>X>X>X>X>X>X>X>X>X>X>X>X>X-X=X=X=X&X&X&X&X&X&X&X&X&X&X&X&X&X&X&X&X&X&X&X&X&X&X&X&X&X&X&X&X&X&X&X&X&X&X&X&X&X&X&X&X&X&X&X&X&X&X&X&X&X&X&X&X&X&X&X&X&X,X<X<X<X2X2X2X2X2X2X2X2X>X=X=X=X-X>X>X>X>X>X>X>X>X>X>X>X>X>X>X5.a a |.).H.H.H.H.H.H.H.H.j a a a a d F.F.F.F.F.F.F.n n Z L L L L L L L L L L Y Y Y Y Y Y Y Y Y Y Y Y Y Y Y Y Y Y U n n n K ` [ [ [ [ [ [ [ [ [ [ [ [ [ [ [ [ [ [ [ [ [ [ [ [ [ [ [ [ [ [ [ [ [ [ [ [ [ [ [ [ [ [ [ [ [ [ [ [ [ [ [ [ [ [ [ [ [ [ [ [ [ [ [ [ [ [ [ [ [ [ [ [ [ [ [ [ [ [ [ [ [ [ [ [ [ [ [ [ [ [ [ [ [ [ [ [ [ [ [ [ [ [ [ [ [ [ [ [ [ [ [ [ [ [ [ [ [ [ [ [ [ [ [ [ [ [ [ [ [ [ [ [ [ [ [ [ [ [ [ [ [ [ [ [ [ [ [ [ [ [ [ [ [ [ [ [ [ [ [ [ [ [ [ [ [ [ [ [ [ [ [ [ [ [ [ [ [ [ [ [ [ [ [ [ [ [ [ [ [ [ [ [ [ [ [ [ [ [ [ [ [ [ [ [ [ [ [ [ [ [ [ [ [ [ [ [ [ [ [ [ [ [ [ ` ` ` ` Y Y Y Y Y Y Y Y Y Y Y Y Y Y Y Y Y Y Y Y Y Y Y Y Y Y Y Y Y Y Y Y Y ",
"Y Y Y Y Y Y Y Y Y Y Y Y Y Y Y Y Y Y Y Y Y Y Y Y Y Y Y Y Y Y _ ` ` ` ` ` ` ` ` [ [ [ [ [ [ [ [ [ [ [ [ [ [ [ [ [ [ [ [ [ [ [ [ [ [ [ [ [ [ [ [ [ [ [ [ [ [ [ [ [ [ [ [ [ [ [ [ [ [ [ [ [ [ [ [ [ [ [ [ [ } | | | | | | | | | | | | | | | | | | | | | | | | | | | | | | | | | | | | | | | | | | | | | | | | | | | | | | | | | | | | | | | | | | | | [ [ [ [ [ [ [ [ [ [ [ [ [ [ [ [ [ [ [ [ [ [ [ [ [ [ [ [ [ [ [ [ [ [ [ [ [ [ [ [ [ [ [ [ [ [ [ [ [ [ [ [ [ [ [ [ [ [ [ [ [ [ [ [ P n n F.F.a a a H.H.H.H.F.F.F.F.F.F.F.F.l a a  XzXzXzXzXzXzXzXBXBXBXBXBXBXBXBXBXBXBXBX8XH.N.D.(.n.n.l.g.g.g.i D o.kXzXzXzXzXzXzXzXzXzXzXzXzXzXzXzXzXzXzXzXzXzXzXzXzXzXzXzXzXzXzXzXzXzXzXzXzXzXzXzXzXzXzXzXzX Xa 5.>X>X>X>X>X>X>X>X>X>X>X>X>X>X>X>X>X>X>X>X>X>X>X>X>X>X>X>X>X>X>X-X=X=X&X&X&X&X&X&X&X&X&X&X&X&X&X&X&X&X&X&X&X&X&X&X&X&X&X&X&X&X&X&X&X&X&X&X&X&X&X&X&X&X&X&X&X&X&X&X&X&X&X&X&X&X&X>X2X2X2X2X4X4X4X4X4X9X9X2X>X>X>X>X>X>X>X>X>X>X>X>X>X>X>X>X>X>X>X5.a d  X).H.H.H.H.H.H.H.H.d a a a a j F.F.F.F.F.F.F.n n Z L L L L L L L L L L L Y Y Y Y Y Y Y Y Y Y Y Y Y Y Y Y Y U n n n K ` [ [ [ [ [ [ [ [ [ [ [ [ [ [ [ [ [ [ [ [ [ [ [ [ [ [ [ [ [ [ [ [ [ [ [ [ [ [ [ [ [ [ [ [ [ [ [ [ [ [ [ [ [ [ [ [ [ [ [ [ [ [ [ [ [ [ [ [ [ [ [ [ [ [ [ [ [ [ [ [ [ [ [ [ [ [ [ [ [ [ [ [ [ [ [ [ [ [ [ [ [ [ [ [ [ [ [ [ [ [ [ [ [ [ [ [ [ [ [ [ [ [ [ [ [ [ [ [ [ [ [ [ [ [ [ [ [ [ [ [ [ [ [ [ [ [ [ [ [ [ [ [ [ [ [ [ [ [ [ [ [ [ [ [ [ [ [ [ [ [ [ [ [ [ [ [ [ [ [ [ [ [ [ [ [ [ [ [ [ [ [ [ [ [ [ [ [ [ [ [ [ [ [ [ [ [ [ [ [ [ [ [ [ [ [ [ [ [ [ [ ` ` ` ` ` Y Y Y Y Y Y Y Y Y Y Y Y Y Y Y Y Y Y Y Y Y Y Y Y Y Y Y Y Y Y Y Y Y Y Y ",
"Y Y Y Y Y Y Y Y Y Y Y Y Y Y Y Y Y Y Y Y Y Y Y Y Y _ ` ` ` ` ` ` ` ` [ [ [ [ [ [ [ [ [ [ [ [ [ [ [ [ [ [ [ [ [ [ [ [ [ [ [ [ [ [ [ [ [ [ [ [ [ [ [ [ [ [ [ [ [ [ [ [ [ [ [ [ [ [ [ [ [ [ [ [ [ [ [ [ [ [ } | | | | | | | | | | | | | | | | | | | | | | | | | | | | | | | | | | | | | | | | | | | | | | | | | | | | | | | | | | | | | | | | | | | | [ [ [ [ [ [ [ [ [ [ [ [ [ [ [ [ [ [ [ [ [ [ [ [ [ [ [ [ [ [ [ [ [ [ [ [ [ [ [ [ [ [ [ [ [ [ [ [ [ [ [ [ [ [ [ [ [ [ [ [ [ [ [ [ P n n F.F.a a a H.H.H.H.F.F.F.F.F.F.F.F.l a a  XzXzXzXzXzXzXBXBXBXBXBXBXBXBXBXBXBXBXMXBXkXH.V.D.x.l.g.g.g.7 D $X`. XlXzXzXzXzXzXzXzXzXzXzXzXzXzXzXzXzXzXzXzXzXzXzXzXzXzXzXzXzXzXzXzXzXzXzXzXzXzXzXzXzXzXzXzX Xa 5.>X>X>X>X>X>X>X>X>X>X>X>X>X>X>X>X>X>X>X>X>X>X>X>X>X>X>X>X>X>X>X>X>X>X>X-X=X=X&X&X&X&X&X&X&X&X&X&X&X&X&X&X&X&X&X&X&X&X&X&X&X&X&X&X&X&X&X&X&X&X&X&X&X&X&X&X&X&X&X&X&X&X=X=X=X=X>X2X9X9X9X9X9X9X9X9X9X9X4X,X>X>X>X>X>X>X>X>X>X>X>X>X>X>X>X>X>X>X>X5.a 5. X).H.H.H.H.H.H.H.H.a a a a a j F.F.F.F.F.F.F.n n Z L L L L L L L L L L L Y Y Y Y Y Y Y Y Y Y Y Y Y Y Y Y Y U n n n K Y ` [ [ [ [ [ [ [ [ [ [ [ [ [ [ [ [ [ [ [ [ [ [ [ [ [ [ [ [ [ [ [ [ [ [ [ [ [ [ [ [ [ [ [ [ [ [ [ [ [ [ [ [ [ [ [ [ [ [ [ [ [ [ [ [ [ [ [ [ [ [ [ [ [ [ [ [ [ [ [ [ [ [ [ [ [ [ [ [ [ [ [ [ [ [ [ [ [ [ [ [ [ [ [ [ [ [ [ [ [ [ [ [ [ [ [ [ [ [ [ [ [ [ [ [ [ [ [ [ [ [ [ [ [ [ [ [ [ [ [ [ [ [ [ [ [ [ [ [ [ [ [ [ [ [ [ [ [ [ [ [ [ [ [ [ [ [ [ [ [ [ [ [ [ [ [ [ [ [ [ [ [ [ [ [ [ [ [ [ [ [ [ [ [ [ [ [ [ [ [ [ [ [ [ [ [ [ [ [ [ [ [ [ [ [ [ [ ` ` ` ` ` Y Y Y Y Y Y Y Y Y Y Y Y Y Y Y Y Y Y Y Y Y Y Y Y Y Y Y Y Y Y Y Y Y Y Y Y Y Y ",
"Y Y Y Y Y Y Y Y Y Y Y Y Y Y Y Y Y Y Y _ ` ` ` ` ` ` ` ` [ [ [ [ [ [ [ [ [ [ [ [ [ [ [ [ [ [ [ [ [ [ [ [ [ [ [ [ [ [ [ [ [ [ [ [ [ [ [ [ [ [ [ [ [ [ [ [ [ [ [ [ [ [ [ [ [ [ [ [ [ [ [ [ [ [ [ [ [ [ [ [ } | | | | | | | | | | | | | | | | | | | | | | | | | | | | | | | | | | | | | | | | | | | | | | | | | | | | | | | | | | | | | | | | | | | | [ [ [ [ [ [ [ [ [ [ [ [ [ [ [ [ [ [ [ [ [ [ [ [ [ [ [ [ [ [ [ [ [ [ [ [ [ [ [ [ [ [ [ [ [ [ [ [ [ [ [ [ [ [ [ [ [ [ [ [ [ [ [ [ P n n F.F.a a a H.H.H.F.F.F.F.F.F.F.F.F.l a a  XzXzXzXzXzXzXBXBXBXBXBXBXBXBXBXBXBXBXBXBXzXkX|.V.l g.g.i 6 7 $XZX X|.fXzXzXzXzXzXzXzXzXzXzXzXzXzXzXzXzXzXzXzXzXzXzXzXzXzXzXzXzXzXzXzXzXzXzXzXzXzXzXzXzXzXzXzX Xa 5.>X>X>X>X>X>X>X>X>X>X>X>X>X>X>X>X>X>X>X>X>X>X>X>X>X>X>X>X>X>X>X>X>X>X>X>X>X>X>X-X=X=X&X&X&X&X&X&X&X&X&X&X&X&X&X&X&X&X&X&X&X&X&X&X&X&X&X&X&X&X&X&X&X&X=X=X=X=X-X-X>X>X>X>X>X>X2X9X9X9X9X9X9X9X9X9X9X4X,X>X>X>X>X>X>X>X>X>X>X>X>X>X>X>X>X>X>X>X>X5.a 5. X).H.H.H.H.H.H.H.H.a a a a a j F.F.F.F.F.F.F.n n Z L L L L L L L L L L L L Y Y Y Y Y Y Y Y Y Y Y Y Y Y Y Y U n n n K Y ` [ [ [ [ [ [ [ [ [ [ [ [ [ [ [ [ [ [ [ [ [ [ [ [ [ [ [ [ [ [ [ [ [ [ [ [ [ [ [ [ [ [ [ [ [ [ [ [ [ [ [ [ [ [ [ [ [ [ [ [ [ [ [ [ [ [ [ [ [ [ [ [ [ [ [ [ [ [ [ [ [ [ [ [ [ [ [ [ [ [ [ [ [ [ [ [ [ [ [ [ [ [ [ [ [ [ [ [ [ [ [ [ [ [ [ [ [ [ [ [ [ [ [ [ [ [ [ [ [ [ [ [ [ [ [ [ [ [ [ [ [ [ [ [ [ [ [ [ [ [ [ [ [ [ [ [ [ [ [ [ [ [ [ [ [ [ [ [ [ [ [ [ [ [ [ [ [ [ [ [ [ [ [ [ [ [ [ [ [ [ [ [ [ [ [ [ [ [ [ [ [ [ [ [ [ [ [ [ [ [ [ [ [ ` ` ` ` ` Y Y Y Y Y Y Y Y Y Y Y Y Y Y Y Y Y Y Y Y Y Y Y Y Y Y Y Y Y Y Y Y Y Y Y Y Y Y Y Y Y ",
"Y Y Y Y Y Y Y Y Y Y Y Y Y Y _ ` ` ` ` ` ` ` ` [ [ [ [ [ [ [ [ [ [ [ [ [ [ [ [ [ [ [ [ [ [ [ [ [ [ [ [ [ [ [ [ [ [ [ [ [ [ [ [ [ [ [ [ [ [ [ [ [ [ [ [ [ [ [ [ [ [ [ [ [ [ [ [ [ [ [ [ [ [ [ [ [ [ [ [ [ } | | | | | | | | | | | | | | | | | | | | | | | | | | | | | | | | | | | | | | | | | | | | | | | | | | | | | | | | | | | | | | | | | | | | [ [ [ [ [ [ [ [ [ [ [ [ [ [ [ [ [ [ [ [ [ [ [ [ [ [ [ [ [ [ [ [ [ [ [ [ [ [ [ [ [ [ [ [ [ [ [ [ [ [ [ [ [ [ [ [ [ [ [ [ [ [ [ [ P n n F.F.a a a H.H.H.F.F.F.F.F.F.F.F.F.l a a  XzXzXzXzXzXBXBXBXBXBXBXBXBXBXBXBXBXBXBXMXBXBXBX|.l a 5 7 B.H.VXZX X_.fXkXzXzXzXzXzXzXzXzXzXzXzXzXzXzXzXzXzXzXzXzXzXzXzXzXzXzXzXzXzXzXzXzXzXzXzXzXzXzXzXzXzXzX Xa 5.>X>X>X>X>X>X>X>X>X>X>X>X>X>X>X>X>X>X>X>X>X>X>X>X>X>X>X>X>X>X>X>X>X>X>X>X>X>X>X>X>X>X-X=X&X&X&X&X&X&X&X&X&X&X&X&X&X&X&X&X&X&X&X&X&X=X=X=X=X=X-X>X>X>X>X>X>X>X>X>X>X>X>X>X>X,X9X9X9X9X9X4X9X9X9X9X9X2X>X>X>X>X>X>X>X>X>X>X>X>X>X>X>X>X>X>X>X>X>X5.a 5. X).H.H.H.H.H.H.H.H.a a a a a j F.F.F.F.F.F.F.n n Z L L L L L L L L L L L L U Y Y Y Y Y Y Y Y Y Y Y Y Y Y Y U n n n K Y ` [ [ [ [ [ [ [ [ [ [ [ [ [ [ [ [ [ [ [ [ [ [ [ [ [ [ [ [ [ [ [ [ [ [ [ [ [ [ [ [ [ [ [ [ [ [ [ [ [ [ [ [ [ [ [ [ [ [ [ [ [ [ [ [ [ [ [ [ [ [ [ [ [ [ [ [ [ [ [ [ [ [ [ [ [ [ [ [ [ [ [ [ [ [ [ [ [ [ [ [ [ [ [ [ [ [ [ [ [ [ [ [ [ [ [ [ [ [ [ [ [ [ [ [ [ [ [ [ [ [ [ [ [ [ [ [ [ [ [ [ [ [ [ [ [ [ [ [ [ [ [ [ [ [ [ [ [ [ [ [ [ [ [ [ [ [ [ [ [ [ [ [ [ [ [ [ [ [ [ [ [ [ [ [ [ [ [ [ [ [ [ [ [ [ [ [ [ [ [ [ [ [ [ [ [ [ [ [ [ ` ` ` ` ` ` Y Y Y Y Y Y Y Y Y Y Y Y Y Y Y Y Y Y Y Y Y Y Y Y Y Y Y Y Y Y Y Y Y Y Y Y Y Y Y Y Y Y Y Y ",
"Y Y Y Y Y Y Y Y Y _ ` ` ` ` ` ` ` ` [ [ [ [ [ [ [ [ [ [ [ [ [ [ [ [ [ [ [ [ [ [ [ [ [ [ [ [ [ [ [ [ [ [ [ [ [ [ [ [ [ [ [ [ [ [ [ [ [ [ [ [ [ [ [ [ [ [ [ [ [ [ [ [ [ [ [ [ [ [ [ [ [ [ [ [ [ [ [ [ [ [ } | | | | | | | | | | | | | | | | | | | | | | | | | | | | | | | | | | | | | | | | | | | | | | | | | | | | | | | | | | | | | | | | | | | | [ [ [ [ [ [ [ [ [ [ [ [ [ [ [ [ [ [ [ [ [ [ [ [ [ [ [ [ [ [ [ [ [ [ [ [ [ [ [ [ [ [ [ [ [ [ [ [ [ [ [ [ [ [ [ [ [ [ [ [ [ [ [ [ P n n F.F.a a a H.H.F.F.F.F.F.F.F.F.F.F.l a a  XzXzXzXzXBXBXBXBXBXBXBXBXBXBXBXBXBXBXBXBXBXBXBXzX|.f a C.fX_.kXZXdX).fXfXkXzXzXzXzXzXzXzXzXzXzXzXzXzXzXzXzXzXzXzXzXzXzXzXzXzXzXzXzXzXzXzXzXzXzXzXzXzXzXzXzXzX Xa 5.>X>X>X>X>X>X>X>X>X>X>X>X>X>X>X>X>X>X>X>X>X>X>X>X>X>X>X>X>X>X>X>X>X-X-X-X=X=X=X=X=X=X&X&X&X&X&X&X&X&X&X&X&X&X&X&X&X&X&X=X=X=X-X>X>X>X>X>X>X>X>X>X>X>X>X>X>X>X>X>X>X>X>X>X>X4X9X9X9X9X9X4X4X4X9X9X4X,X>X>X>X>X>X>X>X>X>X>X>X>X>X>X>X>X>X>X>X>X>Xk a 5.|._.H.H.H.H.H.H.H.H.a a a a a j F.F.F.F.F.F.F.n n Z L L L L L L L L L L L L L U Y Y Y Y Y Y Y Y Y Y Y Y Y Y U n n n K Y Y ` [ [ [ [ [ [ [ [ [ [ [ [ [ [ [ [ [ [ [ [ [ [ [ [ [ [ [ [ [ [ [ [ [ [ [ [ [ [ [ [ [ [ [ [ [ [ [ [ [ [ [ [ [ [ [ [ [ [ [ [ [ [ [ [ [ [ [ [ [ [ [ [ [ [ [ [ [ [ [ [ [ [ [ [ [ [ [ [ [ [ [ [ [ [ [ [ [ [ [ [ [ [ [ [ [ [ [ [ [ [ [ [ [ [ [ [ [ [ [ [ [ [ [ [ [ [ [ [ [ [ [ [ [ [ [ [ [ [ [ [ [ [ [ [ [ [ [ [ [ [ [ [ [ [ [ [ [ [ [ [ [ [ [ [ [ [ [ [ [ [ [ [ [ [ [ [ [ [ [ [ [ [ [ [ [ [ [ [ [ [ [ [ [ [ [ [ [ [ [ [ [ [ [ [ ` ` ` ` ` ` Y Y Y Y Y Y Y Y Y Y Y Y Y Y Y Y Y Y Y Y Y Y Y Y Y Y Y Y Y Y Y Y Y Y Y Y Y Y Y Y Y Y Y Y Y Y Y Y ",
"Y Y Y Y ` ` ` ` ` ` ` ` ` [ [ [ [ [ [ [ [ [ [ [ [ [ [ [ [ [ [ [ [ [ [ [ [ [ [ [ [ [ [ [ [ [ [ [ [ [ [ [ [ [ [ [ [ [ [ [ [ [ [ [ [ [ [ [ [ [ [ [ [ [ [ [ [ [ [ [ [ [ [ [ [ [ [ [ [ [ [ [ [ [ [ [ [ [ [ [ } | | | | | | | | | | | | | | | | | | | | | | | | | | | | | | | | | | | | | | | | | | | | | | | | | | | | | | | | | | | | | | | | | | | | [ [ [ [ [ [ [ [ [ [ [ [ [ [ [ [ [ [ [ [ [ [ [ [ [ [ [ [ [ [ [ [ [ [ [ [ [ [ [ [ [ [ [ [ [ [ [ [ [ [ [ [ [ [ [ [ [ [ [ [ [ [ [ [ P n n F.F.a a a H.H.F.F.F.F.F.F.F.F.F.F.l a a dXzXzXzXzXBXBXBXBXBXBXBXBXBXBXBXBXBXBXBXBXBXBXzXzXzXH.a V. X|.`.BXBXH.fXfXfXkXzXzXzXzXzXzXzXzXzXzXzXzXzXzXzXzXzXzXzXzXzXzXzXzXzXzXzXzXzXzXzXzXzXzXzXzXzXzXzXzX_.a 5.>X>X>X>X>X>X>X>X>X>X>X>X>X>X>X>X>X>X>X>X>X>X>X>X>X-X-X=X=X=X=X=X=X&X&X&X&X&X&X&X&X&X&X&X&X&X&X&X&X&X&X&X&X&X&X&X&X&X&X&X&X=X=X=X-X>X>X>X>X>X>X>X>X>X>X>X>X>X>X>X>X>X>X>X,X4X9X9X9X9X9X9X4X9X9X9X2X>X>X>X>X>X>X>X>X>X>X>X>X>X>X>X>X>X>X-X-X>X>Xa a 5.|.).H.H.H.H.H.H.H.H.a a a a a j F.F.F.F.F.F.F.n n Z L L L L L L L L L L L L L L Y Y Y Y Y Y Y Y Y Y Y Y Y Y U n n n K Y Y ` [ [ [ [ [ [ [ [ [ [ [ [ [ [ [ [ [ [ [ [ [ [ [ [ [ [ [ [ [ [ [ [ [ [ [ [ [ [ [ [ [ [ [ [ [ [ [ [ [ [ [ [ [ [ [ [ [ [ [ [ [ [ [ [ [ [ [ [ [ [ [ [ [ [ [ [ [ [ [ [ [ [ [ [ [ [ [ [ [ [ [ [ [ [ [ [ [ [ [ [ [ [ [ [ [ [ [ [ [ [ [ [ [ [ [ [ [ [ [ [ [ [ [ [ [ [ [ [ [ [ [ [ [ [ [ [ [ [ [ [ [ [ [ [ [ [ [ [ [ [ [ [ [ [ [ [ [ [ [ [ [ [ [ [ [ [ [ [ [ [ [ [ [ [ [ [ [ [ [ [ [ [ [ [ [ [ [ [ [ [ [ [ [ [ [ [ [ [ [ [ ` ` ` ` ` ` ` Y Y Y Y Y Y Y Y Y Y Y Y Y Y Y Y Y Y Y Y Y Y Y Y Y Y Y Y Y Y Y Y Y Y Y Y Y Y Y Y Y Y Y Y Y Y Y Y Y Y Y ",
"` ` ` ` ` ` ` [ [ [ [ [ [ [ [ [ [ [ [ [ [ [ [ [ [ [ [ [ [ [ [ [ [ [ [ [ [ [ [ [ [ [ [ [ [ [ [ [ [ [ [ [ [ [ [ [ [ [ [ [ [ [ [ [ [ [ [ [ [ [ [ [ [ [ [ [ [ [ [ [ [ [ [ [ [ [ [ [ [ [ [ [ [ [ [ [ [ [ [ [ } | | | | | | | | | | | | | | | | | | | | | | | | | | | | | | | | | | | | | | | | | | | | | | | | | | | | | | | | | | | | | | | | | | | | [ [ [ [ [ [ [ [ [ [ [ [ [ [ [ [ [ [ [ [ [ [ [ [ [ [ [ [ [ [ [ [ [ [ [ [ [ [ [ [ [ [ [ [ [ [ [ [ [ [ [ [ [ [ [ [ [ [ [ [ [ [ [ [ P n n F.V.a a a H.F.F.F.F.F.F.F.F.F.F.F.l a a zXzXzXzXBXBXBXBXBXBXBXBXBXBXBXBXBXBXBXBXBXBXzXzXzXzXdXl a H.fXH.`.zXV.fXfXfXfXkXlXzXzXzXzXzXzXzXzXzXzXzXzXzXzXzXzXzXzXzXzXzXzXzXzXzXzXzXzXzXzXzXzXzXzXzXzXzXzXN.a U.>X>X>X>X>X>X>X>X>X>X>X>X>X>X>X>X-X-X-X=X=X=X=X=X=X&X&X&X&X&X&X&X&X&X&X&X&X&X&X&X&X&X&X&X&X&X&X&X&X&X&X&X&X&X&X&X&X&X&X&X&X&X&X&X&X=X=X=X-X>X>X>X>X>X>X>X>X>X>X>X>X>X>X>X4X9X9X9X9X9X9X9X9X4X9X4X,X>X>X>X>X>X>X>X>X>X>X>X>X>X>X>X>X>X>X>X>X>X>Xa a 5.|.).H.H.H.H.H.H.H.H.a a a a a j F.F.F.F.F.F.F.n n Z L L L L L L L L L L L L L L L Y Y Y Y Y Y Y Y Y Y Y Y Y U n n n K Y Y ` [ [ [ [ [ [ [ [ [ [ [ [ [ [ [ [ [ [ [ [ [ [ [ [ [ [ [ [ [ [ [ [ [ [ [ [ [ [ [ [ [ [ [ [ [ [ [ [ [ [ [ [ [ [ [ [ [ [ [ [ [ [ [ [ [ [ [ [ [ [ [ [ [ [ [ [ [ [ [ [ [ [ [ [ [ [ [ [ [ [ [ [ [ [ [ [ [ [ [ [ [ [ [ [ [ [ [ [ [ [ [ [ [ [ [ [ [ [ [ [ [ [ [ [ [ [ [ [ [ [ [ [ [ [ [ [ [ [ [ [ [ [ [ [ [ [ [ [ [ [ [ [ [ [ [ [ [ [ [ [ [ [ [ [ [ [ [ [ [ [ [ [ [ [ [ [ [ [ [ [ [ [ [ [ [ [ [ [ [ [ [ [ [ [ [ ' ` ` ` ` ` ` Y Y Y Y Y Y Y Y Y Y Y Y Y Y Y Y Y Y Y Y Y Y Y Y Y Y Y Y Y Y Y Y Y Y Y Y Y Y Y Y Y Y Y Y Y Y Y Y Y Y Y Y Y Y Y Y ",
"` ` [ [ [ [ [ [ [ [ [ [ [ [ [ [ [ [ [ [ [ [ [ [ [ [ [ [ [ [ [ [ [ [ [ [ [ [ [ [ [ [ [ [ [ [ [ [ [ [ [ [ [ [ [ [ [ [ [ [ [ [ [ [ [ [ [ [ [ [ [ [ [ [ [ [ [ [ [ [ [ [ [ [ [ [ [ [ [ [ [ [ [ [ [ [ [ [ [ [ } | | | | | | | | | | | | | | | | | | | | | | | | | | | | | | | | | | | | | | | | | | | | | | | | | | | | | | | | | | | | | | | | | | | | [ [ [ [ [ [ [ [ [ [ [ [ [ [ [ [ [ [ [ [ [ [ [ [ [ [ [ [ [ [ [ [ [ [ [ [ [ [ [ [ [ [ [ [ [ [ [ [ [ [ [ [ [ [ [ [ [ [ [ [ [ [ [ [ P n n F.N.a a a H.F.F.F.F.F.F.V.F.F.F.F.l a a zXzXzXBXBXBXBXBXBXBXBXBXBXBXBXBXBXBXBXBXBXzXzXzXzXzXzX|.a V. X|.H.`.H.fXfXfXfXfXfXlXzXzXzXzXzXzXzXzXzXzXzXzXzXzXzXzXzXzXzXzXzXzXzXzXzXzXzXzXzXzXzXzXzXzXzXzXzXl a ^.>X>X>X>X>X>X>X>X-X-X=X=X=X=X=X=X&X&X&X&X&X&X&X&X&X&X&X&X&X&X&X&X&X&X&X&X&X&X&X&X&X&X&X&X&X&X&X&X&X&X&X&X&X&X&X&X&X&X&X&X&X&X&X&X&X&X&X&X&X=X=X=X-X>X>X>X>X>X>X>X>X>X>X2X9X9X9X9X9X4X9X9X9X9X4X,X>X>X>X>X>X>X>X>X>X>X>X>X>X>X>X>X>X>X>X>X>X>X>Xa a 5.|.).H.H.H.H.H.H.H.H.a a a a a j F.F.F.F.F.F.F.n n Z L L L L L L L L L L L L L L L Y Y Y Y Y Y Y Y Y Y Y Y Y U n n n K Y Y Y [ [ [ [ [ [ [ [ [ [ [ [ [ [ [ [ [ [ [ [ [ [ [ [ [ [ [ [ [ [ [ [ [ [ [ [ [ [ [ [ [ [ [ [ [ [ [ [ [ [ [ [ [ [ [ [ [ [ [ [ [ [ [ [ [ [ [ [ [ [ [ [ [ [ [ [ [ [ [ [ [ [ [ [ [ [ [ [ [ [ [ [ [ [ [ [ [ [ [ [ [ [ [ [ [ [ [ [ [ [ [ [ [ [ [ [ [ [ [ [ [ [ [ [ [ [ [ [ [ [ [ [ [ [ [ [ [ [ [ [ [ [ [ [ [ [ [ [ [ [ [ [ [ [ [ [ [ [ [ [ [ [ [ [ [ [ [ [ [ [ [ [ [ [ [ [ [ [ [ [ [ [ [ [ [ [ [ [ [ [ [ ' ` ` ` ` ` ` Y Y Y Y Y Y Y Y Y Y Y Y Y Y Y Y Y Y Y Y Y Y Y Y Y Y Y Y Y Y Y Y Y Y Y Y Y Y Y Y Y Y Y Y Y Y Y Y Y Y Y Y Y Y Y Y Y Y Y Y ",
"[ [ [ [ [ [ [ [ [ [ [ [ [ [ [ [ [ [ [ [ [ [ [ [ [ [ [ [ [ [ [ [ [ [ [ [ [ [ [ [ [ [ [ [ [ [ [ [ [ [ [ [ [ [ [ [ [ [ [ [ [ [ [ [ [ [ [ [ [ [ [ [ [ [ [ [ [ [ [ [ [ [ [ [ [ [ [ [ [ [ [ [ [ [ [ [ [ [ [ [ } | | | | | | | | | | | | | | | | | | | | | | | | | | | | | | | | | | | | | | | | | | | | | | | | | | | | | | | | | | | | | | | | | | | | [ [ [ [ [ [ [ [ [ [ [ [ [ [ [ [ [ [ [ [ [ [ [ [ [ [ [ [ [ [ [ [ [ [ [ [ [ [ [ [ [ [ [ [ [ [ [ [ [ [ [ [ [ [ [ [ [ [ [ [ [ [ [ [ P n n F.N.a a a F.F.F.F.F.F.F.V.V.F.F.F.N.a a zXzXBXBXBXBXBXBXBXBXBXBXBXBXBXBXBXBXBXBXBXzXzXzXzXzXzXzXl a H.fX XdX|.fXfXfXfXfXfXfXkXzXzXzXzXzXzXzXzXzXzXzXzXzXzXzXzXzXzXzXzXzXzXzXzXzXzXzXzXzXzXzXzXzXzXzXkXa g >X>X>X=X=X=X=X=X=X&X&X&X&X&X&X&X&X&X&X&X&X&X&X&X&X&X&X&X&X&X&X&X&X&X&X&X&X&X&X&X&X&X&X&X&X&X&X&X&X&X&X&X&X&X&X&X&X&X&X&X&X&X&X&X&X&X&X&X&X&X&X&X&X&X=X=X=X-X>X>X>X>X>X,X9X9X9X9X9X4X9X4X9X9X9X2X>X>X>X>X>X>X>X>X>X>X>X>X>X>X>X>X>X>X>X>X>X>X>X>Xa a 5.|.).H.H.H.H.H.H.H.H.a a a a a j F.F.F.F.F.F.F.n n Z L L L L L L L L L L L L L L L L Y Y Y Y Y Y Y Y Y Y Y Y U n n n K Y Y Y ` [ [ [ [ [ [ [ [ [ [ [ [ [ [ [ [ [ [ [ [ [ [ [ [ [ [ [ [ [ [ [ [ [ [ [ [ [ [ [ [ [ [ [ [ [ [ [ [ [ [ [ [ [ [ [ [ [ [ [ [ [ [ [ [ [ [ [ [ [ [ [ [ [ [ [ [ [ [ [ [ [ [ [ [ [ [ [ [ [ [ [ [ [ [ [ [ [ [ [ [ [ [ [ [ [ [ [ [ [ [ [ [ [ [ [ [ [ [ [ [ [ [ [ [ [ [ [ [ [ [ [ [ [ [ [ [ [ [ [ [ [ [ [ [ [ [ [ [ [ [ [ [ [ [ [ [ [ [ [ [ [ [ [ [ [ [ [ [ [ [ [ [ [ [ [ [ [ [ [ [ [ [ [ [ [ ' ` ` ` ` ` ` ` Y Y Y Y Y Y Y Y Y Y Y Y Y Y Y Y Y Y Y Y Y Y Y Y Y Y Y Y Y Y Y Y Y Y Y Y Y Y Y Y Y Y Y Y Y Y Y Y Y Y Y Y Y Y Y Y Y Y Y Y Y Y Y Y ",
"[ [ [ [ [ [ [ [ [ [ [ [ [ [ [ [ [ [ [ [ [ [ [ [ [ [ [ [ [ [ [ [ [ [ [ [ [ [ [ [ [ [ [ [ [ [ [ [ [ [ [ [ [ [ [ [ [ [ [ [ [ [ [ [ [ [ [ [ [ [ [ [ [ [ [ [ [ [ [ [ [ [ [ [ [ [ [ [ [ [ [ [ [ [ [ [ [ [ [ [ } | | | | | | | | | | | | | | | | | | | | | | | | | | | | | | | | | | | | | | | | | | | | | | | | | | | | | | | | | | | | | | | | | | | | [ [ [ [ [ [ [ [ [ [ [ [ [ [ [ [ [ [ [ [ [ [ [ [ [ [ [ [ [ [ [ [ [ [ [ [ [ [ [ [ [ [ [ [ [ [ [ [ [ [ [ [ [ [ [ [ [ [ [ [ [ [ [ [ P n n F.N.a a a F.F.F.F.F.F.F.F.V.F.F.H.N.a a zXzXBXBXBXBXBXBXBXBXBXBXBXBXBXBXBXBXBXBXzXzXzXzXzXzXzXzX|.a V.dXfXfXfXfXfXfXfXfXfXfXfXkXlXzXzXzXzXzXzXzXzXzXzXzXzXzXzXzXzXzXzXzXzXzXzXzXzXzXzXzXzXzXzXzXzXlX_.a w.&X&X&X&X&X&X&X&X&X&X&X&X&X&X&X&X&X&X&X&X&X&X&X&X&X&X&X&X&X&X&X&X&X&X&X&X&X&X&X&X&X&X&X&X&X&X&X&X&X&X&X&X&X&X&X&X&X&X&X&X&X&X&X&X&X&X&X&X&X&X&X&X&X&X&X&X&X&X=X=X=X=X>X4X9X9X9X4X9X9X9X9X9X9X4X,X>X>X>X>X>X>X>X>X>X>X>X>X>X>X>X>X>X>X>X>X>X>X>X>Xa a 5.|.).H.H.H.H.H.H.H.H.a a a a a j F.F.F.F.F.F.F.n n Z U L L L L L L L L L L L L L L L L Y Y Y Y Y Y Y Y Y Y Y U n n n K Y Y Y ` [ [ [ [ [ [ [ [ [ [ [ [ [ [ [ [ [ [ [ [ [ [ [ [ [ [ [ [ [ [ [ [ [ [ [ [ [ [ [ [ [ [ [ [ [ [ [ [ [ [ [ [ [ [ [ [ [ [ [ [ [ [ [ [ [ [ [ [ [ [ [ [ [ [ [ [ [ [ [ [ [ [ [ [ [ [ [ [ [ [ [ [ [ [ [ [ [ [ [ [ [ [ [ [ [ [ [ [ [ [ [ [ [ [ [ [ [ [ [ [ [ [ [ [ [ [ [ [ [ [ [ [ [ [ [ [ [ [ [ [ [ [ [ [ [ [ [ [ [ [ [ [ [ [ [ [ [ [ [ [ [ [ [ [ [ [ [ [ [ [ [ [ [ [ [ [ [ [ [ [ [ ` ` ` ` ` ` ` ` Y Y Y Y Y Y Y Y Y Y Y Y Y Y Y Y Y Y Y Y Y Y Y Y Y Y Y Y Y Y Y Y Y Y Y Y Y Y Y Y Y Y Y Y Y Y Y Y Y Y Y Y Y Y Y Y Y Y Y Y Y Y Y Y Y Y Y Y ",
"[ [ [ [ ' ` ` ` ` ` ' [ [ [ [ [ [ [ [ [ [ [ [ [ [ [ [ [ [ [ [ [ [ [ [ [ [ [ [ [ [ [ [ [ [ [ [ [ [ [ [ [ [ [ [ [ [ [ [ [ [ [ [ [ [ [ [ [ [ [ [ [ [ [ [ [ [ [ [ [ [ [ [ [ [ [ [ [ [ [ [ [ [ [ [ [ [ [ [ [ } | | | | | | | | | | | | | | | | | | | | | | | | | | | | | | | | | | | | | | | | | | | | | | | | | | | | | | | | | | | | | | | | | | | | [ [ [ [ [ [ [ [ [ [ [ [ [ [ [ [ [ [ [ [ [ [ [ [ [ [ [ [ [ [ [ [ [ [ [ [ [ [ [ [ [ [ [ [ [ [ [ [ [ [ [ [ [ [ [ [ [ [ [ [ [ [ [ [ P n n F.N.a a a F.F.F.F.F.F.F.F.F.F.F.H.N.a a zXBXBXBXBXBXBXBXBXBXBXBXBXBXBXBXBXBXBXzXzXzXzXzXzXzXzXzXzXd a H.|.dXfXfXfXfXfXfXfXfXfXfXfXkXlXzXzXzXzXzXzXzXzXzXzXzXzXzXzXzXzXzXzXzXzXzXzXzXzXzXzXzXzXlXlXfXl a Y.&X&X&X&X&X&X&X&X&X&X&X&X&X&X&X&X&X&X&X&X&X&X&X&X&X&X&X&X&X&X&X&X&X&X&X&X&X&X&X&X&X&X&X&X&X&X&X&X&X&X&X&X&X&X&X&X&X&X&X&X&X&X&X&X&X&X&X&X&X&X&X&X&X&X&X&X&X&X&X&X&X&X,X4X4X4X4X9X9X9X9X9X9X4X2X>X>X>X>X>X>X>X>X>X>X>X>X>X>X>X>X>X>X>X>X>X>X>X>X>Xa a 5.|.).H.H.H.H.H.H.H.H.a a a a a j F.F.F.F.F.F.F.n n K Y L L L L L L L L L L L L L L L L L Y Y Y Y Y Y Y Y Y Y U n n n K Y Y Y ` [ [ [ [ [ [ [ [ [ [ [ [ [ [ [ [ [ [ [ [ [ [ [ [ [ [ [ [ [ [ [ [ [ [ [ [ [ [ [ [ [ [ [ [ [ [ [ [ [ [ [ [ [ [ [ [ [ [ [ [ [ [ [ [ [ [ [ [ [ [ [ [ [ [ [ [ [ [ [ [ [ [ [ [ [ [ [ [ [ [ [ [ [ [ [ [ [ [ [ [ [ [ [ [ [ [ [ [ [ [ [ [ [ [ [ [ [ [ [ [ [ [ [ [ [ [ [ [ [ [ [ [ [ [ [ [ [ [ [ [ [ [ [ [ [ [ [ [ [ [ [ [ [ [ [ [ [ [ [ [ [ [ [ [ [ [ [ [ [ [ [ [ [ [ [ [ ' ` ` ` ` ` ` ` Y Y Y Y Y Y Y Y Y Y Y Y Y Y Y Y Y Y Y Y Y Y Y Y Y Y Y Y Y Y Y Y Y Y Y Y Y Y Y Y Y Y Y Y Y Y Y Y Y Y Y Y Y Y Y Y Y Y Y Y Y Y Y Y Y Y Y Y Y Y Y Y Y ",
"` ` ` ` ` ` ` ` ` Y ` [ [ [ [ [ [ [ [ [ [ [ [ [ [ [ [ [ [ [ [ [ [ [ [ [ [ [ [ [ [ [ [ [ [ [ [ [ [ [ [ [ [ [ [ [ [ [ [ [ [ [ [ [ [ [ [ [ [ [ [ [ [ [ [ [ [ [ [ [ [ [ [ [ [ [ [ [ [ [ [ [ [ [ [ [ [ [ [ [ } | | | | | | | | | | | | | | | | | | | | | | | | | | | | | | | | | | | | | | | | | | | | | | | | | | | | | | | | | | | | | | | | | | | | [ [ [ [ [ [ [ [ [ [ [ [ [ [ [ [ [ [ [ [ [ [ [ [ [ [ [ [ [ [ [ [ [ [ [ [ [ [ [ [ [ [ [ [ [ [ [ [ [ [ [ [ [ [ [ [ [ [ [ [ [ [ [ [ P n n F.N.a a a F.F.F.F.F.F.F.F.F.F.F.H.N.a a BXBXBXBXBXBXBXBXBXBXBXBXBXBXBXBXBXBXBXzXzXzXzXzXzXzXzXzXzXV.a a k H.|.dXfXfXfXfXfXfXfXfXfXfXfXkXkXlXzXzXzXzXzXzXzXzXzXzXzXzXzXzXzXzXzXzXzXzXzXzXlXlXlXfXfX).a a U.E.&X&X&X&X&X&X&X&X&X&X&X&X&X&X&X&X&X&X&X&X&X&X&X&X&X&X&X&X&X&X&X&X&X&X&X&X&X&X&X&X&X&X&X&X&X&X&X&X&X&X&X&X&X&X&X&X&X&X&X&X&X&X&X&X&X&X&X&X&X&X&X&X&X&X&X&X&X&X&X&X&X<X<X2X2X4X4X4X4X4X9X9X4X,X>X>X>X>X>X>X>X>X>X>X>X>X>X>X>X>X>X>X>X>X>X>X>X>X>Xa a k |.H.H.H.H.H.H.H.H.V.a a a a a j F.F.F.F.F.F.F.n n K Y L L L L L L L L L L L L L L L L L L Y Y Y Y Y Y Y Y Y U n n n K Y Y Y ` [ [ [ [ [ [ [ [ [ [ [ [ [ [ [ [ [ [ [ [ [ [ [ [ [ [ [ [ [ [ [ [ [ [ [ [ [ [ [ [ [ [ [ [ [ [ [ [ [ [ [ [ [ [ [ [ [ [ [ [ [ [ [ [ [ [ [ [ [ [ [ [ [ [ [ [ [ [ [ [ [ [ [ [ [ [ [ [ [ [ [ [ [ [ [ [ [ [ [ [ [ [ [ [ [ [ [ [ [ [ [ [ [ [ [ [ [ [ [ [ [ [ [ [ [ [ [ [ [ [ [ [ [ [ [ [ [ [ [ [ [ [ [ [ [ [ [ [ [ [ [ [ [ [ [ [ [ [ [ [ [ [ [ [ [ [ [ [ [ [ [ ' ` ` ` ` ` ` ` Y Y Y Y Y Y Y Y Y Y Y Y Y Y Y Y Y Y Y Y Y Y Y Y Y Y Y Y Y Y Y Y Y Y Y Y Y Y Y Y Y Y Y Y Y Y Y Y Y Y Y Y Y Y Y Y Y Y Y Y Y Y Y Y Y Y Y Y Y Y Y Y Y Y Y Y Y Y ",
"` ` Y Y Y Y Y Y Y Y ` [ [ [ [ [ [ [ [ [ [ [ [ [ [ [ [ [ [ [ [ [ [ [ [ [ [ [ [ [ [ [ [ [ [ [ [ [ [ [ [ [ [ [ [ [ [ [ [ [ [ [ [ [ [ [ [ [ [ [ [ [ [ [ [ [ [ [ [ [ [ [ [ [ [ [ [ [ [ [ [ [ [ [ [ [ [ [ [ [ } | | | | | | | | | | | | | | | | | | | | | | | | | | | | | | | | | | | | | | | | | | | | | | | | | | | | | | | | | | | | | | | | | | | | [ [ [ [ [ [ [ [ [ [ [ [ [ [ [ [ [ [ [ [ [ [ [ [ [ [ [ [ [ [ [ [ [ [ [ [ [ [ [ [ [ [ [ [ ' ` [ [ [ [ [ [ [ [ [ [ [ [ [ [ [ [ [ [ P n n F.N.a a a F.F.F.F.F.F.F.F.F.F.H.H.N.a a BXBXBXBXBXBXBXBXBXBXBXBXBXBXBXBXBXBXzXzXzXzXzXzXzXzXzXzXzX_.a d j a k H.|.dXfXfXfXfXfXfXfXfXfXfXfXfXkXkXlXlXlXlXzXzXzXzXzXzXzXzXzXzXzXlXlXlXlXlXfXfXfXfX Xk d l a w.&X&X&X&X&X&X&X&X&X&X&X&X&X&X&X&X&X&X&X&X&X&X&X&X&X&X&X&X&X&X&X&X&X&X&X&X&X&X&X&X&X&X&X&X&X&X&X&X&X&X&X&X&X&X&X&X&X&X&X&X&X&X&X&X&X&X&X&X&X&X&X&X&X&X&X&X&X&X&X&X>X<X<X<X<X<X<X<X<X2X4X4X,X>X>X>X>X>X>X>X>X>X>X>X>X>X>X>X>X>X>X>X>X>X>X-X-X-X=Xa a l |.H.H.H.H.H.H.H.H.V.a a a a a k F.F.F.F.F.F.V.n n K L L L L L L L L L L L L L L L L L L L L Y Y Y Y Y Y Y Y U n n n K Y Y Y ` [ [ [ [ [ [ [ [ [ [ [ [ [ [ [ [ [ [ [ [ [ [ [ [ [ [ [ [ [ [ [ [ [ [ [ [ [ [ [ [ [ [ [ [ [ [ [ [ [ [ [ [ [ [ [ [ [ [ [ [ [ [ [ [ [ [ [ [ [ [ [ [ [ [ [ [ [ [ [ [ [ [ [ [ [ [ [ [ [ [ [ [ [ [ [ [ [ [ [ [ [ [ [ [ [ [ [ [ [ [ [ [ [ [ [ [ [ [ [ [ [ [ [ [ [ [ [ [ [ [ [ [ [ [ [ [ [ [ [ [ [ [ [ [ [ [ [ [ [ [ [ [ [ [ [ [ [ [ [ [ [ [ [ [ [ [ ' ` ` ` ` ` ` ` ` Y Y Y Y Y Y Y Y Y Y Y Y Y Y Y Y Y Y Y Y Y Y Y Y Y Y Y Y Y Y Y Y Y Y Y Y Y Y Y Y Y Y Y Y Y Y Y Y Y Y Y Y Y Y Y Y Y Y Y Y Y Y Y Y Y Y Y Y Y Y Y Y Y Y Y Y Y Y Y Y Y Y ",
"Y Y Y Y Y Y Y Y Y Y ` [ [ [ [ [ [ [ [ [ [ [ [ [ [ [ [ [ [ [ [ [ [ [ [ [ [ [ [ [ [ [ [ [ [ [ [ [ [ [ [ [ [ [ [ [ [ [ [ [ [ [ [ [ [ [ [ [ [ [ [ [ [ [ [ [ [ [ [ [ [ [ [ [ [ [ [ [ [ [ [ [ [ [ [ [ [ [ [ [ } | | | | | | | | | | | | | | | | | | | | | | | | | | | | | | | | | | | | | | | | | | | | | | | | | | | | | | | | | | | | | | | | | | | | [ [ [ [ [ [ [ [ [ [ [ [ [ [ [ [ [ [ [ [ [ [ [ [ [ [ [ [ [ [ [ [ [ [ [ [ [ ' ` ` ` ` ` ` ` ` [ [ [ [ [ [ [ [ [ [ [ [ [ [ [ [ [ [ P n n F.N.a a a F.F.F.F.F.F.F.F.F.F.H.H.N.a a BXBXBXBXBXBXBXBXBXBXBXBXBXBXBXBXBXzXzXzXzXzXzXzXzXzXzXzXzXdXa j H.l d a k H. XfXfXfXfXfXfXfXfXfXfXfXfXfXfXfXfXfXkXkXkXlXkXkXkXkXlXkXkXfXfXfXfXfXfXfXfX XV.a N.).a k &X&X&X&X&X&X&X&X&X&X&X&X&X&X&X&X&X&X&X&X&X&X&X&X&X&X&X&X&X&X&X&X&X&X&X&X&X&X&X&X&X&X&X&X&X&X&X&X&X&X&X&X&X&X&X&X&X&X&X&X&X&X&X&X&X&X&X&X&X&X&X&X&X&X&X&X&X&X&X=X<X<X<X<X<X<X<X<X<X<X<X,X&X=X=X=X=X>X>X>X>X>X>X>X>X>X>X-X-X=X=X=X=X=X=X&X&X&X&Xa a 5.|.H.H.H.H.H.H.H.H.V.a a a a a l F.F.F.F.F.F.o.n n K L L L L L L L L L L L L L L L L L L L L L L Y Y Y Y Y Y U n n n K Y Y ` ` [ [ [ [ [ [ [ [ [ [ [ [ [ [ [ [ [ [ [ [ [ [ [ [ [ [ [ [ [ [ [ [ [ [ [ [ [ [ [ [ [ [ [ [ [ [ [ [ [ [ [ [ [ [ [ [ [ [ [ [ [ [ [ [ [ [ [ [ [ [ [ [ [ [ [ [ [ [ [ [ [ [ [ [ [ [ [ [ [ [ [ [ [ [ [ [ [ [ [ [ [ [ [ [ [ [ [ [ [ [ [ [ [ [ [ [ [ [ [ [ [ [ [ [ [ [ [ [ [ [ [ [ [ [ [ [ [ [ [ [ [ [ [ [ [ [ [ [ [ [ [ [ [ [ [ [ [ [ [ [ [ ` ` ` ` ` ` ` ` Y Y Y Y Y Y Y Y Y Y Y Y Y Y Y Y Y Y Y Y Y Y Y Y Y Y Y Y Y Y Y Y Y Y Y Y Y Y Y Y Y Y Y Y Y Y Y Y Y Y Y Y Y Y Y Y Y Y Y Y Y Y Y Y Y Y Y Y Y Y Y Y Y Y Y Y Y Y Y Y Y Y Y Y Y Y Y Y ",
"Y Y Y Y Y Y Y Y Y Y ` [ [ [ [ [ [ [ [ [ [ [ [ [ [ [ [ [ [ [ [ [ [ [ [ [ [ [ [ [ [ [ [ [ [ [ [ [ [ [ [ [ [ [ [ [ [ [ [ [ [ [ [ [ [ [ [ [ [ [ [ [ [ [ [ [ [ [ [ [ [ [ [ [ [ [ [ [ [ [ [ [ [ [ [ [ [ [ [ [ } | | | | | | | | | | | | | | | | | | | | | | | | | | | | | | | | | | | | | | | | | | | | | | | | | | | | | | | | | | | | | | | | } } } } [ [ [ [ [ [ [ [ [ [ [ [ [ [ [ [ [ [ [ [ [ [ [ [ [ [ [ [ [ [ [ ' ` ` ` ` ` ` ` ` ` ` Y Y Y Y [ [ [ [ [ [ [ [ [ [ [ [ [ [ [ [ [ [ P n n F.N.a a a F.F.F.F.F.F.F.F.F.F.H.H.N.a a BXBXBXBXBXBXBXBXBXBXBXBXBXBXBXBXBXzXzXzXzXzXzXzXzXzXzXzXzXzXa a |.).V.l d a V._.|.dXfXfXfXfXfXfXfXfXfXfXfXfXfXfXfXfXfXfXfXfXfXfXfXfXfXfXfXfXfXfXfX X_.V.a j ).).a k &X&X&X&X&X&X&X&X&X&X&X&X&X&X&X&X&X&X&X&X&X&X&X&X&X&X&X&X&X&X&X&X&X&X&X&X&X&X&X&X&X&X&X&X&X&X&X&X&X&X&X&X&X&X&X&X&X&X&X&X&X&X&X&X&X&X&X&X&X&X&X&X&X&X&X&X&X&X&X,X<X<X<X<X<X<X<X<X<X<X<X&X&X&X&X&X&X=X=X-X-X=X=X=X=X=X=X&X&X&X&X&X&X&X&X&X&X&X&Xa a Z.|.H.H.H.H.H.H.H.H.V.a a a a a l F.F.F.F.F.F.o.n n K L L L L L L L L L L L L L L L L L L L L L L L Y Y Y Y Y U n n n K Y _ ` [ [ [ [ [ [ [ [ [ [ [ [ [ [ [ [ [ [ [ [ [ [ [ [ [ [ [ [ [ [ [ [ [ [ [ [ [ [ [ [ [ [ [ [ [ [ [ [ [ [ [ [ [ [ [ [ [ [ [ [ [ [ [ [ [ [ [ [ [ [ [ [ [ [ [ [ [ [ [ [ [ [ [ [ [ [ [ [ [ [ [ [ [ [ [ [ [ [ [ [ [ [ [ [ [ [ [ [ [ [ [ [ [ [ [ [ [ [ [ [ [ [ [ [ [ [ [ [ [ [ [ [ [ [ [ [ [ [ [ [ [ [ [ [ [ [ [ [ [ [ [ [ [ [ [ [ ' ` ` ` ` ` ` ` ` Y Y Y Y Y Y Y Y Y Y Y Y Y Y Y Y Y Y Y Y Y Y Y Y Y Y Y Y Y Y Y Y Y Y Y Y Y Y Y Y Y Y Y Y Y Y Y Y Y Y Y Y Y Y Y Y Y Y Y Y Y Y Y Y Y Y Y Y Y Y Y Y Y Y Y Y Y Y Y Y Y Y Y Y Y Y Y Y Y Y Y U U ",
"Y Y Y Y Y Y Y Y Y Y ` [ [ [ [ [ [ [ [ [ [ [ [ [ [ [ [ [ [ [ [ [ [ [ [ [ [ [ [ [ [ [ [ [ [ [ [ [ [ [ [ [ [ [ [ [ [ [ [ [ [ [ [ [ [ [ [ [ [ [ [ [ [ [ [ [ [ [ [ [ [ [ [ [ [ [ [ [ [ [ [ [ [ [ [ [ [ [ [ [ } | | | | | | | | | | | | | | | | | | | | | | | | | | | | | | | | | | | | | | | | | | | | | | | | | | | | | | | | | | | } } } } } [ [ [ [ [ [ [ [ [ [ [ [ [ [ [ [ [ [ [ [ [ [ [ [ [ [ [ [ ' ` ` ` ` ` ` ` ` ` ` Y Y Y Y Y Y Y Y Y Y Y [ [ [ [ [ [ [ [ [ [ [ [ [ [ [ [ [ [ P n n F.N.a a a F.F.F.F.F.F.F.F.F.H.H.H.l a a BXBXBXBXBXBXBXBXBXBXBXBXBXBXBXBXzXzXzXzXzXzXzXzXzXzXzXzXzXzXd a `.|.|.).V.l d a k H.|.dXfXfXfXfXfXfXfXfXfXfXfXfXfXfXfXfXfXfXfXfXfXfXfXfXfXfXfX X_.V.a d l H.|.).a k &X&X&X&X&X&X&X&X&X&X&X&X&X&X&X&X&X&X&X&X&X&X&X&X&X&X&X&X&X&X&X&X&X&X&X&X&X&X&X&X&X&X&X&X&X&X&X&X&X&X&X&X&X&X&X&X&X&X&X&X&X&X&X&X&X&X&X&X&X&X&X&X&X&X&X&X&X&X>X<X<X<X<X<X<X<X<X<X<X<X>X&X&X&X&X&X&X&X&X=X=X&X&X&X&X&X&X&X&X&X&X&X&X&X&X&X&X&X&Xa a Z.|.H.H.H.H.H.H.H.H.V.a a a a a l F.F.F.F.F.F.o.n n K L L L L L L L L L L L L L L L L L L L L L L L L L Y Y Y U n n n K _ ` [ [ [ [ [ [ [ [ [ [ [ [ [ [ [ [ [ [ [ [ [ [ [ [ [ [ [ [ [ [ [ [ [ [ [ [ [ [ [ [ [ [ [ [ [ [ [ [ [ [ [ [ [ [ [ [ [ [ [ [ [ [ [ [ [ [ [ [ [ [ [ [ [ [ [ [ [ [ [ [ [ [ [ [ [ [ [ [ [ [ [ [ [ [ [ [ [ [ [ [ [ [ [ [ [ [ [ [ [ [ [ [ [ [ [ [ [ [ [ [ [ [ [ [ [ [ [ [ [ [ [ [ [ [ [ [ [ [ [ [ [ [ [ [ [ [ [ [ [ [ [ [ ' ` ` ` ` ` ` ` ` Y Y Y Y Y Y Y Y Y Y Y Y Y Y Y Y Y Y Y Y Y Y Y Y Y Y Y Y Y Y Y Y Y Y Y Y Y Y Y Y Y Y Y Y Y Y Y Y Y Y Y Y Y Y Y Y Y Y Y Y Y Y Y Y Y Y Y Y Y Y Y Y Y Y Y Y Y Y Y Y Y Y Y Y Y Y Y Y Y Y U I I K Z Z M M ",
"Y Y Y Y Y Y Y Y Y Y ` [ [ [ [ [ [ [ [ [ [ [ [ [ [ [ [ [ [ [ [ [ [ [ [ [ [ [ [ [ [ [ [ [ [ [ [ [ [ [ [ [ [ [ [ [ [ [ [ [ [ [ [ [ [ [ [ [ [ [ [ [ [ [ [ [ [ [ [ [ [ [ [ [ [ [ [ [ [ [ [ [ [ [ [ [ [ [ [ [ } | | | | | | | | | | | | | | | | | | | | | | | | | | | | | | | | | | | | | | | | | | | | | | | | | | | | | } } } } } } [ [ [ [ [ [ [ [ [ [ [ [ [ [ [ [ [ [ [ [ [ [ [ [ [ [ ' ` ` ` ` ` ` ` ` ` ` ` Y Y Y Y Y Y Y Y Y Y Y Y Y Y Y Y Y [ [ [ [ [ [ [ [ [ [ [ [ [ [ [ [ [ [ P n n F.N.a a a F.F.F.F.F.F.F.F.F.H.H.H.j a a BXBXBXBXBXBXBXBXBXBXBXBXBXBXBXzXzXzXzXzXzXzXzXzXzXzXzXzXzXzXN.a ).|.|.|.|.).V.k d a k H._.|.dXdXfXfXfXfXfXfXfXfXfXfXfXfXfXfXfXfXfXfXfXdX X|._.V.a a j V.).|.|.).a k &X&X&X&X&X&X&X&X&X&X&X&X&X&X&X&X&X&X&X&X&X&X&X&X&X&X&X&X&X&X&X&X&X&X&X&X&X&X&X&X&X&X&X&X&X&X&X&X&X&X&X&X&X&X&X&X&X&X&X&X&X&X&X&X&X&X&X&X&X&X&X&X&X&X&X&X&X=X<X<X<X<X<X<X<X<X<X<X<X,X&X&X&X&X&X&X&X=X=X-X-X=X&X&X&X&X&X&X&X&X&X&X&X&X&X&X&X&X%Xa a Z.|.H.H.H.H.H.H.H.H.V.a a a a a l F.F.F.F.F.F.o.n n K L L L L L L L L L L L L L L L L L L L L L L L L L L L Y I n n n K ` [ [ [ [ [ [ [ [ [ [ [ [ [ [ [ [ [ [ [ [ [ [ [ [ [ [ [ [ [ [ [ [ [ [ [ [ [ [ [ [ [ [ [ [ [ [ [ [ [ [ [ [ [ [ [ [ [ [ [ [ [ [ [ [ [ [ [ [ [ [ [ [ [ [ [ [ [ [ [ [ [ [ [ [ [ [ [ [ [ [ [ [ [ [ [ [ [ [ [ [ [ [ [ [ [ [ [ [ [ [ [ [ [ [ [ [ [ [ [ [ [ [ [ [ [ [ [ [ [ [ [ [ [ [ [ [ [ [ [ [ [ [ [ [ [ [ [ [ ' ` ` ` ` ` ` ` ` Y Y Y Y Y Y Y Y Y Y Y Y Y Y Y Y Y Y Y Y Y Y Y Y Y Y Y Y Y Y Y Y Y Y Y Y Y Y Y Y Y Y Y Y Y Y Y Y Y Y Y Y Y Y Y Y Y Y Y Y Y Y Y Y Y Y Y Y Y Y Y Y Y Y Y Y Y Y Y Y Y Y Y Y Y Y Y Y U U I K K Z Z M n n n n n n V ",
"Y Y Y Y Y Y Y Y Y Y ` [ [ [ [ [ [ [ [ [ [ [ [ [ [ [ [ [ [ [ [ [ [ [ [ [ [ [ [ [ [ [ [ [ [ [ [ [ [ [ [ [ [ [ [ [ [ [ [ [ [ [ [ [ [ [ [ [ [ [ [ [ [ [ [ [ [ [ [ [ [ [ [ [ [ [ [ [ [ [ [ [ [ [ [ [ [ [ [ [ } | | | | | | | | | | | | | | | | | | | | | | | | | | | | | | | | | | | | | | | | | | | | | | | | } } } } } [ [ [ [ [ [ [ [ [ [ [ [ [ [ [ [ [ [ [ [ [ [ [ [ [ [ ' ` ` ` ` ` ` ` ` ` ` Y Y Y Y Y Y _ Y Y Y Y Y Y Y Y Y Y Y Y Y Y Y Y Y [ [ [ [ [ [ [ [ [ [ [ [ [ [ [ [ [ [ P n n F.N.a a a F.F.F.F.F.F.F.F.F.H.H.H.j a a BXBXBXBXBXBXBXBXBXBXBXBXBXBXzXzXzXzXzXzXzXzXzXzXzXzXzXzXzXzXN.a H.`.|.|.|.|.|.).V.l k d a k H.H._.|. XdXdXdXdXfXfXfXfXfXfXdXdX X X|._.H.V.k a j j l H.|.|.|.|.).a 5.&X&X&X&X&X&X&X&X&X&X&X&X&X&X&X&X&X&X&X&X&X&X&X&X&X&X&X&X&X&X&X&X&X&X&X&X&X&X&X&X&X&X&X&X&X&X&X&X&X&X&X&X&X&X&X&X&X&X&X&X&X&X&X&X&X&X&X&X&X&X&X&X&X&X&X&X&X,X<X<X<X<X2X2X2X2X2X2X2X>X=X=X=X-X-X>X>X>X>X>X>X>X>X-X-X=X&X&X&X&X&X&X&X&X&X&X&X&XY.a a Z.`.H.H.H.H.H.H.H.H.V.a a a a a l F.F.F.F.F.F.o.n n K L L L L L L L L L L L L L L L L L L L L L L L L L L L L K n n n K ` ' [ [ [ [ [ [ [ [ [ [ [ [ [ [ [ [ [ [ [ [ [ [ [ [ [ [ [ [ [ [ [ [ [ [ [ [ [ [ [ [ [ [ [ [ [ [ [ [ [ [ [ [ [ [ [ [ [ [ [ [ [ [ [ [ [ [ [ [ [ [ [ [ [ [ [ [ [ [ [ [ [ [ [ [ [ [ [ [ [ [ [ [ [ [ [ [ [ [ [ [ [ [ [ [ [ [ [ [ [ [ [ [ [ [ [ [ [ [ [ [ [ [ [ [ [ [ [ [ [ [ [ [ [ [ [ [ [ [ [ [ [ [ ' ` ` ` ` ` ` ` ` Y Y Y Y Y Y Y Y Y Y Y Y Y Y Y Y Y Y Y Y Y Y Y Y Y Y Y Y Y Y Y Y Y Y Y Y Y Y Y Y Y Y Y Y Y Y Y Y Y Y Y Y Y Y Y Y Y Y Y Y Y Y Y Y Y Y Y Y Y Y Y Y Y Y Y Y Y Y Y Y Y Y Y Y Y Y Y U I I K Z Z M M n n n n n n V A A D Q Q X.",
"Y Y Y Y Y Y Y Y Y Y ` [ [ [ [ [ [ [ [ [ [ [ [ [ [ [ [ [ [ [ [ [ [ [ [ [ [ [ [ [ [ [ [ [ [ [ [ [ [ [ [ [ [ [ [ [ [ [ [ [ [ [ [ [ [ [ [ [ [ [ [ [ [ [ [ [ [ [ [ [ [ [ [ [ [ [ [ [ [ [ [ [ [ [ [ [ [ [ [ [ } | | | | | | | | | | | | | | | | | | | | | | | | | | | | | | | | | | | | | | | | | | | } } } } } [ [ [ [ [ [ [ [ [ [ [ [ [ [ [ [ [ [ [ [ [ [ [ [ ' ` ` ` ` ` ` ` ` ` ` Y Y Y Y Y Y Y Y Y Y Y Y Y Y Y Y Y Y Y Y Y Y Y Y Y Y Y Y Y Y Y [ [ [ [ [ [ [ [ [ [ [ [ [ [ [ [ [ [ P n n F.N.a a a F.F.F.F.F.F.F.F.H.H.H.H.j a a BXBXBXBXBXBXBXBXBXBXBXBXBXBXzXzXzXzXzXzXzXzXzXzXzXzXzXzXzXzXN.a j V.).`.|.|.|.|.|.|.).V.l k d d a l V.H.H.H.H.`.`.`.`.`.`.H.H.V.V.k a d j j l H.H.|.|.|.|.|.).V.a 5.=X=X&X&X&X&X&X&X&X&X&X&X&X&X&X&X&X&X&X&X&X&X&X&X&X&X&X&X&X&X&X&X&X&X&X&X&X&X&X&X&X&X&X&X&X&X&X&X&X&X&X&X&X&X&X&X&X&X&X&X&X&X&X&X&X&X&X&X&X&X&X&X&X&X&X&X>X2X2X2X2X2X4X4X4X4X9X9X2X>X>X>X>X>X>X>X>X>X>X>X>X>X>X>X>X>X>X-X-X=X&X&X&X&X&X&X&X&XY.a a Z.`.H.H.H.H.H.H.H.H.V.a a a a a l F.F.F.F.F.F.o.n n K L L L L L L L L L L L L L L L L L L L L L L L L L L L L K n n n K ` ` ` [ [ [ [ [ [ [ [ [ [ [ [ [ [ [ [ [ [ [ [ [ [ [ [ [ [ [ [ [ [ [ [ [ [ [ [ [ [ [ [ [ [ [ [ [ [ [ [ [ [ [ [ [ [ [ [ [ [ [ [ [ [ [ [ [ [ [ [ [ [ [ [ [ [ [ [ [ [ [ [ [ [ [ [ [ [ [ [ [ [ [ [ [ [ [ [ [ [ [ [ [ [ [ [ [ [ [ [ [ [ [ [ [ [ [ [ [ [ [ [ [ [ [ [ [ [ [ [ [ [ [ [ [ [ [ [ ` ` ` ` ` ` ` ` Y Y Y Y Y Y Y Y Y Y Y Y Y Y Y Y Y Y Y Y Y Y Y Y Y Y Y Y Y Y Y Y Y Y Y Y Y Y Y Y Y Y Y Y Y Y Y Y Y Y Y Y Y Y Y Y Y Y Y Y Y Y Y Y Y Y Y Y Y Y Y Y Y Y Y Y Y Y Y Y Y Y Y Y Y Y U I I K Z Z Z M n n n n n n n V S S D Q Q X.y.y.W.].].].",
"Y Y Y Y Y Y Y Y Y Y ` [ [ [ [ [ [ [ [ [ [ [ [ [ [ [ [ [ [ [ [ [ [ [ [ [ [ [ [ [ [ [ [ [ [ [ [ [ [ [ [ [ [ [ [ [ [ [ [ [ [ [ [ [ [ [ [ [ [ [ [ [ [ [ [ [ [ [ [ [ [ [ [ [ [ [ [ [ [ [ [ [ [ [ [ [ [ [ [ [ } | | | | | | | | | | | | | | | | | | | | | | | | | | | | | | | | | | | | | } } } } } } [ [ [ [ [ [ [ [ [ [ [ [ [ [ [ [ [ [ [ [ [ [ ' ' ` ` ` ` ` ` ` ` ` ` Y Y Y Y Y Y Y Y Y Y Y Y Y Y Y Y Y Y Y Y Y Y Y Y Y Y Y Y Y Y Y Y Y Y Y Y Y [ [ [ [ [ [ [ [ [ [ [ [ [ [ [ [ [ [ P n n F.N.a a a F.F.F.F.F.F.F.F.H.H.H.H.j a a BXBXBXBXBXBXBXBXBXBXBXBXBXzXzXzXzXzXzXzXzXzXzXzXzXzXzXzXzXzXN.a d a j V.).`.|.|.|.|.|.|.|.).V.V.k k j d d d d a a a a a a d d j j k l V.H.H.|.|.|.|.|.|.).H.N.a j A.>X>X>X-X=X&X&X&X&X&X&X&X&X&X&X&X&X&X&X&X&X&X&X&X&X&X&X&X&X&X&X&X&X&X&X&X&X&X&X&X&X&X&X&X&X&X&X&X&X&X&X&X&X&X&X&X&X&X&X&X&X&X&X&X&X&X&X&X&X&X&X&X=X=X=X>X2X4X9X9X4X4X9X9X9X9X9X4X,X>X>X>X>X>X>X>X>X>X>X>X>X>X>X>X>X>X>X>X>X>X>X-X-X=X&X&X&X&XY.a a V.`.H.F.F.F.F.H.H.H.V.a a a a a l F.F.F.F.F.F.o.n n K L L L L L L L L L L L L L L L L L L L L L L L L L L L L K n n n K Y Y ` ` ' [ [ [ [ [ [ [ [ [ [ [ [ [ [ [ [ [ [ [ [ [ [ [ [ [ [ [ [ [ [ [ [ [ [ [ [ [ [ [ [ [ [ [ [ [ [ [ [ [ [ [ [ [ [ [ [ [ [ [ [ [ [ [ [ [ [ [ [ [ [ [ [ [ [ [ [ [ [ [ [ [ [ [ [ [ [ [ [ [ [ [ [ [ [ [ [ [ [ [ [ [ [ [ [ [ [ [ [ [ [ [ [ [ [ [ [ [ [ [ [ [ [ [ [ [ [ [ [ ' ` ` ` ` ` ` ` ` Y Y Y Y Y Y Y Y Y Y Y Y Y Y Y Y Y Y Y Y Y Y Y Y Y Y Y Y Y Y Y Y Y Y Y Y Y Y Y Y Y Y Y Y Y Y Y Y Y Y Y Y Y Y Y Y Y Y Y Y Y Y Y Y Y Y Y Y Y Y Y Y Y Y Y Y Y Y Y Y Y Y Y Y Y U I I K Z Z M n n n n n n n n V S S D Q Q X.y.y.W.].].].].].].].].].",
"Y Y Y Y Y Y Y Y Y Y ` [ [ [ [ [ [ [ [ [ [ [ [ [ [ [ [ [ [ [ [ [ [ [ [ [ [ [ [ [ [ [ [ [ [ [ [ [ [ [ [ [ [ [ [ [ [ [ [ [ [ [ [ [ [ [ [ [ [ [ [ [ [ [ [ [ [ [ [ [ [ [ [ [ [ [ [ [ [ [ [ [ [ [ [ [ [ [ [ [ } | | | | | | | | | | | | | | | | | | | | | | | | | | | | | | | | } } } } } [ [ [ [ [ [ [ [ [ [ [ [ [ [ [ [ [ [ [ [ [ [ ' ` ` ` ` ` ` ` ` ` ` Y Y Y Y Y Y Y Y Y Y Y Y Y Y Y Y Y Y Y Y Y Y Y Y Y Y Y Y Y Y Y Y Y Y Y Y Y Y Y Y Y Y Y Y [ [ [ [ [ [ [ [ [ [ [ [ [ [ [ [ [ [ P n n F.N.a a a F.F.F.F.F.F.F.F.H.H.H.H.j a a BXBXBXBXBXBXBXBXBXBXBXBXzXzXzXzXzXzXzXzXzXzXzXzXzXzXzXzXzXzXl a Z.5.j a j V.).).`.|.|.|.|.|.|.|.).).H.V.V.V.V.l l l l l l V.V.H.H.).|.|.|.|.|.|.|.`.).H.N.a j 5.R.>X>X>X>X>X>X>X-X=X=X&X&X&X&X&X&X&X&X&X&X&X&X&X&X&X&X&X&X&X&X&X&X&X&X&X&X&X&X&X&X&X&X&X&X&X&X&X&X&X&X&X&X&X&X&X&X&X&X&X&X&X&X&X&X&X=X=X=X=X=X-X>X>X>X>X>X2X9X9X9X9X9X9X9X9X9X9X9X,X>X>X>X>X>X>X>X>X>X>X>X>X>X>X>X>X>X>X>X>X>X>X>X>X>X>X>X-X-X=XE.a a V.`.F.F.F.F.F.F.F.H.V.a a a a a l F.F.F.F.F.F.o.n n K L L L L L L L L L L L L L L L L L L L L L L L L L L L L K n n n K Y Y Y ` ` ` [ [ [ [ [ [ [ [ [ [ [ [ [ [ [ [ [ [ [ [ [ [ [ [ [ [ [ [ [ [ [ [ [ [ [ [ [ [ [ [ [ [ [ [ [ [ [ [ [ [ [ [ [ [ [ [ [ [ [ [ [ [ [ [ [ [ [ [ [ [ [ [ [ [ [ [ [ [ [ [ [ [ [ [ [ [ [ [ [ [ [ [ [ [ [ [ [ [ [ [ [ [ [ [ [ [ [ [ [ [ [ [ [ [ [ [ [ [ [ [ [ ' ` ` ` ` ` ` ` ` ` Y Y Y Y Y Y Y Y Y Y Y Y Y Y Y Y Y Y Y Y Y Y Y Y Y Y Y Y Y Y Y Y Y Y Y Y Y Y Y Y Y Y Y Y Y Y Y Y Y Y Y Y Y Y Y Y Y Y Y Y Y Y Y Y Y Y Y Y Y Y Y Y Y Y Y Y Y Y Y Y Y Y Y U I I K Z Z Z M n n n n n n n n V S A D Q Q X.y.y.W.].].].].].].].].].].].].].].].",
"Y Y Y Y Y Y Y Y Y Y ` [ [ [ [ [ [ [ [ [ [ [ [ [ [ [ [ [ [ [ [ [ [ [ [ [ [ [ [ [ [ [ [ [ [ [ [ [ [ [ [ [ [ [ [ [ [ [ [ [ [ [ [ [ [ [ [ [ [ [ [ [ [ [ [ [ [ [ [ [ [ [ [ [ [ [ [ [ [ [ [ [ [ [ [ [ [ [ [ [ } | | | | | | | | | | | | | | | | | | | | | | | | | | | } } } } } [ [ [ [ [ [ [ [ [ [ [ [ [ [ [ [ [ [ [ [ ' ' ' ' ` ` ` ` ` ` ` ` Y Y Y Y Y Y Y Y Y Y Y Y Y Y Y Y Y Y Y Y Y Y Y Y Y Y Y Y Y Y Y Y Y Y Y Y Y Y Y Y Y Y Y Y Y Y Y Y Y Y [ [ [ [ [ [ [ [ [ [ [ [ [ [ [ [ [ [ P n n F.N.a a a F.F.F.F.F.F.F.F.H.H.H.H.j a a BXBXBXBXBXBXBXBXBXBXBXBXzXzXzXzXzXzXzXzXzXzXzXzXzXzXzXzXzXkXa d &X&XU.5.k d j N.V.).).`.|.|.|.|.|.|.|.|.|.|.|.|.|.|.|.|.|.|.|.|.|.|.|.|.|.|.`.).).V.N.a j 5.R.>X>X>X>X>X>X>X>X>X>X>X>X>X-X=X&X&X&X&X&X&X&X&X&X&X&X&X&X&X&X&X&X&X&X&X&X&X&X&X&X&X&X&X&X&X&X&X&X&X&X&X&X&X&X&X&X&X&X&X=X=X=X=X-X-X>X>X>X>X>X>X>X>X>X>X>X>X,X9X9X9X9X9X9X4X9X9X9X9X2X>X>X>X>X>X>X>X>X>X>X>X>X>X>X>X>X>X>X>X>X>X>X>X>X>X>X>X>X>X>X>XE.a a V.`.F.F.F.F.F.F.F.F.V.a a a a a l F.F.F.F.F.F.o.n n K L L L L L L L L L L L L L L L L L L L L L L L L L L L L K n n n K Y Y Y Y Y ` ` ' [ [ [ [ [ [ [ [ [ [ [ [ [ [ [ [ [ [ [ [ [ [ [ [ [ [ [ [ [ [ [ [ [ [ [ [ [ [ [ [ [ [ [ [ [ [ [ [ [ [ [ [ [ [ [ [ [ [ [ [ [ [ [ [ [ [ [ [ [ [ [ [ [ [ [ [ [ [ [ [ [ [ [ [ [ [ [ [ [ [ [ [ [ [ [ [ [ [ [ [ [ [ [ [ [ [ [ [ [ [ [ [ [ ' ' ' ` ` ` ` ` ` ` Y Y Y Y Y Y Y Y Y Y Y Y Y Y Y Y Y Y Y Y Y Y Y Y Y Y Y Y Y Y Y Y Y Y Y Y Y Y Y Y Y Y Y Y Y Y Y Y Y Y Y Y Y Y Y Y Y Y Y Y Y Y Y Y Y Y Y Y Y Y Y Y Y Y Y Y Y Y Y Y Y Y Y U I I K Z Z M n n n n n n n n n V A A D Q Q X.y.y.W.].].].].].].].].].].].].].].].].].].].].].",
"Y Y Y Y Y Y Y Y Y Y ` [ [ [ [ [ [ [ [ [ [ [ [ [ [ [ [ [ [ [ [ [ [ [ [ [ [ [ [ [ [ [ [ [ [ [ [ [ [ [ [ [ [ [ [ [ [ [ [ [ [ [ [ [ [ [ [ [ [ [ [ [ [ [ [ [ [ [ [ [ [ [ [ [ [ [ [ [ [ [ [ [ [ [ [ [ [ [ [ [ } | | | | | | | | | | | | | | | | | | | | | | } } } } } [ [ [ [ [ [ [ [ [ [ [ [ [ [ [ [ [ [ [ ' ' ' ` ` ` ` ` ` ` ` Y Y Y Y Y Y Y Y Y Y Y Y Y Y Y Y Y Y Y Y Y Y Y Y Y Y Y Y Y Y Y Y Y Y Y Y Y Y Y Y Y Y Y Y Y Y Y Y Y Y Y Y Y Y Y Y Y [ [ [ [ [ [ [ [ [ [ [ [ [ [ [ [ [ [ P n n F.N.a a a F.F.F.F.F.F.F.H.H.H.H.H.j a a BXBXBXBXBXBXBXBXBXBXBXzXzXzXzXzXzXzXzXzXzXzXzXzXzXzXzXzXzX Xa k &X&X&X&XY.Z.k d a j N.V.H.).).`.`.|.|.|.|.|.|.|.|.|.|.|.|.|.|.|.|.|.`.).).H.V.N.j j j 5.R.>X>X>X>X>X>X>X>X>X>X>X>X>X>X>X>X>X>X-X=X=X&X&X&X&X&X&X&X&X&X&X&X&X&X&X&X&X&X&X&X&X&X&X&X&X&X&X&X&X&X&X&X&X=X=X=X=X-X-X>X>X>X>X>X>X>X>X>X>X>X>X>X>X>X>X>X>X>X>X4X4X4X4X9X9X9X9X9X9X9X4X,X>X>X>X>X>X>X>X>X>X>X>X>X>X>X>X>X>X>X>X>X>X>X>X>X>X>X>X>X>X>X>XE.a a V._.V.F.F.F.F.F.F.F.N.a a a a a l F.F.F.F.F.F.o.n n K L L L L L L L L L L L L L L L L L L L L L L L L L L L L K n n n K Y Y Y Y Y Y ` ` ' [ [ [ [ [ [ [ [ [ [ [ [ [ [ [ [ [ [ [ [ [ [ [ [ [ [ [ [ [ [ [ [ [ [ [ [ [ [ [ [ [ [ [ [ [ [ [ [ [ [ [ [ [ [ [ [ [ [ [ [ [ [ [ [ [ [ [ [ [ [ [ [ [ [ [ [ [ [ [ [ [ [ [ [ [ [ [ [ [ [ [ [ [ [ [ [ [ [ [ [ [ [ [ [ [ ' ' ' ' ` ` ` ` ` ` ` Y Y Y Y Y Y Y Y Y Y Y Y Y Y Y Y Y Y Y Y Y Y Y Y Y Y Y Y Y Y Y Y Y Y Y Y Y Y Y Y Y Y Y Y Y Y Y Y Y Y Y Y Y Y Y Y Y Y Y Y Y Y Y Y Y Y Y Y Y Y Y Y Y Y Y Y Y Y Y Y Y Y U I L K Z Z Z M n n n n n n n n V A A A D Q Q X.y.y.W.].].].].].].].].].].].].].].].].].].].].].].].].].].].",
"Y Y Y Y Y Y Y Y Y Y ` [ [ [ [ [ [ [ [ [ [ [ [ [ [ [ [ [ [ [ [ [ [ [ [ [ [ [ [ [ [ [ [ [ [ [ [ [ [ [ [ [ [ [ [ [ [ [ [ [ [ [ [ [ [ [ [ [ [ [ [ [ [ [ [ [ [ [ [ [ [ [ [ [ [ [ [ [ [ [ [ [ [ [ [ [ [ [ [ [ } | | | | | | | | | | | | | | | | } } } } } } [ [ [ [ [ [ [ [ [ [ [ [ [ [ [ [ [ [ [ [ [ [ ' ` ` ` ` ` Y Y Y Y Y Y Y Y Y Y Y Y Y Y Y Y Y Y Y Y Y Y Y Y Y Y Y Y Y Y Y Y Y Y Y Y Y Y Y Y Y Y Y Y Y Y Y Y Y Y Y Y Y Y Y Y Y Y Y Y Y Y Y Y [ [ [ [ [ [ [ [ [ [ [ [ [ [ [ [ [ [ P n n F.N.a a a F.F.F.F.F.F.F.H.H.H.H.H.j a a BXBXBXBXBXBXBXBXBXBXzXzXzXzXzXzXzXzXzXzXzXzXzXzXzXzXzXzXzX_.a w.&X&X&X&X&X&XY.Z.5.k d d a j N.V.V.H.H.).)._._._._._._._._._._.).H.H.V.N.N.a j j 5.U.U.>X>X>X>X>X>X>X>X>X>X>X>X>X>X>X>X>X>X>X>X>X>X>X>X=X&X&X&X&X&X&X&X&X&X&X&X&X&X&X&X&X&X&X&X&X&X&X=X=X=X=X-X-X>X>X>X>X>X>X>X>X>X>X>X>X>X>X>X>X>X>X>X>X>X>X>X>X>X>X>X,X9X9X4X4X9X9X9X9X9X9X9X2X>X>X>X>X>X>X>X>X>X>X>X>X>X>X>X>X>X>X>X>X>X>X>X>X>X>X>X>X>X>X>X>XE.a a V.).F.F.F.F.F.F.F.F.N.a a a a a l F.F.F.F.F.F.o.n n K L L L L L L L L L L L L L L L L L L L L L L L L L L L L K n n n K Y Y Y Y Y Y Y Y ` ` ' [ [ [ [ [ [ [ [ [ [ [ [ [ [ [ [ [ [ [ [ [ [ [ [ [ [ [ [ [ [ [ [ [ [ [ [ [ [ [ [ [ [ [ [ [ [ [ [ [ [ [ [ [ [ [ [ [ [ [ [ [ [ [ [ [ [ [ [ [ [ [ [ [ [ [ [ [ [ [ [ [ [ [ [ [ [ [ [ [ [ [ [ [ [ [ [ [ ' ' ' ` ` ` ` ` ` ` ` Y Y Y Y Y Y Y Y Y Y Y Y Y Y Y Y Y Y Y Y Y Y Y Y Y Y Y Y Y Y Y Y Y Y Y Y Y Y Y Y Y Y Y Y Y Y Y Y Y Y Y Y Y Y Y Y Y Y Y Y Y Y Y Y Y Y Y Y Y Y Y Y Y Y Y Y Y Y Y Y Y Y U I I K Z Z M n n n n n n n n n V A A A D Q X.y.y.y.W.].].].].].].].].].].].].].].].].].].].].].].].].].].].].].].].].].",
"Y Y Y Y Y Y Y Y Y Y ` [ [ [ [ [ [ [ [ [ [ [ [ [ [ [ [ [ [ [ [ [ [ [ [ [ [ [ [ [ [ [ [ [ [ [ [ [ [ [ [ [ [ [ [ [ [ [ [ [ [ [ [ [ [ [ [ [ [ [ [ [ [ [ [ [ [ [ [ [ [ [ [ [ [ [ [ [ [ [ [ [ [ [ [ [ [ [ [ [ } | | | | | | | | | | | } } } } } [ [ [ [ [ [ [ [ [ [ [ [ [ [ [ [ [ [ [ [ [ [ [ [ [ [ [ [ ` Y Y Y Y Y Y Y Y Y Y Y Y Y Y Y Y Y Y Y Y Y Y Y Y Y Y Y Y Y Y Y Y Y Y Y Y Y Y Y Y Y Y Y Y Y Y Y Y Y Y Y Y Y Y Y Y Y Y Y Y Y Y Y Y Y Y Y Y Y [ [ [ [ [ [ [ [ [ [ [ [ [ [ [ [ [ [ P n n F.N.a a a F.F.F.F.F.F.F.H.H.H.H.H.j a a BXBXBXBXBXBXBXBXBXBXzXzXzXzXzXzXzXzXzXzXzXzXzXzXzXzXzXzXzXl a Y.&X&X&X&X&X&X&X&X&XY.Z.Z.5.k j d d a a j j N.N.N.N.N.N.N.N.N.N.j a d j j k 5.U.R.>X>X>X>X>X>X>X>X>X>X>X>X>X>X>X>X>X>X>X-X-X=X=X=X=X=X=X&X&X&X&X&X&X&X&X&X&X&X&X&X&X&X=X=X=X=X-X>X>X>X>X>X>X>X>X>X>X>X>X>X>X>X>X>X>X>X>X>X>X>X>X>X>X>X>X>X>X>X>X>X>X>X>X4X9X9X9X9X9X9X9X9X9X9X4X,X>X>X>X>X>X>X>X>X>X>X>X>X>X>X>X>X>X>X>X>X>X>X>X>X>X>X>X>X>X>X>X>XE.a a F.).F.F.F.F.F.F.F.F.N.a a a a a l F.F.F.F.F.F.o.n n K L L L L L L L L L L L L L L L L L L L L L L L L L L L L K n n n K Y Y Y Y Y Y Y Y Y ` ` ` ' [ [ [ [ [ [ [ [ [ [ [ [ [ [ [ [ [ [ [ [ [ [ [ [ [ [ [ [ [ [ [ [ [ [ [ [ [ [ [ [ [ [ [ [ [ [ [ [ [ [ [ [ [ [ [ [ [ [ [ [ [ [ [ [ [ [ [ [ [ [ [ [ [ [ [ [ [ [ [ [ [ [ [ [ [ [ [ ' ' ' ' ` ` ` ` ` ` ` ` Y Y Y Y Y Y Y Y Y Y Y Y Y Y Y Y Y Y Y Y Y Y Y Y Y Y Y Y Y Y Y Y Y Y Y Y Y Y Y Y Y Y Y Y Y Y Y Y Y Y Y Y Y Y Y Y Y Y Y Y Y Y Y Y Y Y Y Y Y Y Y Y Y Y Y Y Y Y Y Y Y Y U I I K Z Z Z M n n n n n n n n n V A A A D Q X.y.y.y.W.].].].].].].].].].].].].].].].].].].].].].].].].].].].].].].].].].].].].].].].",
"Y Y Y Y Y Y Y Y Y Y ` [ [ [ [ [ [ [ [ [ [ [ [ [ [ [ [ [ [ [ [ [ [ [ [ [ [ [ [ [ [ [ [ [ [ [ [ [ [ [ [ [ [ [ [ [ [ [ [ [ [ [ [ [ [ [ [ [ [ [ [ [ [ [ [ [ [ [ [ [ [ [ [ [ [ [ [ [ [ [ [ [ [ [ [ [ [ [ [ [ } | | | | | | } } } } } [ [ [ [ [ [ [ [ [ [ [ [ [ [ [ [ [ [ [ [ [ [ [ [ [ [ [ [ [ [ [ [ [ ` Y Y Y Y Y Y Y Y Y Y Y Y Y Y Y Y Y Y Y Y Y Y Y Y Y Y Y Y Y Y Y Y Y Y Y Y Y Y Y Y Y Y Y Y Y Y Y Y Y Y Y Y Y Y Y Y Y Y Y Y Y Y Y Y Y Y Y Y Y [ [ [ [ [ [ [ [ [ [ [ [ [ [ [ [ [ [ P n n F.N.a a a F.F.F.F.F.F.H.H.H.H.H.H.j a a BXBXBXBXBXBXBXBXBXzXzXzXzXzXzXzXzXzXzXzXzXzXzXzXzXzXzXlXkXa d Y.&X&X&X&X&X&X&X&X&X&X&X&X&XY.U.r.r.5.k k k k j j j j j j j k k 5.5.Z.U.U.^.>X>X>X>X>X>X>X>X>X>X>X>X>X-X-X-X=X=X=X=X=X=X&X&X&X&X&X&X&X&X&X&X&X&X&X&X&X&X&X&X&X&X&X&X&X=X=X=X=X>X>X>X>X>X>X>X>X>X>X>X>X>X>X>X>X>X>X>X>X>X>X>X>X>X>X>X>X>X>X>X>X>X>X>X>X2X9X9X9X9X9X9X9X9X9X9X4X,X>X>X>X>X>X>X>X>X>X>X>X>X>X>X>X>X>X>X>X>X>X>X>X>X>X>X>X>X>X>X>X>X-XE.a a ).).F.F.F.F.F.F.F.F.N.a a a a a N.F.F.F.F.F.F.o.n n K L L L L L L L L L L L L L L L L L L L L L L L L L L L L K n n n I Y Y Y Y Y Y Y Y Y Y Y ` ` ` ' ' [ [ [ [ [ [ [ [ [ [ [ [ [ [ [ [ [ [ [ [ [ [ [ [ [ [ [ [ [ [ [ [ [ [ [ [ [ [ [ [ [ [ [ [ [ [ [ [ [ [ [ [ [ [ [ [ [ [ [ [ [ [ [ [ [ [ [ [ [ [ [ [ [ [ [ [ [ ' ' ' ' ` ` ` ` ` ` ` ` ` Y Y Y Y Y Y Y Y Y Y Y Y Y Y Y Y Y Y Y Y Y Y Y Y Y Y Y Y Y Y Y Y Y Y Y Y Y Y Y Y Y Y Y Y Y Y Y Y Y Y Y Y Y Y Y Y Y Y Y Y Y Y Y Y Y Y Y Y Y Y Y Y Y Y Y Y Y Y Y Y Y Y U I I K Z Z M n n n n n n n n n n V A A D Q Q X.y.y.y.W.].].].].].].].].].].].].].].].].].].].].].].].].].].].].].].].].].].].].].].].].].{.{.{.{.",
"Y Y Y Y Y Y Y Y Y Y ` [ [ [ [ [ [ [ [ [ [ [ [ [ [ [ [ [ [ [ [ [ [ [ [ [ [ [ [ [ [ [ [ [ [ [ [ [ [ [ [ [ [ [ [ [ [ [ [ [ [ [ [ [ [ [ [ [ [ [ [ [ [ [ [ [ [ [ [ [ [ [ [ [ [ [ [ [ [ [ [ [ [ [ [ [ [ [ [ [ } } } } } } } [ [ [ [ [ [ [ [ [ [ [ [ [ [ [ [ [ [ [ [ [ [ [ [ [ [ [ [ [ [ [ [ [ [ [ [ [ [ ` Y Y Y Y Y Y Y Y Y Y Y Y Y Y Y Y Y Y Y Y Y Y Y Y Y Y Y Y Y Y Y Y Y Y Y Y Y Y Y Y Y Y Y Y Y Y Y Y Y Y Y Y Y Y Y Y Y Y Y Y Y Y Y Y Y Y Y Y Y [ [ [ [ [ [ [ [ [ [ [ [ [ [ [ [ [ [ P n n F.N.a a a F.F.F.F.F.F.H.H.H.H.H.H.j a a BXBXBXBXBXBXBXBXzXzXzXzXzXzXzXzXzXzXzXzXzXzXzXzXzXlXlXkX_.a 5.%X&X&X&X&X&X&X&X&X&X&X&X&X&X&X&X&X&X&XY.Y.E.E.U.U.U.R.R.U.U.^.^.>X>X>X>X>X>X>X>X>X>X>X-X-X-X=X=X=X=X=X&X&X&X&X&X&X&X&X&X&X&X&X&X&X&X&X&X&X&X&X&X&X&X&X&X&X&X&X&X&X&X&X&X&X&X&X=X=X=X>X>X>X>X>X>X>X>X>X>X>X>X>X>X>X>X>X>X>X>X>X>X>X>X>X>X>X>X>X>X>X>X,X9X9X9X9X9X9X4X4X9X9X9X2X>X>X>X>X>X>X>X>X>X>X>X>X>X>X>X>X>X>X>X>X>X>X>X>X>X-X-X-X=X=X=X=X=X&XE.a a ).).H.F.F.F.F.F.F.F.l a a a a a N.F.F.F.F.F.F.o.n n K L L L L L L L L L L L L L L L L L L L L L L L L L L L L K n n n K Y Y Y Y Y Y Y Y Y Y Y Y Y ` ` ` ` ` ' ' [ [ [ [ [ [ [ [ [ [ [ [ [ [ [ [ [ [ [ [ [ [ [ [ [ [ [ [ [ [ [ [ [ [ [ [ [ [ [ [ [ [ [ [ [ [ [ [ [ [ [ [ [ [ [ [ [ [ [ [ [ [ [ [ ' ' ' ' ' ` ` ` ` ` ` ` ` ` Y Y Y Y Y Y Y Y Y Y Y Y Y Y Y Y Y Y Y Y Y Y Y Y Y Y Y Y Y Y Y Y Y Y Y Y Y Y Y Y Y Y Y Y Y Y Y Y Y Y Y Y Y Y Y Y Y Y Y Y Y Y Y Y Y Y Y Y Y Y Y Y Y Y Y Y Y Y Y Y Y Y Y U I I K Z Z Z M n n n n n n n n n n V A A D Q Q X.y.y.K.].].].].].].].].].].].].].].].].].].].].].].].].].].].].].].].].].].].].].].].].].].].{.{.{.{.{.}.+X+X+X",
"Y Y Y Y Y Y Y Y Y Y ` [ [ [ [ [ [ [ [ [ [ [ [ [ [ [ [ [ [ [ [ [ [ [ [ [ [ [ [ [ [ [ [ [ [ [ [ [ [ [ [ [ [ [ [ [ [ [ [ [ [ [ [ [ [ [ [ [ [ [ [ [ [ [ [ [ [ [ [ [ [ [ [ [ [ [ [ [ [ [ [ [ [ [ [ [ [ [ [ [ } [ [ [ [ [ [ [ [ [ [ [ [ [ [ [ [ [ [ [ [ [ [ [ [ [ [ [ [ [ [ [ [ [ [ [ [ [ [ [ [ [ [ [ [ ` Y Y Y Y Y Y Y Y Y Y Y Y Y Y Y Y Y Y Y Y Y Y Y Y Y Y Y Y Y Y Y Y Y Y Y Y Y Y Y Y Y Y Y Y Y Y Y Y Y Y Y Y Y Y Y Y Y Y Y Y Y Y Y Y Y Y Y Y Y [ [ [ [ [ [ [ [ [ [ [ [ [ [ [ [ [ [ P n n F.N.a a a F.F.F.F.F.H.H.H.H.H.H.H.j a a zXBXBXBXBXBXBXBXzXzXzXzXzXzXzXzXzXzXzXzXzXzXlXlXlXfXfX Xl a 5.A.&X&X&X&X&X&X&X&X&X&X&X&X&X&X&X&X&X&X&X&X&X&X&X=X=X=X>X>X>X>X>X>X>X>X-X-X-X:X=X=X=X=X&X&X&X&X&X&X&X&X&X&X&X&X&X&X&X&X&X&X&X&X&X&X&X&X&X&X&X&X&X&X&X&X&X&X&X&X&X&X&X&X&X&X&X&X&X&X&X=X=X=X-X>X>X>X>X>X>X>X>X>X>X>X>X>X>X>X>X>X>X>X>X>X>X>X>X>X>X>X>X4X9X9X9X9X9X9X4X4X9X9X4X,X>X>X>X>X>X>X>X>X>X>X>X>X>X>X>X>X>X-X-X-X=X=X=X=X=X&X&X&X&X&X&X&X&X&XY.a a ).).F.F.F.F.F.F.F.F.l a a a a a N.F.F.F.F.F.F.o.n n K L L L L L L L L L L L L L L L L L L L L L L L L L L L L K n n n K Y Y Y Y Y Y Y Y Y Y Y Y Y Y Y Y ` ` ` ` ` ` ' ' ' ' ' ' ' [ [ [ [ [ [ [ [ [ [ [ [ [ [ [ [ [ [ [ [ [ [ [ [ [ [ [ [ [ [ [ [ [ [ [ [ [ [ [ [ [ [ [ [ [ ' ' ' ' ' ' ` ` ` ` ` ` ` ` ` ` ` Y Y Y Y Y Y Y Y Y Y Y Y Y Y Y Y Y Y Y Y Y Y Y Y Y Y Y Y Y Y Y Y Y Y Y Y Y Y Y Y Y Y Y Y Y Y Y Y Y Y Y Y Y Y Y Y Y Y Y Y Y Y Y Y Y Y Y Y Y Y Y Y Y Y Y Y Y Y Y Y Y Y Y Y U I I K Z Z M n n n n n n n n n n n V A A S Q Q X.y.y.W.].].].].].].].].].].].].].].].].].].].].].].].].].].].].].].].].].].].].].].].].].].].{.{.{.{.{.{.}.+X+X+X#X#X#X#X#X",
"Y Y Y Y Y Y Y Y Y Y ` [ [ [ [ [ [ [ [ [ [ [ [ [ [ [ [ [ [ [ [ [ [ [ [ [ [ [ [ [ [ [ [ [ [ [ [ [ [ [ [ [ [ [ [ [ [ [ [ [ [ [ [ [ [ [ [ [ [ [ [ [ [ [ [ [ [ [ [ [ [ [ [ [ [ [ [ [ [ [ [ [ [ [ [ [ [ [ [ [ [ [ [ [ [ [ [ [ [ [ [ [ [ [ [ [ [ [ [ [ [ [ [ [ [ [ [ [ [ [ [ [ [ [ [ [ [ [ [ [ [ [ [ [ [ ` Y Y Y Y Y Y Y Y Y Y Y Y Y Y Y Y Y Y Y Y Y Y Y Y Y Y Y Y Y Y Y Y Y Y Y Y Y Y Y Y Y Y Y Y Y Y Y Y Y Y Y Y Y Y Y Y Y Y Y Y Y Y Y Y Y Y Y Y Y [ [ [ [ [ [ [ [ [ [ [ [ [ [ [ [ [ [ P n n F.N.a a a F.F.F.F.H.H.H.H.H.H.H.H.j a d lXzXzXzXzXzXzXzXzXzXzXzXzXzXzXzXlXlXlXlXlXlXkXfXfXfX XV.a k d a %X&X&X&X&X&X&X&X&X&X&X&X&X&X&X&X&X&X&X&X&X&X&X&X&X&X=X=X=X=X=X=X=X=X&X&X&X&X&X&X&X&X&X&X&X&X&X&X&X&X&X&X&X&X&X&X&X&X&X&X&X&X&X&X&X&X&X&X&X&X&X&X&X&X&X&X&X&X&X&X&X&X&X&X&X&X&X&X&X&X&X&X&X=X=X=X>X>X>X>X>X>X>X>X>X>X>X>X>X>X>X>X>X>X>X>X>X>X>X>X<X9X9X9X4X4X4X9X4X9X9X9X2X>X>X>X>X>X>X>X>X>X>X>X-X-X=X=X=X=X=X&X&X&X&X&X&X&X&X&X&X&X&X&X&X&X&X&XU.a a ).).F.F.F.F.F.F.F.F.l a a a a a N.F.F.F.F.F.F.o.n n K L L L L L L L L L L L L L L L L L L L L L L L L L L L L K n n n K Y Y Y Y Y Y Y Y Y Y Y Y Y Y Y Y Y Y Y Y Y ` ` ` ` ` ` ` ` ` ` ` ` ` ` ` ` ' ' ' ' ' ' ' ' [ [ [ [ [ [ [ [ [ [ [ [ [ [ [ ' ' ' ' ' ' ' ' ` ` ` ` ` ` ` ` ` ` ` ` ` ` Y Y Y Y Y Y Y Y Y Y Y Y Y Y Y Y Y Y Y Y Y Y Y Y Y Y Y Y Y Y Y Y Y Y Y Y Y Y Y Y Y Y Y Y Y Y Y Y Y Y Y Y Y Y Y Y Y Y Y Y Y Y Y Y Y Y Y Y Y Y Y Y Y Y Y Y Y Y Y Y Y Y Y Y Y Y U I I K Z Z Z M n n n n n n n n n n n V A A S Q Q X.y.y.W.].].].].].].].].].].].].].].].].].].].].].].].].].].].].].].].].].].].].].].].].].].{.{.{.{.{.{.{.}.+X+X+X#X#X#X#X#X#X#X#X#X#X#X",
"Y Y Y Y Y Y Y Y Y Y ` [ [ [ [ [ [ [ [ [ [ [ [ [ [ [ [ [ [ [ [ [ [ [ [ [ [ [ [ [ [ [ [ [ [ [ [ [ [ [ [ [ [ [ [ [ [ [ [ [ [ [ [ [ [ [ [ [ [ [ [ [ [ [ [ [ [ [ [ [ [ [ [ [ [ [ [ [ [ [ [ [ [ [ [ [ [ [ [ [ [ [ [ [ [ [ [ [ [ [ [ [ [ [ [ [ [ [ [ [ [ [ [ [ [ [ [ [ [ [ [ [ [ [ [ [ [ [ [ [ [ [ [ [ [ ` Y Y Y Y Y Y Y Y Y Y Y Y Y Y Y Y Y Y Y Y Y Y Y Y Y Y Y Y Y Y Y Y Y Y Y Y Y Y Y Y Y Y Y Y Y Y Y Y Y Y Y Y Y Y Y Y Y Y Y Y Y Y Y Y Y Y Y Y Y [ [ [ [ [ [ [ [ [ [ [ [ [ [ [ [ [ [ P n n F.N.a a a F.F.F.F.H.H.H.H.H.H.H.H.j a N.kXkXkXkXlXlXlXkXkXkXkXkXkXkXkXkXfXfXfXfXfXfXfXfXfX XV.a j ).l a Y.&X&X&X&X&X&X&X&X&X&X&X&X&X&X&X&X&X&X&X&X&X&X&X&X&X&X&X&X&X&X&X&X&X&X&X&X&X&X&X&X&X&X&X&X&X&X&X&X&X&X&X&X&X&X&X&X&X&X&X&X&X&X&X&X&X&X&X&X&X&X&X&X&X&X&X&X&X&X&X&X&X&X&X&X&X&X&X&X&X&X&X&X&X&X&X=X=X=X-X>X>X>X>X>X>X>X>X>X>X>X>X>X>X>X>X>X>X>X>X9X9X9X9X4X4X4X9X4X9X9X4X,X>X>X>X-X-X-X=X=X=X=X=X&X&X&X&X&X&X&X&X&X&X&X&X&X&X&X&X&X&X&X&X&X&X&X&XA.a a ).H.F.F.F.F.F.F.F.F.l a a a a a N.F.F.F.F.F.F.o.n n K L L L L L L L L L L L L L L L L L L L L L L L L L L L L K n n n K Y Y Y Y Y Y Y Y Y Y Y Y Y Y Y Y Y Y Y Y Y Y Y Y Y Y Y Y Y Y Y Y Y ` ` ` ` ` ` ` ` ` ` ` ` ` ` ` ` ` ` ` ` ` ` ` ` ` ` ` ` ` ` ` ` ` ` ` ` ` ` Y Y Y Y Y Y Y Y Y Y Y Y Y Y Y Y Y Y Y Y Y Y Y Y Y Y Y Y Y Y Y Y Y Y Y Y Y Y Y Y Y Y Y Y Y Y Y Y Y Y Y Y Y Y Y Y Y Y Y Y Y Y Y Y Y Y Y Y Y Y Y Y Y Y Y Y Y Y Y Y Y Y Y Y Y Y Y Y Y Y Y U I I K Z Z M n n n n n n n n n n n n V A A S Q Q X.y.y.W.].].].].].].].].].].].].].].].].].].].].].].].].].].].].].].].].].].].].].].].].].{.{.{.{.{.{.{.}.+X+X+X+X#X#X#X#X#X#X#X#X#X#X#X#X#X#X#X#X#X",
"Y Y Y Y Y Y Y Y Y Y ` [ [ [ [ [ [ [ [ [ [ [ [ [ [ [ [ [ [ [ [ [ [ [ [ [ [ [ [ [ [ [ [ [ [ [ [ [ [ [ [ [ [ [ [ [ [ [ [ [ [ [ [ [ [ [ [ [ [ [ [ [ [ [ [ [ [ [ [ [ [ [ [ [ [ [ [ [ [ [ [ [ [ [ [ [ [ [ [ [ [ [ [ [ [ [ [ [ [ [ [ [ [ [ [ [ [ [ [ [ [ [ [ [ [ [ [ [ [ [ [ [ [ [ [ [ [ [ [ [ [ [ [ [ [ ` Y Y Y Y Y Y Y Y Y Y Y Y Y Y Y Y Y Y Y Y Y Y Y Y Y Y Y Y Y Y Y Y Y Y Y Y Y Y Y Y Y Y Y Y Y Y Y Y Y Y Y Y Y Y Y Y Y Y Y Y Y Y Y Y Y Y Y Y Y [ [ [ [ [ [ [ [ [ [ [ [ [ [ [ [ [ [ P n n F.N.a a a F.F.F.H.H.H.H.H.H.H.H.H.j a N.kXkXkXkXkXkXfXfXfXfXfXfXfXfXfXfXfXfXfXfXfXfXfX X XV.a j H.|.l a Y.&X&X&X&X&X&X&X&X&X&X&X&X&X&X&X&X&X&X&X&X&X&X&X&X&X&X&X&X&X&X&X&X&X&X&X&X&X&X&X&X&X&X&X&X&X&X&X&X&X&X&X&X&X&X&X&X&X&X&X&X&X&X&X&X&X&X&X&X&X&X&X&X&X&X&X&X&X&X&X&X&X&X&X&X&X&X&X&X&X&X&X&X&X&X&X&X&X&X&X=X=X=X>X>X>X>X>X>X>X>X>X>X>X>X>X>X>X>X2X9X9X9X9X9X9X9X4X4X4X4X,X=X=X=X=X&X&X&X&X&X&X&X&X&X&X&X&X&X&X&X&X&X&X&X&X&X&X&X&X&X&X&X&X&X&X&X&XA.a a ).H.F.F.F.F.F.F.F.F.l a a a a a N.F.F.F.F.F.F.o.n n K L L L L L L L L L L L L L L L L L L L L L L L L L L L L K n n n K Y Y Y Y Y Y Y Y Y Y Y Y Y Y Y Y Y Y Y Y Y Y Y Y Y Y Y Y Y Y Y Y Y Y Y Y Y Y Y Y Y Y Y Y Y Y Y Y Y ` ` ` Y Y Y Y Y Y Y Y Y Y Y Y Y Y Y Y Y Y Y Y Y Y Y Y Y Y Y Y Y Y Y Y Y Y Y Y Y Y Y Y Y Y Y Y Y Y Y Y Y Y Y Y Y Y Y Y Y Y Y Y Y Y Y Y Y Y Y Y Y Y Y Y Y Y Y Y Y Y Y Y Y Y Y Y Y Y Y Y Y Y Y Y Y Y Y Y Y Y Y Y Y Y Y U I I K Z Z Z M n n n n n n n n n n n n m A A S Q Q X.y.y.K.].].].].].].].].].].].].].].].].].].].].].].].].].].].].].].].].].].].].].].].].{.{.{.{.{.{.{.}.+X+X+X+X#X#X#X#X#X#X#X#X#X#X#X#X#X#X#X#X#X#X#X#X#X#X#X#X",
"Y Y Y Y Y Y Y Y Y Y ` [ [ [ [ [ [ [ [ [ [ [ [ [ [ [ [ [ [ [ [ [ [ [ [ [ [ [ [ [ [ [ [ [ [ [ [ [ [ [ [ [ [ [ [ [ [ [ [ [ [ [ [ [ [ [ [ [ [ [ [ [ [ [ [ [ [ [ [ [ [ [ [ [ [ [ [ [ [ [ [ [ [ [ [ [ [ [ [ [ [ [ [ [ [ [ [ [ [ [ [ [ [ [ [ [ [ [ [ [ [ [ [ [ [ [ [ [ [ [ [ [ [ [ [ [ [ [ [ [ [ [ [ [ [ ` Y Y Y Y Y Y Y Y Y Y Y Y Y Y Y Y Y Y Y Y Y Y Y Y Y Y Y Y Y Y Y Y Y Y Y Y Y Y Y Y Y Y Y Y Y Y Y Y Y Y Y Y Y Y Y Y Y Y Y Y Y Y Y Y Y Y Y Y Y [ [ [ [ [ [ [ [ [ [ [ [ [ [ [ [ [ [ P n n F.N.a a a F.F.H.H.H.H.H.H.H.H.H.H.j a N.kXkXkXkXkXkXfXfXfXfXfXfXfXfXfXfXfXfXfXfXfX X`.V.V.a j H.|.|.l a Y.&X&X&X&X&X&X&X&X&X&X&X&X&X&X&X&X&X&X&X&X&X&X&X=X=X=X=X=X=X&X&X&X&X&X&X&X&X&X&X&X&X&X&X&X&X&X&X&X&X&X&X&X&X&X&X&X&X&X&X&X&X&X&X&X&X&X&X&X&X&X&X&X&X&X&X&X&X&X&X&X&X&X&X&X&X&X&X&X&X&X&X&X&X&X&X&X&X&X&X&X&X&X=X=X=X-X>X>X>X>X>X>X>X>X>X>X>X,X4X4X4X4X4X4X4X4X4X2X2X,X&X&X&X&X&X&X&X&X&X&X&X&X&X&X&X&X&X&X&X&X&X&X&X&X&X&X&X&X&X&X&X&X&X&X&X&X&XA.a a ).H.F.F.F.F.F.F.F.F.l a a a a a N.F.F.F.F.F.F. .n n K L L L L L L L L L L L L L L L L L L L L L L L L L L L L K n n n K Y Y Y Y Y Y Y Y Y Y Y Y Y Y Y Y Y Y Y Y Y Y Y Y Y Y Y Y Y Y Y Y Y Y Y Y Y Y Y Y Y Y Y Y Y Y Y Y Y Y Y Y Y Y Y Y Y Y Y Y Y Y Y Y Y Y Y Y Y Y Y Y Y Y Y Y Y Y Y Y Y Y Y Y Y Y Y Y Y Y Y Y Y Y Y Y Y Y Y Y Y Y Y Y Y Y Y Y Y Y Y Y Y Y Y Y Y Y Y Y Y Y Y Y Y Y Y Y Y Y Y Y Y Y Y Y Y Y Y Y Y Y Y Y Y Y Y Y U U I K K Z Z M n n n n n n n n n n n n n m A A S Q Q X.y.y.K.].].].].].].].].].].].].].].].].].].].].].].].].].].].].].].].].].].].].].].{.{.{.{.{.{.{.{.}.+X+X+X+X#X#X#X#X#X#X#X#X#X#X#X#X#X#X#X#X#X#X#X#X#X#X#X#X#X#X#X#X#X#X#X",
"Y Y Y Y Y Y Y Y Y Y ` [ [ [ [ [ [ [ [ [ [ [ [ [ [ [ [ [ [ [ [ [ [ [ [ [ [ [ [ [ [ [ [ [ [ [ [ [ [ [ [ [ [ [ [ [ [ [ [ [ [ [ [ [ [ [ [ [ [ [ [ [ [ [ [ [ [ [ [ [ [ [ [ [ [ [ [ [ [ [ [ [ [ [ [ [ [ [ [ [ [ [ [ [ [ [ [ [ [ [ [ [ [ [ [ [ [ [ [ [ [ [ [ [ [ [ [ [ [ [ [ [ [ [ [ [ [ [ [ [ [ [ [ [ [ ` Y Y Y Y Y Y Y Y Y Y Y Y Y Y Y Y Y Y Y Y Y Y Y Y Y Y Y Y Y Y Y Y Y Y Y Y Y Y Y Y Y Y Y Y Y Y Y Y Y Y Y Y Y Y Y Y Y Y Y Y Y Y Y Y Y Y Y Y Y [ [ [ [ [ [ [ [ [ [ [ [ [ [ [ [ [ [ P n n F.N.a a a F.F.H.H.H.H.H.H.H.H.H.H.j a N.kXkXkXkXkXfXfXfXfXfXfXfXfXfXfXfXfXdX X|.`.V.a a j l H.|.|.|.l a Y.&X&X&X&X&X&X&X&X&X&X&X&X&X&X&X=X=X=X=X=X=X>X>X>X>X>X>X>X>X>X=X=X&X&X&X&X&X&X&X&X&X&X&X&X&X&X&X&X&X&X&X&X&X&X&X&X&X&X&X&X&X&X&X&X&X&X&X&X&X&X&X&X&X&X&X&X&X&X&X&X&X&X&X&X&X&X&X&X&X&X&X&X&X&X&X&X&X&X&X&X&X&X&X&X&X=X=X=X=X>X>X>X-X-X-X=X>X2X4X4X2X2X2X2X<X<X<X<X<X=X&X&X&X&X&X&X&X&X&X&X&X&X&X&X&X&X&X&X&X&X&X&X&X&X&X&X&X&X&X&X&X&X&X&X&X&X&XA.a a ).H.F.F.F.F.F.F.F.F.l a a a a a N.F.F.F.F.F.F. .n n L L L L L L L L L L L L L L L L L L L L L L L L L L L L L K n n n K Y Y Y Y Y Y Y Y Y Y Y Y Y Y Y Y Y Y Y Y Y Y Y Y Y Y Y Y Y Y Y Y Y Y Y Y Y Y Y Y Y Y Y Y Y Y Y Y Y Y Y Y Y Y Y Y Y Y Y Y Y Y Y Y Y Y Y Y Y Y Y Y Y Y Y Y Y Y Y Y Y Y Y Y Y Y Y Y Y Y Y Y Y Y Y Y Y Y Y Y Y Y Y Y Y Y Y Y Y Y Y Y Y Y Y Y Y Y Y Y Y Y Y Y Y Y Y Y Y Y Y Y Y Y Y Y Y Y Y Y Y Y U I U K Z Z M M n n n n n n n n n n n n V A A A S Q Q X.y.y.K.].].].].].].].].].].].].].].].].].].].].].].].].].].].].].].].].].].].].{.{.{.{.{.{.{.{.}.+X+X+X+X#X#X#X#X#X#X#X#X#X#X#X#X#X#X#X#X#X#X#X#X#X#X#X#X#X#X#X#X#X#X#X#X#X#X#X#X#X#X#X",
"Y Y Y Y Y Y Y Y Y Y ` [ [ [ [ [ [ [ [ [ [ [ [ [ [ [ [ [ [ [ [ [ [ [ [ [ [ [ [ [ [ [ [ [ [ [ [ [ [ [ [ [ [ [ [ [ [ [ [ [ [ [ [ [ [ [ [ [ [ [ [ [ [ [ [ [ [ [ [ [ [ [ [ [ [ [ [ [ [ [ [ [ [ [ [ [ [ [ [ [ [ [ [ [ [ [ [ [ [ [ [ [ [ [ [ [ [ [ [ [ [ [ [ [ [ [ [ [ [ [ [ [ [ [ [ [ [ [ [ [ [ [ [ [ [ ` Y Y Y Y Y Y Y Y Y Y Y Y Y Y Y Y Y Y Y Y Y Y Y Y Y Y Y Y Y Y Y Y Y Y Y Y Y Y Y Y Y Y Y Y Y Y Y Y Y Y Y Y Y Y Y Y Y Y Y Y Y Y Y Y Y Y Y Y Y [ [ [ [ [ [ [ [ [ [ [ [ [ [ [ [ [ [ P n n F.N.a a a F.H.H.H.H.H.H.H.H.H.H.H.j a l dXdXfXfXdXdXdXdXdXdXdXdX X X X|.`.H.V.l a j j l H.|.|.|.|.|.l a Y.&X&X&X&X&X&X&X=X=X=X=X=X=X>X>X>X>X>X>X>X>X>X>X>X>X>X>X>X>X>X>X>X>X=X=X&X&X&X&X&X&X&X&X&X&X&X&X&X&X&X&X&X&X&X&X&X&X&X&X&X&X&X&X&X&X&X&X&X&X&X&X&X&X&X&X&X&X&X&X&X&X&X&X&X&X&X&X&X&X&X&X&X&X&X&X&X&X&X&X&X&X&X&X&X&X&X&X&X&X=X=X=X=X=X=X&X>X<X<X<X<X<X<X<X<X<X<X<X>X&X&X&X&X&X&X&X&X&X&X&X&X&X&X&X&X&X&X&X&X&X&X&X&X&X&X&X&X&X&X&X&X&X&X&X&X&X&XA.a a ).F.F.F.F.F.F.F.F.F.l a a a a a N.F.F.F.F.F.F. .n n L L L L L L L L L L L L L L L L L L L L L L L L L L L L L K n n n K Y Y Y Y Y Y Y Y Y Y Y Y Y Y Y Y Y Y Y Y Y Y Y Y Y Y Y Y Y Y Y Y Y Y Y Y Y Y Y Y Y Y Y Y Y Y Y Y Y Y Y Y Y Y Y Y Y Y Y Y Y Y Y Y Y Y Y Y Y Y Y Y Y Y Y Y Y Y Y Y Y Y Y Y Y Y Y Y Y Y Y Y Y Y Y Y Y Y Y Y Y Y Y Y Y Y Y Y Y Y Y Y Y Y Y Y Y Y Y Y Y Y Y Y Y Y Y Y Y Y Y Y Y Y Y U U U K K Z Z M n n n n n n n n n n n n n m A A A S Q X.y.y.y.K.].].].].].].].].].].].].].].].].].].].].].].].].].].].].].].].].].].{.{.{.{.{.{.{.{.}.+X+X+X+X#X#X#X#X#X#X#X#X#X#X#X#X#X#X#X#X#X#X#X#X#X#X#X#X#X#X#X#X#X#X#X#X#X#X#X#X#X#X#X#X#X#X#X#X#X#X#X",
"Y Y Y Y Y Y Y Y Y Y ` [ [ [ [ [ [ [ [ [ [ [ [ [ [ [ [ [ [ [ [ [ [ [ [ [ [ [ [ [ [ [ [ [ [ [ [ [ [ [ [ [ [ [ [ [ [ [ [ [ [ [ [ [ [ [ [ [ [ [ [ [ [ [ [ [ [ [ [ [ [ [ [ [ [ [ [ [ [ [ [ [ [ [ [ [ [ [ [ [ [ [ [ [ [ [ [ [ [ [ [ [ [ [ [ [ [ [ [ [ [ [ [ [ [ [ [ [ [ [ [ [ [ [ [ [ [ [ [ [ [ [ [ [ [ ` Y Y Y Y Y Y Y Y Y Y Y Y Y Y Y Y Y Y Y Y Y Y Y Y Y Y Y Y Y Y Y Y Y Y Y Y Y Y Y Y Y Y Y Y Y Y Y Y Y Y Y Y Y Y Y Y Y Y Y Y Y Y Y Y Y Y Y Y Y [ [ [ [ [ [ [ [ [ [ [ [ [ [ [ [ [ [ P n n F.N.a a a H.H.H.H.H.H.H.H.H.H.H.H.j a d F.F.).).H.H.H.H.H.H.H.H.V.V.V.l a d j k l H.H.|.|.|.|.|.).H.j a E.=X=X=X=X=X>X>X>X>X>X>X>X>X>X>X>X>X>X>X>X>X>X>X>X>X>X>X>X>X>X>X>X>X>X>X>X=X=X&X&X&X&X&X&X&X&X&X&X&X&X&X&X&X&X&X&X&X&X&X&X&X&X&X&X&X&X&X&X&X&X&X&X&X&X&X&X&X&X&X&X&X&X&X&X&X&X&X&X&X&X&X&X&X&X&X&X&X&X&X&X&X&X&X&X&X&X&X&X&X&X&X&X&X&X&X=X<X<X<X<X<X<X<X<X<X<X<X,X=X&X&X&X&X&X&X&X&X&X&X&X&X&X&X&X&X&X&X&X&X&X&X&X&X&X&X&X&X&X&X&X&X&X&X&X&X&X&XA.a a |.F.F.F.F.F.F.F.F.F.l a a a a a N.F.F.F.F.F.F. .n n L L L L L L L L L L L L L L L L L L L L L L L L L L L L L K n n n K Y Y Y Y Y Y Y Y Y Y Y Y Y Y Y Y Y Y Y Y Y Y Y Y Y Y Y Y Y Y Y Y Y Y Y Y Y Y Y Y Y Y Y Y Y Y Y Y Y Y Y Y Y Y Y Y Y Y Y Y Y Y Y Y Y Y Y Y Y Y Y Y Y Y Y Y Y Y Y Y Y Y Y Y Y Y Y Y Y Y Y Y Y Y Y Y Y Y Y Y Y Y Y Y Y Y Y Y Y Y Y Y Y Y Y Y Y Y Y Y Y Y Y Y Y Y Y Y Y U U U K Z Z M M n n n n n n n n n n n n n m A A A S Q X.y.y.y.K.].].].].].].].].].].].].].].].].].].].].].].].].].].].].].].].].{.{.{.{.{.{.{.{.}.+X+X+X+X+X#X#X#X#X#X#X#X#X#X#X#X#X#X#X#X#X#X#X#X#X#X#X#X#X#X#X#X#X#X#X#X#X#X#X#X#X#X#X#X#X#X#X#X#X#X#X#X#X#X#X#X#X#X#X",
"Y Y Y Y Y Y Y Y Y Y ` [ [ [ [ [ [ [ [ [ [ [ [ [ [ [ [ [ [ [ [ [ [ [ [ [ [ [ [ [ [ [ [ [ [ [ [ [ [ [ [ [ [ [ [ [ [ [ [ [ [ [ [ [ [ [ [ [ [ [ [ [ [ [ [ [ [ [ [ [ [ [ [ [ [ [ [ [ [ [ [ [ [ [ [ [ [ [ [ [ [ [ [ [ [ [ [ [ [ [ [ [ [ [ [ [ [ [ [ [ [ [ [ [ [ [ [ [ [ [ [ [ [ [ [ [ [ [ [ [ [ [ [ [ [ ` Y ~ Y Y Y Y Y Y Y Y Y Y Y Y Y Y Y Y Y Y Y Y Y Y Y Y Y Y Y Y Y Y Y Y Y Y Y Y Y Y Y Y Y Y Y Y Y Y Y Y Y Y Y Y Y Y Y Y Y Y Y Y Y Y Y Y Y Y Y [ [ [ [ [ [ [ [ [ [ [ [ [ [ [ [ [ [ P n n F.N.a a a H.H.H.H.H.H.H.H.H.H.H.H.j a j F.F.V.j d d d d d d d d j j j k l V.H.).|.|.|.|.|.|._.H.N.a g 5.^.>X>X>X>X>X>X>X>X>X>X>X>X>X>X>X>X>X>X>X>X>X>X>X>X>X>X>X>X>X>X>X>X>X>X>X>X>X>X>X=X=X&X&X&X&X&X&X&X&X&X&X&X&X&X&X&X&X&X&X&X&X&X&X&X&X&X&X&X&X&X&X&X&X&X&X&X&X&X&X&X&X&X&X&X&X&X&X&X&X&X&X&X&X&X&X&X&X&X&X&X&X&X&X&X&X&X&X&X&X&X&X&X&X&X&X,X<X<X<X<X<X<X<X<X<X<X<X=X&X&X&X&X&X&X&X&X&X&X&X&X&X&X&X&X&X&X&X&X&X&X&X&X&X&X&X&X&X&X&X&X&X%XE.E.Y.Y.Y.5.a a |.F.F.F.F.F.F.F.F.F.l a a a a a N.F.F.F.F.F.F. .n n L L L L L L L L L L L L L L L L L L L L L L L L L L L L L K n n n K Y Y Y Y Y Y Y Y Y Y Y Y Y Y Y Y Y Y Y Y Y Y Y Y Y Y Y Y Y Y Y Y Y Y Y Y Y Y Y Y Y Y Y Y Y Y Y Y Y Y Y Y Y Y Y Y Y Y Y Y Y Y Y Y Y Y Y Y Y Y Y Y Y Y Y Y Y Y Y Y Y Y Y Y Y Y Y Y Y Y Y Y Y Y Y Y Y Y Y Y Y Y Y Y Y Y Y Y Y Y Y Y Y Y Y Y Y Y Y Y Y Y U U U K K Z Z M n n n n n n n n n n n n n n m A A S Q Q X.y.y.y.K.].].].].].].].].].].].].].].].].].].].].].].].].].].].].].].{.{.{.{.{.{.{.{.}.}.+X+X+X+X#X#X#X#X#X#X#X#X#X#X#X#X#X#X#X#X#X#X#X#X#X#X#X#X#X#X#X#X#X#X#X#X#X#X#X#X#X#X#X#X#X#X#X#X#X#X#X#X#X#X#X#X#X#X#X#X#X#X#X#X#X#X",
"Y Y Y Y Y Y Y Y Y Y ` [ [ [ [ [ [ [ [ [ [ [ [ [ [ [ [ [ [ [ [ [ [ [ [ [ [ [ [ [ [ [ [ [ [ [ [ [ [ [ [ [ [ [ [ [ [ [ [ [ [ [ [ [ [ [ [ [ [ [ [ [ [ [ [ [ [ [ [ [ [ [ [ [ [ [ [ [ [ [ [ [ [ [ [ [ [ [ [ [ [ [ [ [ [ [ [ [ [ [ [ [ [ [ [ [ [ [ [ [ [ [ [ [ [ [ [ [ [ [ [ [ [ [ [ [ [ [ [ [ [ [ [ [ [ ` Y Y Y Y Y Y Y Y Y Y Y Y Y Y Y Y Y Y Y Y Y Y Y Y Y Y Y Y Y Y Y Y Y Y Y Y Y Y Y Y Y Y Y Y Y Y Y Y Y Y Y Y Y Y Y Y Y Y Y Y Y Y Y Y Y Y Y Y Y [ [ [ [ [ [ [ [ [ [ [ [ [ [ [ [ [ [ P n n F.N.a a a H.H.H.H.H.H.H.H.H.H.H.H.j a l |.|.).V.V.V.V.V.V.V.V.V.H.H.H.).|.|.|.|.|.|.|.`._.H.N.a j 5.U.>X>X>X>X>X>X>X>X>X>X>X>X>X>X>X>X>X>X>X>X>X>X>X>X>X>X>X>X>X>X>X>X>X>X>X>X>X>X>X>X>X>X>X>X=X=X&X&X&X&X&X&X&X&X&X&X&X&X&X&X&X&X&X&X&X&X&X&X&X&X&X&X&X&X&X&X&X&X&X&X&X&X&X&X&X&X&X&X&X&X&X&X&X&X&X&X&X&X&X&X&X&X&X&X&X=X=X=X=X=X>X>X>X=X=X=X>X2X<X<X<X<X<X<X<X<X<X<X>X&X&X&X&X&X&X&X&X&X&X&X&X&X&X&X&X&X&X&X&X&X&X&X&X&X&X&X%XE.E.Y.Y.Y.Y.A.5.5.k k a a a d |.F.F.F.F.F.F.F.F.F.j a a a a a N.F.F.F.F.F.F. .n n L L L L L L L L L L L L L L L L L L L L L L L L L L L L L K n n n K Y Y Y Y Y Y Y Y Y Y Y Y Y Y Y Y Y Y Y Y Y Y Y Y Y Y Y Y Y Y Y Y Y Y Y Y Y Y Y Y Y Y Y Y Y Y Y Y Y Y Y Y Y Y Y Y Y Y Y Y Y Y Y Y Y Y Y Y Y Y Y Y Y Y Y Y Y Y Y Y Y Y Y Y Y Y Y Y Y Y Y Y Y Y Y Y Y Y Y Y Y Y Y Y Y Y Y Y Y Y Y Y Y Y Y Y U I I K Z Z M n n n n n n n n n n n n n n n m A A S Q Q X.y.y.K.].].].].].].].].].].].].].].].].].].].].].].].].].].].].].].{.{.{.{.{.{.{.}.}.+X+X+X+X#X#X#X#X#X#X#X#X#X#X#X#X#X#X#X#X#X#X#X#X#X#X#X#X#X#X#X#X#X#X#X#X#X#X#X#X#X#X#X#X#X#X#X#X#X#X#X#X#X#X#X#X#X#X#X#X#X#X#X#X#X#X#X#X#X#X#X#X#X#X",
"Y Y Y Y Y Y Y Y Y Y ` [ [ [ [ [ [ [ [ [ [ [ [ [ [ [ [ [ [ [ [ [ [ [ [ [ [ [ [ [ [ [ [ [ [ [ [ [ [ [ [ [ [ [ [ [ [ [ [ [ [ [ [ [ [ [ [ [ [ [ [ [ [ [ [ [ [ [ [ [ [ [ [ [ [ [ [ [ [ [ [ [ [ [ [ [ [ [ [ [ [ [ [ [ [ [ [ [ [ [ [ [ [ [ [ [ [ [ [ [ [ [ [ [ [ [ [ [ [ [ [ [ [ [ [ [ [ [ [ [ [ [ [ [ [ ` Y Y Y Y Y Y Y Y Y Y Y Y Y Y Y Y Y Y Y Y Y Y Y Y Y Y Y Y Y Y Y Y Y Y Y Y Y Y Y Y Y Y Y Y Y Y Y Y Y Y Y Y Y Y Y Y Y Y Y Y Y Y Y Y Y Y Y Y Y [ [ [ [ [ [ [ [ [ [ [ [ [ [ [ [ [ [ P n n F.N.a a a H.H.H.H.H.H.H.H.H.H.H.H.j a l dX X|.|.|.|.|.|.|.|.|.|.|.|.|.|.|.|.|.|.`._.H.F.N.a g 5.U.>X>X>X>X>X>X>X>X>X>X>X>X>X>X>X>X>X>X>X>X>X>X>X>X>X>X>X>X>X>X>X>X>X>X>X>X>X>X>X>X>X>X>X>X>X>X>X>X>X=X=X&X&X&X&X&X&X&X&X&X&X&X&X&X&X&X&X&X&X&X&X&X&X&X&X&X&X&X&X&X&X&X&X&X&X&X&X&X&X&X&X&X&X&X&X&X&X&X&X=X=X=X=X=X=X>X>X>X>X>X>X>X>X>X>X>X>X>X4X4X2X2X2X<X<X<X<X<X<X<X=X&X&X&X&X&X&X&X&X&X&X&X&X&X&X&X&X&X&X&X%X%XE.E.Y.Y.Y.Y.A.5.5.k k a a a a a a d d d d l ).F.F.F.F.F.F.F.F.F.j a a a a a V.F.F.F.F.F.F. .n n L L L L L L L L L L L L L L L L L L L L L L L L L L L L L K n n n K Y Y Y Y Y Y Y Y Y Y Y Y Y Y Y Y Y Y Y Y Y Y Y Y Y Y Y Y Y Y Y Y Y Y Y Y Y Y Y Y Y Y Y Y Y Y Y Y Y Y Y Y Y Y Y Y Y Y Y Y Y Y Y Y Y Y Y Y Y Y Y Y Y Y Y Y Y Y Y Y Y Y Y Y Y Y Y Y Y Y Y Y Y Y Y Y Y Y Y Y Y Y Y Y Y Y Y Y Y U U U K Z Z Z M n n n n n n n n n n n n n n n m A A S Q Q X.y.y.K.].].].].].].].].].].].].].].].].].].].].].].].].].].].].{.{.{.{.{.{.{.}.}.+X+X+X+X#X#X#X#X#X#X#X#X#X#X#X#X#X#X#X#X#X#X#X#X#X#X#X#X#X#X#X#X#X#X#X#X#X#X#X#X#X#X#X#X#X#X#X#X#X#X#X#X#X#X#X#X#X#X#X#X#X#X#X#X#X#X#X#X#X#X#X#X#X#X#X#X#X#X#X#X#X#X",
"Y Y Y Y Y Y Y Y Y Y ` [ [ [ [ [ [ [ [ [ [ [ [ [ [ [ [ [ [ [ [ [ [ [ [ [ [ [ [ [ [ [ [ [ [ [ [ [ [ [ [ [ [ [ [ [ [ [ [ [ [ [ [ [ [ [ [ [ [ [ [ [ [ [ [ [ [ [ [ [ [ [ [ [ [ [ [ [ [ [ [ [ [ [ [ [ [ [ [ [ [ [ [ [ [ [ [ [ [ [ [ [ [ [ [ [ [ [ [ [ [ [ [ [ [ [ [ [ [ [ [ [ [ [ [ [ [ [ [ [ [ [ [ [ [ ` Y Y Y Y Y Y Y Y Y Y Y Y Y Y Y Y Y Y Y Y Y Y Y Y Y Y Y Y Y Y Y Y Y Y Y Y Y Y Y Y Y Y Y Y Y Y Y Y Y Y Y Y Y Y Y Y Y Y Y Y Y Y Y Y Y Y Y Y Y [ [ [ [ [ [ [ [ [ [ [ [ [ [ [ [ [ [ P n n F.N.a a a H.H.H.H.H.H.H.H.H.H.H.H.a a l dX|.|.|.|.|.|.|.|.|.|.|.|.|.|.|.`._.).H.F.N.a g g 5.U.&X=X=X=X>X>X>X>X>X>X>X>X>X>X>X>X>X>X>X>X>X>X>X>X>X>X>X>X>X>X>X>X>X>X>X>X>X>X>X>X>X>X>X>X>X>X>X>X>X>X>X>X>X>X=X=X&X&X&X&X&X&X&X&X&X&X&X&X&X&X&X&X&X&X&X&X&X&X&X&X&X&X&X&X&X&X&X&X&X&X&X&X&X=X=X=X=X=X=X>X>X>X>X>X>X>X>X>X>X>X>X>X>X>X>X>X>X>X>X2X9X9X9X9X4X2X2X2X2X<X<X>X&X&X&X&X&X&X&X&X&X&X&X&X&X%X%XE.E.Y.Y.Y.A.A.5.5.j k a a a a a a d d d d d j j l N.N.N.F.H.F.F.F.F.F.F.F.F.F.j a a a a a F.F.F.F.F.F.F. .n n L L L L L L L L L L L L L L L L L L L L L L L L L L L L L K n n n K Y Y Y Y Y Y Y Y Y Y Y Y Y Y Y Y Y Y Y Y Y Y Y Y Y Y Y Y Y Y Y Y Y Y Y Y Y Y Y Y Y Y Y Y Y Y Y Y Y Y Y Y Y Y Y Y Y Y Y Y Y Y Y Y Y Y Y Y Y Y Y Y Y Y Y Y Y Y Y Y Y Y Y Y Y Y Y Y Y Y Y Y Y Y Y Y Y Y Y Y Y Y Y U I U K Z Z M n n n n n n n n n n n n n n n n m A A S Q Q X.y.y.K.].].].].].].].].].].].].].].].].].].].].].].].].].].].{.{.{.{.{.{.{.}.+X+X+X+X#X#X#X#X#X#X#X#X#X#X#X#X#X#X#X#X#X#X#X#X#X#X#X#X#X#X#X#X#X#X#X#X#X#X#X#X#X#X#X#X#X#X#X#X#X#X#X#X#X#X#X#X#X#X#X#X#X#X#X#X#X#X#X#X#X#X#X#X#X#X#X#X#X#X#X#X#X#X#X#X#X#X#X#X#X#X",
"Y Y Y Y Y Y Y Y Y Y ` [ [ [ [ [ [ [ [ [ [ [ [ [ [ [ [ [ [ [ [ [ [ [ [ [ [ [ [ [ [ [ [ [ [ [ [ [ [ [ [ [ [ [ [ [ [ [ [ [ [ [ [ [ [ [ [ [ [ [ [ [ [ [ [ [ [ [ [ [ [ [ [ [ [ [ [ [ [ [ [ [ [ [ [ [ [ [ [ [ [ [ [ [ [ [ [ [ [ [ [ [ [ [ [ [ [ [ [ [ [ [ [ [ [ [ [ [ [ [ [ [ [ [ [ [ [ [ [ [ [ [ [ [ [ ` Y Y Y Y Y Y Y Y Y Y Y Y Y Y Y Y Y Y Y Y Y Y Y Y Y Y Y Y Y Y Y Y Y Y Y Y Y Y Y Y Y Y Y Y Y Y Y Y Y Y Y Y Y Y Y Y Y Y Y Y Y Y Y Y Y Y Y Y Y [ [ [ [ [ [ [ [ [ [ [ [ [ [ [ [ [ [ P n n F.N.a a a H.H.H.H.H.H.H.H.H.H.H.H.a a k ).H.).).).)._._._._._._.).).H.H.F.N.j a g g 5.U.U.&X&X&X&X&X&X=X=X=X>X>X>X>X>X>X>X>X>X>X>X>X>X>X>X>X>X>X>X>X>X>X>X>X>X>X>X>X>X>X>X>X>X>X>X>X>X>X>X>X>X>X>X>X>X>X>X>X>X>X=X=X&X&X&X&X&X&X&X&X&X&X&X&X&X&X&X&X&X&X&X&X&X&X&X&X&X&X=X=X=X=X=X=X>X>X>X>X>X>X>X>X>X>X>X>X>X>X>X>X>X>X>X>X>X>X>X>X>X>X>X,X9X9X9X9X9X4X9X9X4X4X2X<X&X&X&X&X&X&X&X%XE.E.E.Y.Y.Y.A.A.6.6.k a a a a a a a d d d d d j j l N.N.w.V.F.F.F.F.F.F.F.F.F.F.F.F.F.F.F.F.F.j a a a a a F.F.F.F.F.F.F. .n n L L L L L L L L L L L L L L L L L L L L L L L L L L L L L K n n n K Y Y Y Y Y Y Y Y Y Y Y Y Y Y Y Y Y Y Y Y Y Y Y Y Y Y Y Y Y Y Y Y Y Y Y Y Y Y Y Y Y Y Y Y Y Y Y Y Y Y Y Y Y Y Y Y Y Y Y Y Y Y Y Y Y Y Y Y Y Y Y Y Y Y Y Y Y Y Y Y Y Y Y Y Y Y Y Y Y Y Y Y Y Y Y Y U I I K Z Z Z M n n n n n n n n n n n n n n n n m A A S D Q X.y.y.K.].].].].].].].].].].].].].].].].].].].].].].].].].].{.{.{.{.{.{.{.}.+X+X+X+X#X#X#X#X#X#X#X#X#X#X#X#X#X#X#X#X#X#X#X#X#X#X#X#X#X#X#X#X#X#X#X#X#X#X#X#X#X#X#X#X#X#X#X#X#X#X#X#X#X#X#X#X#X#X#X#X#X#X#X#X#X#X#X#X#X#X#X#X#X#X#X#X#X#X#X#X#X#X#X#X#X#X#X#X#X#X#X#X#X#X#X#X#X",
"Y Y Y Y Y Y Y Y Y Y ` [ [ [ [ [ [ [ [ [ [ [ [ [ [ [ [ [ [ [ [ [ [ [ [ [ [ [ [ [ [ [ [ [ [ [ [ [ [ [ [ [ [ [ [ [ [ [ [ [ [ [ [ [ [ [ [ [ [ [ [ [ [ [ [ [ [ [ [ [ [ [ [ [ [ [ [ [ [ [ [ [ [ [ [ [ [ [ [ [ [ [ [ [ [ [ [ [ [ [ [ [ [ [ [ [ [ [ [ [ [ [ [ [ [ [ [ [ [ [ [ [ [ [ [ [ [ [ [ [ [ [ [ [ [ ` Y Y Y Y Y Y Y Y Y Y Y Y Y Y Y Y Y Y Y Y Y Y Y Y Y Y Y Y Y Y Y Y Y Y Y Y Y Y Y Y Y Y Y Y Y Y Y Y Y Y Y Y Y Y Y Y Y Y Y Y Y Y Y Y Y Y Y Y Y [ [ [ [ [ [ [ [ [ [ [ [ [ [ [ [ [ [ P n n F.N.a a a H.H.H.H.H.H.H.H.H.H.H.H.a a a a a k k k k N.N.N.N.N.N.k k a d g g k 5.U.U.&X&X&X&X&X&X&X&X&X&X&X&X=X=X>X>X>X>X>X>X>X>X>X>X>X>X>X>X>X>X>X>X>X>X>X>X>X>X>X>X>X>X>X>X>X>X>X>X>X>X>X>X>X>X>X>X>X>X>X>X>X-X-X-X=X=X&X&X&X&X&X&X&X&X&X&X&X&X&X&X&X&X&X=X=X=X=X=X>X>X>X>X>X>X>X>X>X>X>X>X>X>X>X>X>X>X>X>X>X>X>X>X>X>X-X-X>X>X>X>X>X>X>X4X9X9X9X9X4X9X9X9X9X9X4X,X=X^.^.^.Y.Y.Y.A.6.6.6.j a a a a a a a d d d d d j j l N.N.N.V.F.F.F.F.F.F.F.F.F.F.F.F.F.V.V.F.F.F.F.F.F.F.F.F.j a a a a a F.F.F.F.F.F.F. .n n L L L L L L L L L L L L L L L L L L L L L L L L L L L L L K n n n K Y Y Y Y Y Y Y Y Y Y Y Y Y Y Y Y Y Y Y Y Y Y Y Y Y Y Y Y Y Y Y Y Y Y Y Y Y Y Y Y Y Y Y Y Y Y Y Y Y Y Y Y Y Y Y Y Y Y Y Y Y Y Y Y Y Y Y Y Y Y Y Y Y Y Y Y Y Y Y Y Y Y Y Y Y Y Y Y Y Y U U U K Z Z M n n n n n n n n n n n n n n n n n m A A S Q Q X.y.y.K.].].].].].].].].].].].].].].].].].].].].].].].].].].{.{.{.{.{.{.}.+X+X+X+X#X#X#X#X#X#X#X#X#X#X#X#X#X#X#X#X#X#X#X#X#X#X#X#X#X#X#X#X#X#X#X#X#X#X#X#X#X#X#X#X#X#X#X#X#X#X#X#X#X#X#X#X#X#X#X#X#X#X#X#X#X#X#X#X#X#X#X#X#X#X#X#X#X#X#X#X#X#X#X#X#X#X#X#X#X#X#X#X#X#X#X#X#X#X#X#X#X#X#X#X",
"Y Y Y Y Y Y Y Y Y Y ` [ [ [ [ [ [ [ [ [ [ [ [ [ [ [ [ [ [ [ [ [ [ [ [ [ [ [ [ [ [ [ [ [ [ [ [ [ [ [ [ [ [ [ [ [ [ [ [ [ [ [ [ [ [ [ [ [ [ [ [ [ [ [ [ [ [ [ [ [ [ [ [ [ [ [ [ [ [ [ [ [ [ [ [ [ [ [ [ [ [ [ [ [ [ [ [ [ [ [ [ [ [ [ [ [ [ [ [ [ [ [ [ [ [ [ [ [ [ [ [ [ [ [ [ [ [ [ [ [ [ [ [ [ [ ` Y Y Y Y Y Y Y Y Y Y Y Y Y Y Y Y Y Y Y Y Y Y Y Y Y Y Y Y Y Y Y Y Y Y Y Y Y Y Y Y Y Y Y Y Y Y Y Y Y Y Y Y Y Y Y Y Y Y Y Y Y Y Y Y Y Y Y Y Y [ [ [ [ [ [ [ [ [ [ [ [ [ [ [ [ [ [ P n n F.N.a a a H.H.H.H.H.H.H.H.H.H.H.H.a a d 5.5.k k k k k k k k k k 5.5.5.r.L.L.Y.&X&X&X&X&X&X&X&X&X&X&X&X&X&X&X&X&X=X=X=X>X>X>X>X>X>X>X>X>X>X>X>X>X>X>X>X>X>X>X>X>X>X>X>X>X>X>X>X>X>X>X>X>X>X>X>X>X-X-X=X=X=X=X=X=X=X=X&X&X&X&X&X&X&X&X&X&X&X=X=X=X=X=X=X>X>X>X>X>X>X>X>X>X>X>X>X>X>X>X>X>X>X>X>X>X>X>X>X>X>X>X>X>X>X>X>X>X-X>X>X>X>X>X>X>X,X9X9X9X9X9X9X2X;X;X;X*X[.E.U.w.w.w.k a a a a a a a d d d d d j j l N.z.w.V.F.F.F.F.F.F.V.V.F.F.F.F.F.F.F.F.F.F.F.F.V.V.F.F.F.F.F.F.F.F.F.j a a a a a F.F.F.F.F.F.F. .n n L L L L L L L L L L L L L L L L L L L L L L L L L L L L L K n n n K Y Y Y Y Y Y Y Y Y Y Y Y Y Y Y Y Y Y Y Y Y Y Y Y Y Y Y Y Y Y Y Y Y Y Y Y Y Y Y Y Y Y Y Y Y Y Y Y Y Y Y Y Y Y Y Y Y Y Y Y Y Y Y Y Y Y Y Y Y Y Y Y Y Y Y Y Y Y Y Y Y Y Y U U U K Z Z Z M n n n n n n n n n n n n n n n n m m A A S Q Q X.y.y.K.].].].].].].].].].].].].].].].].].].].].].].].].].].{.{.{.{.{.{.}.+X+X+X#X#X#X#X#X#X#X#X#X#X#X#X#X#X#X#X#X#X#X#X#X#X#X#X#X#X#X#X#X#X#X#X#X#X#X#X#X#X#X#X#X#X#X#X#X#X#X#X#X#X#X#X#X#X#X#X#X#X#X#X#X#X#X#X#X#X#X#X#X#X#X#X#X#X#X#X#X#X#X#X#X#X#X#X#X#X#X#X#X#X#X#X#X#X#X#X#X#X#X#X#X#X#X#X#X#X#X",
"Y Y Y Y Y Y Y Y Y Y ` [ [ [ [ [ [ [ [ [ [ [ [ [ [ [ [ [ [ [ [ [ [ [ [ [ [ [ [ [ [ [ [ [ [ [ [ [ [ [ [ [ [ [ [ [ [ [ [ [ [ [ [ [ [ [ [ [ [ [ [ [ [ [ [ [ [ [ [ [ [ [ [ [ [ [ [ [ [ [ [ [ [ [ [ [ [ [ [ [ [ [ [ [ [ [ [ [ [ [ [ [ [ [ [ [ [ [ [ [ [ [ [ [ [ [ [ [ [ [ [ [ [ [ [ [ [ [ [ [ [ [ [ [ [ ` Y Y Y Y Y Y Y Y Y Y Y Y Y Y Y Y Y Y Y Y Y Y Y Y Y Y Y Y Y Y Y Y Y Y Y Y Y Y Y Y Y Y Y Y Y Y Y Y Y Y Y Y Y Y Y Y Y Y Y Y Y Y Y Y Y Y Y Y Y [ [ [ [ [ [ [ [ [ [ [ [ [ [ [ [ [ [ P n n F.N.a a a H.H.H.H.H.H.H.H.H.H.H.H.a a k &X&XY.Y.Y.Y.Y.Y.Y.Y.Y.Y.&X&X&X&X&X&X&X&X&X&X&X&X&X&X&X&X&X&X&X&X&X&X&X&X&X&X&X=X=X=X>X>X>X>X>X>X>X>X>X>X>X>X>X>X>X>X>X>X>X>X>X>X>X>X>X>X-X-X-X=X=X=X=X=X=X=X&X&X&X&X&X&X&X&X&X&X&X&X&X&X&X&X&X&X&X=X=X=X>X-X>X>X>X>X>X>X>X>X>X>X>X>X>X>X>X>X>X>X>X>X>X>X>X>X>X>X>X>X>X>X>X>X>X>X>X>X>X>X-X-X>X>X1X;X;X;X*X[.[.T.Z.Z.Z.k a a a a a a a d d d d d j j l N.N.V.V.F.F.F.F.F.F.F.F.F.F.F.F.F.F.F.F.F.F.F.F.F.F.F.F.F.F.F.F.F.F.F.F.F.F.F.F.F.F.j a a a a a F.F.F.F.F.F.F. .n n L L L L L L L L L L L L L L L L L L L L L L L L L L L L L K n n n K Y Y Y Y Y Y Y Y Y Y Y Y Y Y Y Y Y Y Y Y Y Y Y Y Y Y Y Y Y Y Y Y Y Y Y Y Y Y Y Y Y Y Y Y Y Y Y Y Y Y Y Y Y Y Y Y Y Y Y Y Y Y Y Y Y Y Y Y Y Y Y Y Y Y Y Y Y U U U K Z Z M n n n n n n n n n n n n n n n n n m A A A S Q X.X.y.y.K.].].].].].].].].].].].].].].].].].].].].].].].].].].{.{.{.{.{.{.}.+X+X+X#X#X#X#X#X#X#X#X#X#X#X#X#X#X#X#X#X#X#X#X#X#X#X#X#X#X#X#X#X#X#X#X#X#X#X#X#X#X#X#X#X#X#X#X#X#X#X#X#X#X#X#X#X#X#X#X#X#X#X#X#X#X#X#X#X#X#X#X#X#X#X#X#X#X#X#X#X#X#X#X#X#X#X#X#X#X#X#X#X#X#X#X#X#X#X#X#X#X#X#X#X#X#X#X#X#X#X#X#X#X#X#X#X",
"Y Y Y Y Y Y Y Y Y Y ` [ [ [ [ [ [ [ [ [ [ [ [ [ [ [ [ [ [ [ [ [ [ [ [ [ [ [ [ [ [ [ [ [ [ [ [ [ [ [ [ [ [ [ [ [ [ [ [ [ [ [ [ [ [ [ [ [ [ [ [ [ [ [ [ [ [ [ [ [ [ [ [ [ [ [ [ [ [ [ [ [ [ [ [ [ [ [ [ [ [ [ [ [ [ [ [ [ [ [ [ [ [ [ [ [ [ [ [ [ [ [ [ [ [ [ [ [ [ [ [ [ [ [ [ [ [ [ [ [ [ [ [ [ [ ` Y Y Y Y Y Y Y Y Y Y Y Y Y Y Y Y Y Y Y Y Y Y Y Y Y Y Y Y Y Y Y Y Y Y Y Y Y Y Y Y Y Y Y Y Y Y Y Y Y Y Y Y Y Y Y Y Y Y Y Y Y Y Y Y Y Y Y Y Y [ [ [ [ [ [ [ [ [ [ [ [ [ [ [ [ [ [ P n n F.N.a a a H.H.H.H.H.H.H.H.H.H.H.H.a a k &X&X&X&X&X&X&X&X&X&X&X&X&X&X&X&X&X&X&X&X&X&X&X&X&X&X&X&X&X&X&X&X&X&X&X&X&X&X&X&X&X&X=X=X-X>X>X>X>X>X>X>X>X>X>X>X>X>X>X>X-X-X-X=X=X=X=X=X=X=X=X&X&X&X&X&X&X&X&X&X&X&X&X&X&X&X&X&X&X&X&X&X&X&X&X&X&X&X&X&X=X=X=X>X>X>X>X>X>X>X>X>X>X>X>X>X>X>X>X>X>X>X>X>X>X>X>X>X>X>X>X>X>X>X>X>X>X=X%X%X%X^.E.^.T.Z.Z.Z.k a a a a a a d d d d d d j j l N.N.V.V.F.F.F.F.F.F.F.F.F.F.F.F.F.F.F.F.F.F.F.F.F.F.F.F.F.F.F.F.F.F.F.F.F.F.F.F.F.F.F.F.F.F.F.F.F.j a a a a a F.F.F.F.F.F.F. .n n L L L L L L L L L L L L L L L L L L L L L L L L L L L L L K n n n K Y Y Y Y Y Y Y Y Y Y Y Y Y Y Y Y Y Y Y Y Y Y Y Y Y Y Y Y Y Y Y Y Y Y Y Y Y Y Y Y Y Y Y Y Y Y Y Y Y Y Y Y Y Y Y Y Y Y Y Y Y Y Y Y Y Y Y Y Y Y U I I K Z Z Z M n n n n n n n n n n n n n n n n n m A A A S Q X.y.y.y.K.].].].].].].].].].].].].].].].].].].].].].].].].].].].{.{.{.{.{.}.+X+X+X#X#X#X#X#X#X#X#X#X#X#X#X#X#X#X#X#X#X#X#X#X#X#X#X#X#X#X#X#X#X#X#X#X#X#X#X#X#X#X#X#X#X#X#X#X#X#X#X#X#X#X#X#X#X#X#X#X#X#X#X#X#X#X#X#X#X#X#X#X#X#X#X#X#X#X#X#X#X#X#X#X#X#X#X#X#X#X#X#X#X#X#X#X#X#X#X#X#X#X#X#X#X#X#X#X#X#X#X#X#X#X#X#X#X#X#X#X#X#X",
"Y Y Y Y Y _ _ _ ` ` ` [ [ [ [ [ [ [ [ [ [ [ [ [ [ [ [ [ [ [ [ [ [ [ [ [ [ [ [ [ [ [ [ [ [ [ [ [ [ [ [ [ [ [ [ [ [ [ [ [ [ [ [ [ [ [ [ [ [ [ [ [ [ [ [ [ [ [ [ [ [ [ [ [ [ [ [ [ [ [ [ [ [ [ [ [ [ [ [ [ [ [ [ [ [ [ [ [ [ [ [ [ [ [ [ [ [ [ [ [ [ [ [ [ [ [ [ [ [ [ [ [ [ [ [ [ [ [ [ [ [ [ [ [ [ ` Y Y Y Y Y Y Y Y Y Y Y Y Y Y Y Y Y Y Y Y Y Y Y Y Y Y Y Y Y Y Y Y Y Y Y Y Y Y Y Y Y Y Y Y Y Y Y Y Y Y Y Y Y Y Y Y Y Y Y Y Y Y Y Y Y Y Y Y Y [ [ [ [ [ [ [ [ [ [ [ [ [ [ [ [ [ [ P n n F.N.a a a H.H.H.H.H.H.H.H.H.H.H.H.a a k &X&X&X&X&X&X&X&X&X&X&X&X&X&X&X&X&X&X&X&X&X&X&X&X&X&X&X&X&X&X&X&X&X&X&X&X&X&X&X&X&X&X&X&X=X=X=X>X>X>X>X>X>X-X-X=X=X=X=X=X=X=X=X&X&X&X&X&X&X&X&X&X&X&X&X&X&X&X&X&X&X&X&X&X&X&X&X&X&X&X&X&X&X&X&X&X&X&X&X&X&X&X&X=X=X=X>X>X>X>X>X>X>X>X>X>X>X>X>X>X>X>X>X>X>X>X>X>X>X>X=X%X%X^.^.E.E.U.w.w.w.k a a a a a a d d d d d j j l l N.N.V.V.F.F.F.F.F.F.F.F.F.F.F.F.F.F.F.F.F.F.F.F.F.F.F.F.F.F.F.F.F.F.F.F.F.F.F.F.F.F.F.F.F.F.F.F.F.F.F.F.F.F.F.F.j a a a a a F.F.F.F.F.F.F...n n L L L L L L L L L L L L L L L L L L L L L L L L L L L L L K n n n K Y Y Y Y Y Y Y Y Y Y Y Y Y Y Y Y Y Y Y Y Y Y Y Y Y Y Y Y Y Y Y Y Y Y Y Y Y Y Y Y Y Y Y Y Y Y Y Y Y Y Y Y Y Y Y Y Y Y Y Y Y Y Y Y U U U K Z Z M n n n n n n n n n n n n n n n n n n V A A S S D X.y.y.y.K.].].].].].].].].].].].].].].].].].].].].].].].].].].].].{.{.{.{.{.}.+X+X+X#X#X#X#X#X#X#X#X#X#X#X#X#X#X#X#X#X#X#X#X#X#X#X#X#X#X#X#X#X#X#X#X#X#X#X#X#X#X#X#X#X#X#X#X#X#X#X#X#X#X#X#X#X#X#X#X#X#X#X#X#X#X#X#X#X#X#X#X#X#X#X#X#X#X#X#X#X#X#X#X#X#X#X#X#X#X#X#X#X#X#X#X#X#X#X#X#X#X#X#X#X#X#X#X#X#X#X#X#X#X#X#X#X#X#X#X#X#X#X#X#X#X#X#X",
"~ _ _ ` ` ` ` ` ` [ [ [ [ [ [ [ [ [ [ [ [ [ [ [ [ [ [ [ [ [ [ [ [ [ [ [ [ [ [ [ [ [ [ [ [ [ [ [ [ [ [ [ [ [ [ [ [ [ [ [ [ [ [ [ [ [ [ [ [ [ [ [ [ [ [ [ [ [ [ [ [ [ [ [ [ [ [ [ [ [ [ [ [ [ [ [ [ [ [ [ [ [ [ [ [ [ [ [ [ [ [ [ [ [ [ [ [ [ [ [ [ [ [ [ [ [ [ [ [ [ [ [ [ [ [ [ [ [ [ [ [ [ [ [ [ ` Y Y Y Y Y Y Y Y Y Y Y Y Y Y Y Y Y Y Y Y Y Y Y Y Y Y Y Y Y Y Y Y Y Y Y Y Y Y Y Y Y Y Y Y Y Y Y Y Y Y Y Y Y Y Y Y Y Y Y Y Y Y Y Y Y Y Y Y Y [ [ [ [ [ [ [ [ [ [ [ [ [ [ [ [ [ [ P n n F.N.a a a H.H.H.H.H.H.H.H.H.H.H.H.a a 5.&X&X&X&X&X&X&X&X&X&X&X&X&X&X&X&X&X&X&X&X&X&X&X&X&X&X&X&X&X&X&X&X&X&X&X&X&X&X&X&X&X&X&X&X&X&X&X=X=X=X=X=X=X=X=X&X&X&X&X&X&X&X&X&X&X&X&X&X&X&X&X&X&X&X&X&X&X&X&X&X&X&X&X&X&X&X&X&X&X&X&X&X&X&X&X&X&X&X&X&X&X&X&X&X&X&X=X=X=X>X>X>X>X>X>X>X>X>X>X>X>X>X>X=X%X%X^.^.E.E.U.w.w.k k a a a a a a d d d d d j j l l w.w.V.F.F.F.F.F.F.F.F.F.F.F.F.F.F.F.F.F.F.F.F.F.F.F.F.F.F.F.F.F.F.F.F.F.F.F.F.F.F.F.F.F.F.F.F.F.F.F.F.F.F.F.F.F.F.F.F.F.F.F.F.j a a a a a F.F.F.F.F.F.F.l n n L L L L L L L L L L L L L L L L L L L L L L L L L L L L L K n n n K Y Y Y Y Y Y Y Y Y Y Y Y Y Y Y Y Y Y Y Y Y Y Y Y Y Y Y Y Y Y Y Y Y Y Y Y Y Y Y Y Y Y Y Y Y Y Y Y Y Y Y Y Y Y Y Y Y U U U K Z Z Z M n n n n n n n n n n n n n n n n n n V A A S Q D X.y.y.K.K.].].].].].].].].].].].].].].].].].].].].].].].].].].].].].{.{.{.{.{.}.+X+X+X#X#X#X#X#X#X#X#X#X#X#X#X#X#X#X#X#X#X#X#X#X#X#X#X#X#X#X#X#X#X#X#X#X#X#X#X#X#X#X#X#X#X#X#X#X#X#X#X#X#X#X#X#X#X#X#X#X#X#X#X#X#X#X#X#X#X#X#X#X#X#X#X#X#X#X#X#X#X#X#X#X#X#X#X#X#X#X#X#X#X#X#X#X#X#X#X#X#X#X#X#X#X#X#X#X#X#X#X#X#X#X#X#X#X#X#X#X#X#X#X#X#X#X#X#X#X#X#X#X",
"` ` ` [ [ [ [ [ [ [ [ [ [ [ [ [ [ [ [ [ [ [ [ [ [ [ [ [ [ [ [ [ [ [ [ [ [ [ [ [ [ [ [ [ [ [ [ [ [ [ [ [ [ [ [ [ [ [ [ [ [ [ [ [ [ [ [ [ [ [ [ [ [ [ [ [ [ [ [ [ [ [ [ [ [ [ [ [ [ [ [ [ [ [ [ [ [ [ [ [ [ [ [ [ [ [ [ [ [ [ [ [ [ [ [ [ [ [ [ [ [ [ [ [ [ [ [ [ [ [ [ [ [ [ [ [ [ [ [ [ [ [ [ [ [ ` Y Y Y Y Y Y Y Y Y Y Y Y Y Y Y Y Y Y Y Y Y Y Y Y Y Y Y Y Y Y Y Y Y Y Y Y Y Y Y Y Y Y Y Y Y Y Y Y Y Y Y Y Y Y Y Y Y Y Y Y Y Y Y Y Y Y Y Y _ [ [ [ [ [ [ [ [ [ [ [ [ [ [ [ [ [ [ P n n F.N.a a a H.H.H.H.H.H.H.H.H.H.H.H.a a 5.&X&X&X&X&X&X&X&X&X&X&X&X&X&X&X&X&X&X&X&X&X&X&X&X&X&X&X&X&X&X&X&X&X&X&X&X&X&X&X&X&X&X&X&X&X&X&X&X&X&X&X&X&X&X&X&X&X&X&X&X&X&X&X&X&X&X&X&X&X&X&X&X&X&X&X&X&X&X&X&X&X&X&X&X&X&X&X&X&X&X&X&X&X&X&X&X&X&X&X&X&X&X&X&X&X&X&X&X&X&X=X=X>X>X>X=X=X%X%X^.E.E.E.I.w.w.k k a a a a a a d d d d d f j l l N.N.V.F.F.F.F.F.F.F.F.F.F.F.F.F.F.F.F.F.F.F.F.F.F.F.F.F.F.F.F.F.F.F.F.F.F.F.F.F.F.F.F.F.F.F.F.F.F.F.F.F.F.F.F.F.F.F.F.F.F.F.F.F.F.F.F.F.F.F.j a a a a a F.F.V.V.V.V.N.d n M L L L L L L L L L L L L L L L L L L L L L L L L L L L L L K n n n K Y Y Y Y Y Y Y Y Y Y Y Y Y Y Y Y Y Y Y Y Y Y Y Y Y Y Y Y Y Y Y Y Y Y Y Y Y Y Y Y Y Y Y Y Y Y Y Y Y Y Y U U I K Z Z M n n n n n n n n n n n n n n n n n n n m A A S Q D X.J.y.W.}.].].].].].].].].].].].].].].].].].].].].].].].].].].].].].{.{.{.{.{.{.+X+X+X#X#X#X#X#X#X#X#X#X#X#X#X#X#X#X#X#X#X#X#X#X#X#X#X#X#X#X#X#X#X#X#X#X#X#X#X#X#X#X#X#X#X#X#X#X#X#X#X#X#X#X#X#X#X#X#X#X#X#X#X#X#X#X#X#X#X#X#X#X#X#X#X#X#X#X#X#X#X#X#X#X#X#X#X#X#X#X#X#X#X#X#X#X#X#X#X#X#X#X#X#X#X#X#X#X#X#X#X#X#X#X#X#X#X#X#X#X#X#X#X#X#X#X#X#X#X#X#X#X#X#X#X#X#X#X",
"[ [ [ [ [ [ [ [ [ [ [ [ [ [ [ [ [ [ [ [ [ [ [ [ [ [ [ [ [ [ [ [ [ [ [ [ [ [ [ [ [ [ [ [ [ [ [ [ [ [ [ [ [ [ [ [ [ [ [ [ [ [ [ [ [ [ [ [ [ [ [ [ [ [ [ [ [ [ [ [ [ [ [ [ [ [ [ [ [ [ [ [ [ [ [ [ [ [ [ [ [ [ [ [ [ [ [ [ [ [ [ [ [ [ [ [ [ [ [ [ [ [ [ [ [ [ [ [ [ [ [ [ [ [ [ [ [ [ [ [ [ [ [ [ [ ` Y ~ Y Y Y Y Y Y Y Y Y Y Y Y Y Y Y Y Y Y Y Y Y Y Y Y Y Y Y Y Y Y Y Y Y Y Y Y Y Y Y Y Y Y Y Y Y Y Y Y Y Y Y Y Y Y Y Y Y Y Y Y _ _ _ ` ` ` ` [ [ [ [ [ [ [ [ [ [ [ [ [ [ [ [ [ [ P n n F.N.a a a H.H.H.H.H.H.H.H.H.H.H.H.a a 5.&X&X&X&X&X&X&X&X&X&X&X&X&X&X&X&X&X&X&X&X&X&X&X&X&X&X&X&X&X&X&X&X&X&X&X&X&X&X&X&X&X&X&X&X&X&X&X&X&X&X&X&X&X&X&X&X&X&X&X&X&X&X&X&X&X&X&X&X&X&X&X&X&X&X&X&X&X&X&X&X&X&X&X&X&X&X&X&X&X&X&X&X&X&X&X&X&X&X&X&X&X&X&X&X&X&X&X&X%X%X^.^.^.E.E.U.U.w.w.k a a a a a a a d d d d d j j l N.N.N.N.V.F.F.F.F.F.F.F.F.F.F.F.F.F.F.F.F.F.F.F.F.F.F.F.F.F.F.F.F.F.F.F.F.F.F.F.F.F.F.F.F.F.F.F.F.F.F.F.F.F.F.F.F.F.F.F.F.F.F.F.F.F.F.F.F.F.F.V.V.V.V.V.N.N.d a a a a a N.N.l k k d a a n M K K L L L L L L L L L L L L L L L L L L L L L L L L L L L K n n n K Y Y Y Y Y Y Y Y Y Y Y Y Y Y Y Y Y Y Y Y Y Y Y Y Y Y Y Y Y Y Y Y Y Y Y Y Y Y Y Y Y Y Y Y U U U K Z Z Z M n n n n n n n n n n n n n n n n n n n m A A S Q Q X.J.J.~.}.}.].].].].].].].].].].].].].].].].].].].].].].].].].].].].].{.{.{.{.{.}.+X+X+X#X#X#X#X#X#X#X#X#X#X#X#X#X#X#X#X#X#X#X#X#X#X#X#X#X#X#X#X#X#X#X#X#X#X#X#X#X#X#X#X#X#X#X#X#X#X#X#X#X#X#X#X#X#X#X#X#X#X#X#X#X#X#X#X#X#X#X#X#X#X#X#X#X#X#X#X#X#X#X#X#X#X#X#X#X#X#X#X#X#X#X#X#X#X#X#X#X#X#X#X#X#X#X#X#X#X#X#X#X#X#X#X#X#X#X#X#X#X#X#X#X#X#X#X#X#X#X#X#X#X#X#X#X#X#X#X#X#X#X#X",
"[ [ [ [ [ [ [ [ [ [ [ [ [ [ [ [ [ [ [ [ [ [ [ [ [ [ [ [ [ [ [ [ [ [ [ [ [ [ [ [ [ [ [ [ [ [ [ [ [ [ [ [ [ [ [ [ [ [ [ [ [ [ [ [ [ [ [ [ [ [ [ [ [ [ [ [ [ [ [ [ [ [ [ [ [ [ [ [ [ [ [ [ [ [ [ [ [ [ [ [ [ [ [ [ [ [ [ [ [ [ [ [ [ [ [ [ [ [ [ [ [ [ [ [ [ [ [ [ [ [ [ [ [ [ [ [ [ [ [ [ [ [ [ [ [ ` Y Y Y Y Y Y Y Y Y Y Y Y Y Y Y Y Y Y Y Y Y Y Y Y Y Y Y Y Y Y Y Y Y Y Y Y Y Y Y Y Y Y Y Y Y Y Y Y Y Y Y Y Y Y Y Y Y _ _ ` ` ` ` ` ` [ [ [ [ [ [ [ [ [ [ [ [ [ [ [ [ [ [ [ [ [ [ P n n F.N.a a a H.H.H.H.H.H.H.H.H.H.H.H.a a k &X&X&X&X&X&X&X&X&X&X&X&X&X&X&X&X&X&X&X&X&X&X&X&X&X&X&X&X&X&X&X&X&X&X&X&X&X&X&X&X&X&X&X=X=X=X=X=X=X=X=X&X&X&X&X&X&X&X&X&X&X&X&X&X&X&X&X&X&X&X&X&X&X&X&X&X&X&X&X&X&X&X&X&X&X&X&X&X&X&X&X&X&X&X&X&X&X&X&X&X&X%X^.^.^.Y.Y.Y.A.A.6.6.k a a a a a a a d d d d d j j l N.N.N.V.F.F.F.F.F.F.V.F.F.F.F.F.F.F.F.F.F.F.F.F.F.F.F.F.F.F.F.F.F.F.F.F.F.F.F.F.F.F.F.F.F.F.F.F.F.F.F.F.F.F.F.F.F.F.F.F.F.F.F.F.F.F.F.F.F.F.F.V.V.V.V.V.N.N.l k k d d a a a a a a a a d f d a a a d d n n n M N Z K K L L L L L L L L L L L L L L L L L L L L L L L K n n n K Y Y Y Y Y Y Y Y Y Y Y Y Y Y Y Y Y Y Y Y Y Y Y Y Y Y Y Y Y Y Y Y Y Y Y Y Y Y U U U K Z Z M n n n n n n n n n n n n n n n n n n n n m A A D Q Q X.J.J.~.}.}.}.].].].].].].].].].].].].].].].].].].].].].].].].].].].].].{.{.{.{.{.}.+X+X+X#X#X#X#X#X#X#X#X#X#X#X#X#X#X#X#X#X#X#X#X#X#X#X#X#X#X#X#X#X#X#X#X#X#X#X#X#X#X#X#X#X#X#X#X#X#X#X#X#X#X#X#X#X#X#X#X#X#X#X#X#X#X#X#X#X#X#X#X#X#X#X#X#X#X#X#X#X#X#X#X#X#X#X#X#X#X#X#X#X#X#X#X#X#X#X#X#X#X#X#X#X#X#X#X#X#X#X#X#X#X#X#X#X#X#X#X#X#X#X#X#X#X#X#X#X#X#X#X#X#X#X#X#X#X#X#X#X#X#X#X#X#X#X#X#X",
"[ [ [ [ [ [ [ [ [ [ [ [ [ [ [ [ [ [ [ [ [ [ [ [ [ [ [ [ [ [ [ [ [ [ [ [ [ [ [ [ [ [ [ [ [ [ [ [ [ [ [ [ [ [ [ [ [ [ [ [ [ [ [ [ [ [ [ [ [ [ [ [ [ [ [ [ [ [ [ [ [ [ [ [ [ [ [ [ [ [ [ [ [ [ [ [ [ [ [ [ [ [ [ [ [ [ [ [ [ [ [ [ [ [ [ [ [ [ [ [ [ [ [ [ [ [ [ [ [ [ [ [ [ [ [ [ [ [ [ [ [ [ [ [ [ ` Y Y Y Y Y Y Y Y Y Y Y Y Y Y Y Y Y Y Y Y Y Y Y Y Y Y Y Y Y Y Y Y Y Y Y Y Y Y Y Y Y Y Y Y Y Y Y Y Y Y Y Y _ _ ` ` ` ` ` ` [ [ [ [ [ [ [ [ [ [ [ [ [ [ [ [ [ [ [ [ [ [ [ [ [ [ [ P n n F.l a a a H.H.H.H.H.H.H.H.H.H.H.H.a a k &X&X&X&X&X&X&X&X&X&X&X&X&X&X&X&X&X&X&X&X&X&X&X&X&X&X&X&X&X&X&X&X&X&X&X&X=X=X=X=X=X>X>X>X>X>X>X>X>X>X>X=X=X&X&X&X&X&X&X&X&X&X&X&X&X&X&X&X&X&X&X&X&X&X&X&X&X&X&X&X&X&X&X&X&X&X&X&X&X&X&X&X&X&X%X^.^.^.Y.Y.Y.A.6.6.6.k a a a a a a a d d d d d f f l N.N.N.V.F.F.F.F.F.F.F.F.F.F.F.F.F.F.F.F.F.F.F.F.F.F.F.F.F.F.F.F.F.F.F.F.F.F.F.F.F.F.F.F.F.F.F.F.F.F.F.F.F.F.F.F.F.F.F.F.F.F.F.F.F.F.F.F.F.F.F.V.V.V.V.V.N.N.l k k k d a a a a a a a a a d f f j k k w.B.o.j k k B.B.S S m n n n n M N Z K K L L L L L L L L L L L L L L L L L L L K n n n K Y Y Y Y Y Y Y Y Y Y Y Y Y Y Y Y Y Y Y Y Y Y Y Y Y Y Y Y Y Y Y U U U K Z Z Z M n n n n n n n n n n n n n n n n n n n n m m m V A D O.J.J.Q.+X+X}.}.].].].].].].].].].].].].].].].].].].].].].].].].].].].].{.{.{.{.{.{.}.+X+X#X#X#X#X#X#X#X#X#X#X#X#X#X#X#X#X#X#X#X#X#X#X#X#X#X#X#X#X#X#X#X#X#X#X#X#X#X#X#X#X#X#X#X#X#X#X#X#X#X#X#X#X#X#X#X#X#X#X#X#X#X#X#X#X#X#X#X#X#X#X#X#X#X#X#X#X#X#X#X#X#X#X#X#X#X#X#X#X#X#X#X#X#X#X#X#X#X#X#X#X#X#X#X#X#X#X#X#X#X#X#X#X#X#X#X#X#X#X#X#X#X#X#X#X#X#X#X#X#X#X#X#X#X#X#X#X#X#X#X#X#X#X#X#X#X#X#X#X#X#X#X",
"[ [ [ [ [ [ [ [ [ [ [ [ [ [ [ [ [ [ [ [ [ [ [ [ [ [ [ [ [ [ [ [ [ [ [ [ [ [ [ [ [ [ [ [ [ [ [ [ [ [ [ [ [ [ [ [ [ [ [ [ [ [ [ [ [ [ [ [ [ [ [ [ [ [ [ [ [ [ [ [ [ [ [ [ [ [ [ [ [ [ [ [ [ [ [ [ [ [ [ [ [ [ [ [ [ [ [ [ [ [ [ [ [ [ [ [ [ [ [ [ [ [ [ [ [ [ [ [ [ [ [ [ [ [ [ [ [ [ [ [ [ [ [ [ [ ` Y Y Y Y Y Y Y Y Y Y Y Y Y Y Y Y Y Y Y Y Y Y Y Y Y Y Y Y Y Y Y Y Y Y Y Y Y Y Y Y Y Y Y Y Y Y Y _ _ ` ` ` ` ` ` [ [ [ [ [ [ [ [ [ [ [ [ [ [ [ [ [ [ [ [ [ [ [ [ [ [ [ [ [ [ [ [ P n n F.l a a a H.H.H.H.H.H.H.H.H.H.H.H.a a k &X&X&X&X&X&X&X&X&X&X&X&X&X&X&X&X&X&X&X&X&X&X&X&X&X&X&X&X=X=X=X=X=X>X>X>X>X>X>X>X>X>X>X>X>X>X>X>X>X>X>X>X>X>X=X=X&X&X&X&X&X&X&X&X&X&X&X&X&X&X&X&X&X&X&X&X&X&X&X&X&X&X&X&X&X&X&X%XE.E.^.Y.Y.Y.A.6.6.6.k a a a a a a a d d d d d j j l N.N.x.V.F.F.F.F.F.F.F.F.F.F.F.F.F.F.F.F.F.F.F.F.F.F.F.F.F.F.F.F.F.F.F.F.F.F.F.F.F.F.F.F.F.F.F.F.F.F.F.F.F.F.F.F.F.F.F.F.F.F.F.F.F.F.F.F.F.F.F.F.V.V.V.V.N.N.l k k k d a a a a a a a a a d f f f j k k B.S.S.~.].].~.S.S.~.].].].].K.K.X.D S m n n n n n M N Z K K L L L L L L L L L L L L L L L K n n n K Y Y Y Y Y Y Y Y Y Y Y Y Y Y Y Y Y Y Y Y Y Y Y Y U U U K K Z Z M n n n n n n n n n n n n n n n n n n n n n m A A S D D X.W 7 a l H.}.}.+X}.].].].].].].].].].].].].].].].].].].].].].].].].].].].{.{.{.{.{.}.+X+X+X#X#X#X#X#X#X#X#X#X#X#X#X#X#X#X#X#X#X#X#X#X#X#X#X#X#X#X#X#X#X#X#X#X#X#X#X#X#X#X#X#X#X#X#X#X#X#X#X#X#X#X#X#X#X#X#X#X#X#X#X#X#X#X#X#X#X#X#X#X#X#X#X#X#X#X#X#X#X#X#X#X#X#X#X#X#X#X#X#X#X#X#X#X#X#X#X#X#X#X#X#X#X#X#X#X#X#X#X#X#X#X#X#X#X#X#X#X#X#X#X#X#X#X#X#X#X#X#X#X#X#X#X#X#X#X#X#X#X#X#X#X#X#X#X#X#X#X#X#X#X#X#X#X#X#X#X",
"[ [ [ [ [ [ [ [ [ [ [ [ [ [ [ [ [ [ [ [ [ [ [ [ [ [ [ [ [ [ [ [ [ [ [ [ [ [ [ [ [ [ [ [ [ [ [ [ [ [ [ [ [ [ [ [ [ [ [ [ [ [ [ [ [ [ [ [ [ [ [ [ [ [ [ [ [ [ [ [ [ [ [ [ [ [ [ [ [ [ [ [ [ [ [ [ [ [ [ [ [ [ [ [ [ [ [ [ [ [ [ [ [ [ [ [ [ [ [ [ [ [ [ [ [ [ [ [ [ [ [ [ [ [ [ [ [ [ [ [ [ [ [ [ [ ` Y Y Y Y Y Y Y Y Y Y Y Y Y Y Y Y Y Y Y Y Y Y Y Y Y Y Y Y Y Y Y Y Y Y Y Y Y Y Y Y Y _ _ ` ` ` ` ` ` [ [ [ [ [ [ [ [ [ [ [ [ [ [ [ [ [ [ [ [ [ [ [ [ [ [ [ [ [ [ [ [ [ [ [ [ [ [ P n n F.l a a a H.H.H.H.H.H.H.H.H.H.H.H.a a k &X&X&X&X&X&X&X&X&X&X&X&X&X&X&X&X&X&X&X&X=X=X=X=X=X=X>X>X>X>X>X>X>X>X>X>X>X>X>X>X>X>X>X>X>X>X>X>X>X>X>X>X>X>X>X>X>X=X=X&X&X&X&X&X&X&X&X&X&X&X&X&X&X&X&X&X&X&X&X&X%X^.^.^.Y.Y.Y.A.6.6.6.k a a a a a a a d d d d d j j l N.x.N.V.F.F.F.F.F.F.F.F.F.F.F.F.F.F.F.F.F.F.F.F.F.F.F.F.F.F.F.F.F.F.F.F.F.F.F.F.F.F.F.F.F.F.F.F.F.F.F.F.F.F.F.F.F.F.F.F.F.F.F.F.F.F.F.F.F.F.F.F.V.V.V.V.V.N.N.l k k d a a a a a a a a a d d f f j k k B.S.S.S.~.].].].].].].].].].].].].].].].].].].].].K.X.D S V n n n n n n M N Z K K L L L L L L L L L L L K n n n Z Y Y Y Y Y Y Y Y Y Y Y Y Y Y Y Y Y Y U U U K Z Z M M n n n n n n n n n n n n n n n n n n n n m A A A S D D X.y.y.K.].].].e.k f f d l C.'.'.].{.{.].].].].].].].].].].].].].].].].].].].{.{.{.{.{.}.+X+X+X#X#X#X#X#X#X#X#X#X#X#X#X#X#X#X#X#X#X#X#X#X#X#X#X#X#X#X#X#X#X#X#X#X#X#X#X#X#X#X#X#X#X#X#X#X#X#X#X#X#X#X#X#X#X#X#X#X#X#X#X#X#X#X#X#X#X#X#X#X#X#X#X#X#X#X#X#X#X#X#X#X#X#X#X#X#X#X#X#X#X#X#X#X#X#X#X#X#X#X#X#X#X#X#X#X#X#X#X#X#X#X#X#X#X#X#X#X#X#X#X#X#X#X#X#X#X#X#X#X#X#X#X#X#X#X#X#X#X#X#X#X#X#X#X#X#X#X#X#X#X#X#X#X#X#X#X#X#X#X#X#X",
"[ [ [ [ [ [ [ [ [ [ [ [ [ [ [ [ [ [ [ [ [ [ [ [ [ [ [ [ [ [ [ [ [ [ [ [ [ [ [ [ [ [ [ [ [ [ [ [ [ [ [ [ [ [ [ [ [ [ [ [ [ [ [ [ [ [ [ [ [ [ [ [ [ [ [ [ [ [ [ [ [ [ [ [ [ [ [ [ [ [ [ [ [ [ [ [ [ [ [ [ [ [ [ [ [ [ [ [ [ [ [ [ [ [ [ [ [ [ [ [ [ [ [ [ [ [ [ [ [ [ [ [ [ [ [ [ [ [ [ [ [ [ [ [ [ ` Y Y Y Y Y Y Y Y Y Y Y Y Y Y Y Y Y Y Y Y Y Y Y Y Y Y Y Y Y Y Y Y Y Y Y Y _ _ ` ` ` ` ` ` [ [ [ [ [ [ [ [ [ [ [ [ [ [ [ [ [ [ [ [ [ [ [ [ [ [ [ [ [ [ [ [ [ [ [ [ [ [ [ [ [ [ [ P n n F.l a a a H.H.H.H.H.H.H.H.H.H.H.H.a a 5.&X&X&X&X&X&X&X&X&X&X&X&X=X=X=X=X=X=X>X>X>X>X>X>X>X>X>X>X>X>X>X>X>X>X>X>X>X>X>X>X>X>X>X>X>X>X>X>X>X>X>X>X>X>X>X>X>X>X>X=X=X=X&X&X&X&X&X&X&X&X&X&X&X%X^.^.Y.Y.Y.Y.A.6.6.6.k a a a a a a a d d d d d j j l N.N.5.V.V.F.F.F.F.F.F.F.F.F.F.F.C.C.F.F.F.F.F.F.F.F.F.F.F.F.V.F.F.F.F.F.F.F.F.F.F.F.F.F.F.F.F.F.F.F.F.F.F.F.F.F.F.F.F.F.F.F.F.F.F.F.F.F.F.F.F.F.V.V.V.V.V.N.N.l k k d d a a a a a a a a a d f f j j k B.B.S.S.~.].].].].].].].].].].].].].].].].].].].].].].].].].].].].].].K.X.D S m n n n n n n n M Z Z K K L L L L L L L K n n n K Y Y Y Y Y Y Y Y Y Y Y U U U K K Z Z M n n n n n n n n n n n n n n n n n n n n n m A A A S D X.y.y.y.K.].].].].].].].].].'.e.e.e.k f d d o.H.].}.}.{.].].].].].].].].].].].].{.{.{.{.{.}.+X+X+X#X#X#X#X#X#X#X#X#X#X#X#X#X#X#X#X#X#X#X#X#X#X#X#X#X#X#X#X#X#X#X#X#X#X#X#X#X#X#X#X#X#X#X#X#X#X#X#X#X#X#X#X#X#X#X#X#X#X#X#X#X#X#X#X#X#X#X#X#X#X#X#X#X#X#X#X#X#X#X#X#X#X#X#X#X#X#X#X#X#X#X#X#X#X#X#X#X#X#X#X#X#X#X#X#X#X#X#X#X#X#X#X#X#X#X#X#X#X#X#X#X#X#X#X#X#X#X#X#X#X#X#X#X#X#X#X#X#X#X#X#X#X#X#X#X#X#X#X#X#X#X#X#X#X#X#X#X#X#X#X#X#X#X#X#X#X",
"[ [ [ [ [ [ [ [ [ [ [ [ [ [ [ [ [ [ [ [ [ [ [ [ [ [ [ [ [ [ [ [ [ [ [ [ [ [ [ [ [ [ [ [ [ [ [ [ [ [ [ [ [ [ [ [ [ [ [ [ [ [ [ [ [ [ [ [ [ [ [ [ [ [ [ [ [ [ [ [ [ [ [ [ [ [ [ [ [ [ [ [ [ [ [ [ [ [ [ [ [ [ [ [ [ [ [ [ [ [ [ [ [ [ [ [ [ [ [ [ [ [ [ [ [ [ [ [ [ [ [ [ [ [ [ [ [ [ [ [ [ [ [ [ [ ` Y Y Y Y Y Y Y Y Y Y Y Y Y Y Y Y Y Y Y Y Y Y Y Y Y Y Y Y Y Y Y _ _ ` ` ` ` ` ` [ [ [ [ [ [ [ [ [ [ [ [ [ [ [ [ [ [ [ [ [ [ [ [ [ [ [ [ [ [ [ [ [ [ [ [ [ [ [ [ [ [ [ [ [ [ [ [ Z n n F.l a a a H.H.H.H.H.H.H.H.H.H.H.H.a a A.&X&X&X&X&X=X=X=X=X=X>X>X>X>X>X>X>X>X>X>X>X>X>X>X>X>X>X>X>X>X>X>X>X>X>X>X>X>X>X>X>X>X>X>X>X>X>X>X>X>X>X>X>X>X>X>X>X>X>X>X>X>X=X=X&X&X%X^.^.Y.Y.Y.Y.I.6.6.k k a a a a a a a d d d d d j j l N.N.V.V.F.F.F.F.F.V.V.F.F.F.F.V.V.F.F.F.F.F.C.C.F.F.F.F.F.F.F.F.F.F.F.F.F.F.F.F.F.F.F.F.F.F.F.F.F.F.F.F.F.F.F.F.F.F.F.F.F.F.F.F.F.F.F.F.F.F.F.F.V.V.V.V.V.N.N.l k k k d a a a a a a a a a d d f f j k k B.S.S.~.~.].].].].].].].].].].].].].].].].].].].].].].].].].].].].].].].].].].].].].].].K.X.D S m n n n n n n n n M Z Z K K L L L K n n n K Y Y Y Y Y U U U K Z Z M M n n n n n n n n n n n n n n n n n n n n n m A A A S D X.y.y.y.K.].].].].].].].].].].].].].].].{.e.e.e.e.e.k f f d l ~.'.'.].}.{.].].].{.{.{.{.{.{.+X+X+X#X#X#X#X#X#X#X#X#X#X#X#X#X#X#X#X#X#X#X#X#X#X#X#X#X#X#X#X#X#X#X#X#X#X#X#X#X#X#X#X#X#X#X#X#X#X#X#X#X#X#X#X#X#X#X#X#X#X#X#X#X#X#X#X#X#X#X#X#X#X#X#X#X#X#X#X#X#X#X#X#X#X#X#X#X#X#X#X#X#X#X#X#X#X#X#X#X#X#X#X#X#X#X#X#X#X#X#X#X#X#X#X#X#X#X#X#X#X#X#X#X#X#X#X#X#X#X#X#X#X#X#X#X#X#X#X#X#X#X#X#X#X#X#X#X#X#X#X#X#X#X#X#X#X#X#X#X#X#X#X#X#X#X#X#X#X#X#X#X#X#X#X",
"[ [ [ [ [ [ [ [ [ [ [ [ [ [ [ [ [ [ [ [ [ [ [ [ [ [ [ [ [ [ [ [ [ [ [ [ [ [ [ [ [ [ [ [ [ [ [ [ [ [ [ [ [ [ [ [ [ [ [ [ [ [ [ [ [ [ [ [ [ [ [ [ [ [ [ [ [ [ [ [ [ [ [ [ [ [ [ [ [ [ [ [ [ [ [ [ [ [ [ [ [ [ [ [ [ [ [ [ [ [ [ [ [ [ [ [ [ [ [ [ [ [ [ [ [ [ [ [ [ [ [ [ [ [ [ [ [ [ [ [ [ [ [ [ [ ` Y Y Y Y Y Y Y Y Y Y Y Y Y Y Y Y Y Y Y Y Y Y Y Y Y _ _ _ ` ` ` ` ` ` [ [ [ [ [ [ [ [ [ [ [ [ [ [ [ [ [ [ [ [ [ [ [ [ [ [ [ [ [ [ [ [ [ [ [ [ [ [ [ [ [ [ [ [ [ [ [ [ [ [ [ [ [ Z n n F.l a a a H.H.H.H.H.H.H.H.F.F.F.F.a a A.=X=X>X>X>X>X>X>X>X>X>X>X>X>X>X>X>X>X>X>X>X>X>X>X>X>X>X>X>X>X>X>X>X>X>X>X>X>X>X>X>X>X>X>X>X>X>X>X>X>X>X>X>X>X>X>X>X>X=X=X%X%X^.^.E.E.I.6.6.k k a a a a a a d d d d d d j j l N.N.V.V.F.F.F.F.F.F.F.F.F.F.F.F.F.F.F.F.F.F.F.F.F.F.F.F.F.F.F.F.F.F.F.F.F.F.F.F.F.F.F.F.F.F.F.F.F.F.F.F.F.F.F.F.F.F.F.F.F.F.F.F.F.F.F.F.F.F.F.F.V.V.V.V.V.N.N.l k k k d a a a a a a a a a a d f f j k k B.B.S.S.~.].].].].].].].].].].].].].].].].].].].].].].].].].].].].].].].].].].].].].].].].].].].].].].].].].K.X.D S m n n n n n n n n n M Z Z K K n n n Z U K K Z Z M n n n n n n n n n n n n n n n n n n n n n n m A A S D D X.y.y.y.K.].].].].].].].].].].].].].].].].].{.{.{.{.}.J.J.e.e.e.e.e.o.f f d d l ~.}.}.}.{.{.}.+X+X+X#X#X#X#X#X#X#X#X#X#X#X#X#X#X#X#X#X#X#X#X#X#X#X#X#X#X#X#X#X#X#X#X#X#X#X#X#X#X#X#X#X#X#X#X#X#X#X#X#X#X#X#X#X#X#X#X#X#X#X#X#X#X#X#X#X#X#X#X#X#X#X#X#X#X#X#X#X#X#X#X#X#X#X#X#X#X#X#X#X#X#X#X#X#X#X#X#X#X#X#X#X#X#X#X#X#X#X#X#X#X#X#X#X#X#X#X#X#X#X#X#X#X#X#X#X#X#X#X#X#X#X#X#X#X#X#X#X#X#X#X#X#X#X#X#X#X#X#X#X#X#X#X#X#X#X#X#X#X#X#X#X#X#X#X#X#X#X#X#X#X#X#X#X#X#X#X#X",
"[ [ [ [ [ [ [ [ [ [ [ [ [ [ [ [ [ [ [ [ [ [ [ [ [ [ [ [ [ [ [ [ [ [ [ [ [ [ [ [ [ [ [ [ [ [ [ [ [ [ [ [ [ [ [ [ [ [ [ [ [ [ [ [ [ [ [ [ [ [ [ [ [ [ [ [ [ [ [ [ [ [ [ [ [ [ [ [ [ [ [ [ [ [ [ [ [ [ [ [ [ [ [ [ [ [ [ [ [ [ [ [ [ [ [ [ [ [ [ [ [ [ [ [ [ [ [ [ [ [ [ [ [ [ [ [ [ [ [ [ [ [ [ [ [ ` Y Y Y Y Y Y Y Y Y Y Y Y Y Y Y Y Y Y Y Y _ _ ` ` ` ` ` ` [ [ [ [ [ [ [ [ [ [ [ [ [ [ [ [ [ [ [ [ [ [ [ [ [ [ [ [ [ [ [ [ [ [ [ [ [ [ [ [ [ [ [ [ [ [ [ [ [ [ [ [ [ [ [ [ [ [ [ Z n n F.l a a a H.H.F.H.F.F.F.F.F.F.F.F.a a A.>X>X>X>X>X>X>X>X>X>X>X>X>X>X>X>X>X>X>X>X>X>X>X>X>X>X>X>X>X>X>X>X>X>X>X>X>X>X>X>X>X>X>X>X>X>X>X>X>X>X>X=X=X%X%X^.E.E.U.U.w.w.k k a a a a a a d d d d d f j l l N.N.N.N.F.F.F.F.F.F.F.F.F.F.F.F.F.F.F.F.F.F.F.F.F.F.F.F.F.F.F.F.F.F.F.F.F.F.F.F.F.F.F.F.F.F.F.F.F.F.F.F.F.F.F.F.F.F.F.F.F.F.F.F.F.F.F.F.F.F.F.F.F.V.V.V.V.V.N.l l k k d a a a a a a a a a a d f f f j k k B.S.S.~.].].].].].].].].].].].].].].].].].].].].].].].].].].].].].].].].].].].].].].].].].].].].].].].].].].].].].].].].].].].K.X.D S m n n n n n n n n n n M n n n n n n n n n n n n n n n n n n n n n n n n n n m A A S D D X.y.y.K.].].].].].].].].].].].].].].].].].].].].{.{.{.{.}.+X+X#X#X{.{.J.J.J.S.e.e.e.e.k f d d l ~.}.}.8X$X#X#X#X#X#X#X#X#X#X#X#X#X#X#X#X#X#X#X#X#X#X#X#X#X#X#X#X#X#X#X#X#X#X#X#X#X#X#X#X#X#X#X#X#X#X#X#X#X#X#X#X#X#X#X#X#X#X#X#X#X#X#X#X#X#X#X#X#X#X#X#X#X#X#X#X#X#X#X#X#X#X#X#X#X#X#X#X#X#X#X#X#X#X#X#X#X#X#X#X#X#X#X#X#X#X#X#X#X#X#X#X#X#X#X#X#X#X#X#X#X#X#X#X#X#X#X#X#X#X#X#X#X#X#X#X#X#X#X#X#X#X#X#X#X#X#X#X#X#X#X#X#X#X#X#X#X#X#X#X#X#X#X#X#X#X#X#X#X#X#X#X#X#X#X#X#X#X#X#X#X",
"[ [ [ [ [ [ [ [ [ [ [ [ [ [ [ [ [ [ [ [ [ [ [ [ [ [ [ [ [ [ [ [ [ [ [ [ [ [ [ [ [ [ [ [ [ [ [ [ [ [ [ [ [ [ [ [ [ [ [ [ [ [ [ [ [ [ [ [ [ [ [ [ [ [ [ [ [ [ [ [ [ [ [ [ [ [ [ [ [ [ [ [ [ [ [ [ [ [ [ [ [ [ [ [ [ [ [ [ [ [ [ [ [ [ [ [ [ [ [ [ [ [ [ [ [ [ [ [ [ [ [ [ [ [ [ [ [ [ [ [ [ [ [ [ [ ` Y Y Y Y Y Y Y Y Y Y Y Y Y Y Y _ _ ` ` ` ` ` ` [ [ [ [ [ [ [ [ [ [ [ [ [ [ [ [ [ [ [ [ [ [ [ [ [ [ [ [ [ [ [ [ [ [ [ [ [ [ [ [ [ [ [ [ [ [ [ [ [ [ [ [ [ [ [ [ [ [ [ [ [ [ [ [ N n n F.l a a d H.F.V.F.F.F.F.F.F.F.F.F.a a A.>X>X>X>X>X>X>X>X>X>X>X>X>X>X>X>X>X>X>X>X>X>X>X>X>X>X>X>X>X>X>X>X>X>X>X>X>X>X>X>X>X>X>X-X=X%X%X%X^.E.E.U.U.w.w.k a a a a a a a d d d d d f j l k N.N.N.F.F.F.F.F.F.V.V.F.F.F.F.F.F.F.F.F.F.F.F.F.F.F.F.F.F.F.F.F.F.F.F.F.F.F.F.F.F.F.F.F.F.F.F.F.F.F.F.F.F.F.F.F.F.F.F.F.F.F.F.F.F.F.F.F.F.F.F.F.F.V.V.V.V.V.N.N.l k k d d a a a a a a a a a a d f f j k k B.S.S.S.~.].].].].].].].].].].].].].].].].].].].].].].].].].].].].].].].].].].].].].].].].].].].].].].].].].].].].].].].].].].].].].].].].].].].].K.X.D S m n n n n n n n n n n n n n n n n n n n n n n n n n n n n m A A S D D X.y.y.K.].].].].].].].].].].].].].].].].].].].].].].{.{.{.{.}.+X+X#X#X#X#X#X#X#X#X#X#X#X{.J.J.J.J.e.e.k f f d o.C.}. X$X$X#X#X#X#X#X#X#X#X#X#X#X#X#X#X#X#X#X#X#X#X#X#X#X#X#X#X#X#X#X#X#X#X#X#X#X#X#X#X#X#X#X#X#X#X#X#X#X#X#X#X#X#X#X#X#X#X#X#X#X#X#X#X#X#X#X#X#X#X#X#X#X#X#X#X#X#X#X#X#X#X#X#X#X#X#X#X#X#X#X#X#X#X#X#X#X#X#X#X#X#X#X#X#X#X#X#X#X#X#X#X#X#X#X#X#X#X#X#X#X#X#X#X#X#X#X#X#X#X#X#X#X#X#X#X#X#X#X#X#X#X#X#X#X#X#X#X#X#X#X#X#X#X#X#X#X#X#X#X#X#X#X#X#X#X#X#X#X#X#X#X#X#X#X#X#X#X#X#X",
"[ [ [ [ [ [ [ [ [ [ [ [ [ [ [ [ [ [ [ [ [ [ [ [ [ [ [ [ [ [ [ [ [ [ [ [ [ [ [ [ [ [ [ [ [ [ [ [ [ [ [ [ [ [ [ [ [ [ [ [ [ [ [ [ [ [ [ [ [ [ [ [ [ [ [ [ [ [ [ [ [ [ [ [ [ [ [ [ [ [ [ [ [ [ [ [ [ [ [ [ [ [ [ [ [ [ [ [ [ [ [ [ [ [ [ [ [ [ [ [ [ [ [ [ [ [ [ [ [ [ [ [ [ [ [ [ [ [ [ [ [ [ [ [ [ ` Y Y Y Y Y Y Y Y Y Y _ _ ` ` ` ` ` ` [ [ [ [ [ [ [ [ [ [ [ [ [ [ [ [ [ [ [ [ [ [ [ [ [ [ [ [ [ [ [ [ [ [ [ [ [ [ [ [ [ [ [ [ [ [ [ [ [ [ [ [ [ [ [ [ [ [ [ [ [ [ [ [ [ [ [ [ [ N n n F.l a a j F.F.F.F.F.F.F.F.F.F.F.F.a a A.>X>X>X>X>X>X>X>X>X>X>X>X>X>X>X>X>X>X>X>X>X>X>X>X>X>X>X>X>X>X>X>X>X>X>X>X>X=X%X%X%X^.^.E.I.w.w.w.k a a a a a a a d d d d d f f k l N.N.N.F.F.F.F.F.F.F.F.F.F.F.F.F.V.V.F.V.F.F.F.F.F.F.F.F.F.F.F.F.F.F.F.F.F.F.F.F.F.F.F.F.F.F.F.F.F.F.F.F.F.F.F.F.F.F.F.F.F.F.F.F.F.F.F.F.F.F.F.F.F.V.V.V.V.V.N.N.l k k k d a a a a a a a a a a d f f f j k k B.S.S.~.].].].].].].].].].].].].].].].].].].].].].].].].].].].].].].].].].].].].].].].].].].].].].].].].].].].].].].].].].].].].].].].].].].].].].].].].].].].].].].K.X.D S m n n n n n n n n M n n n n n n n n n n m A A S D D X.y.y.K.].].].].].].].].].].].].].].].].].].].].].].].].{.{.{.{.}.+X+X#X#X#X#X#X#X#X#X#X#X#X#X#X#X#X#X#X#X{.{.J.J.J.e.e.k f d d l ~. X$X8X$X#X#X#X#X#X#X#X#X#X#X#X#X#X#X#X#X#X#X#X#X#X#X#X#X#X#X#X#X#X#X#X#X#X#X#X#X#X#X#X#X#X#X#X#X#X#X#X#X#X#X#X#X#X#X#X#X#X#X#X#X#X#X#X#X#X#X#X#X#X#X#X#X#X#X#X#X#X#X#X#X#X#X#X#X#X#X#X#X#X#X#X#X#X#X#X#X#X#X#X#X#X#X#X#X#X#X#X#X#X#X#X#X#X#X#X#X#X#X#X#X#X#X#X#X#X#X#X#X#X#X#X#X#X#X#X#X#X#X#X#X#X#X#X#X#X#X#X#X#X#X#X#X#X#X#X#X#X#X#X#X#X#X#X#X#X#X#X#X#X#X#X#X#X#X#X",
"[ [ [ [ [ [ [ [ [ [ [ [ [ [ [ [ [ [ [ [ [ [ [ [ [ [ [ [ [ [ [ [ [ [ [ [ [ [ [ [ [ [ [ [ [ [ [ [ [ [ [ [ [ [ [ [ [ [ [ [ [ [ [ [ [ [ [ [ [ [ [ [ [ [ [ [ [ [ [ [ [ [ [ [ [ [ [ [ [ [ [ [ [ [ [ [ [ [ [ [ [ [ [ [ [ [ [ [ [ [ [ [ [ [ [ [ [ [ [ [ [ [ [ [ [ [ [ [ [ [ [ [ [ [ [ [ [ [ [ [ [ [ [ [ [ ` Y Y Y Y _ _ ` ` ` ` ` ` ` [ [ [ [ [ [ [ [ [ [ [ [ [ [ [ [ [ [ [ [ [ [ [ [ [ [ [ [ [ [ [ [ [ [ [ [ [ [ [ [ [ [ [ [ [ [ [ [ [ [ [ [ [ [ [ [ [ [ [ [ [ [ [ [ [ [ [ [ [ [ [ [ [ ` N n n F.l a a j F.F.F.F.F.F.F.F.F.F.F.F.a a A.>X>X>X>X>X>X>X>X>X>X>X>X>X>X>X>X>X>X>X>X>X>X>X>X>X>X>X>X>X>X=X%X%X%X^.^.^.I.w.w.w.k a a a a a a a d d d d d j j l N.N.N.V.F.F.F.F.F.F.F.F.F.F.F.F.F.F.F.F.F.F.F.F.F.F.F.F.F.F.F.F.F.F.F.F.F.F.F.F.F.F.F.F.F.F.F.F.F.F.F.F.F.F.F.F.F.F.F.F.F.F.F.F.F.F.F.F.F.F.F.F.F.F.V.V.V.V.V.N.N.l k k k d a a a a a a a a a a a d f f j k k B.S.S.S.~.].].].].].].].].].].].].].].].].].].].].].].].].].].].].].].].].].].].].].].].].].].].].].].].].].].].].].].].].].].].].].].].].].].].].].].].].].].].].].].].].].].].].].].].K.X.D S m m n n n n n n n n n m A A S D D X.y.y.K.].].].].].].].].].].].].].].].].].].].].].].].].].{.{.{.{.{.+X+X+X#X#X#X#X#X#X#X#X#X#X#X#X#X#X#X#X#X#X#X#X#X#X#X#X#X#X{.J.J.J.e.o.f f d l ~.}. X$X$X#X#X#X#X#X#X#X#X#X#X#X#X#X#X#X#X#X#X#X#X#X#X#X#X#X#X#X#X#X#X#X#X#X#X#X#X#X#X#X#X#X#X#X#X#X#X#X#X#X#X#X#X#X#X#X#X#X#X#X#X#X#X#X#X#X#X#X#X#X#X#X#X#X#X#X#X#X#X#X#X#X#X#X#X#X#X#X#X#X#X#X#X#X#X#X#X#X#X#X#X#X#X#X#X#X#X#X#X#X#X#X#X#X#X#X#X#X#X#X#X#X#X#X#X#X#X#X#X#X#X#X#X#X#X#X#X#X#X#X#X#X#X#X#X#X#X#X#X#X#X#X#X#X#X#X#X#X#X#X#X#X#X#X#X#X#X#X#X#X#X#X#X#X",
"[ [ [ [ [ [ [ [ [ [ [ [ [ [ [ [ [ [ [ [ [ [ [ [ [ [ [ [ [ [ [ [ [ [ [ [ [ [ [ [ [ [ [ [ [ [ [ [ [ [ [ [ [ [ [ [ [ [ [ [ [ [ [ [ [ [ [ [ [ [ [ [ [ [ [ [ [ [ [ [ [ [ [ [ [ [ [ [ [ [ [ [ [ [ [ [ [ [ [ [ [ [ [ [ [ [ [ [ [ [ [ [ [ [ [ [ [ [ [ [ [ [ [ [ [ [ [ [ [ [ [ [ [ [ [ [ [ [ [ [ [ [ [ [ [ ` _ ` ` ` ` ` ` [ [ [ [ [ [ [ [ [ [ [ [ [ [ [ [ [ [ [ [ [ [ [ [ [ [ [ [ [ [ [ [ [ [ [ [ [ [ [ [ [ [ [ [ [ [ [ [ [ [ [ [ [ [ [ [ [ [ [ [ [ [ [ [ [ [ [ [ [ [ [ [ [ [ [ [ [ [ [ ` N n n F.l a a j F.V.F.F.F.F.F.F.F.F.F.F.a a A.>X>X>X>X>X>X>X>X>X>X>X>X>X>X>X>X>X>X>X>X>X>X>X=X%X%X%X^.^.^.I.w.w.w.k a a a a a a a d d d d d j j l N.N.N.N.F.F.F.F.F.F.F.F.F.F.F.F.F.F.F.F.F.F.F.F.F.F.F.F.F.F.F.F.F.F.F.F.F.F.F.F.F.F.F.F.F.F.F.F.F.F.F.F.F.F.F.F.F.F.F.F.F.F.F.F.F.F.F.F.F.F.F.F.F.F.F.V.V.V.V.N.N.l l k k d a a a a a a a a a a a d f f f j k k B.S.S.~.].].].].].].].].].].].].].].].].].].].].].].].].].].].].].].].].].].].].].].].].].].].].].].].].].].].].].].].].].].].].].].].].].].].].].].].].].].].].].].].].].].].].].].].].].].].].].].].].].K.X.X.S m m n m A S D D X.y.y.K.].].].].].].].].].].].].].].].].].].].].].].].].].].].{.{.{.{.}.+X+X#X#X#X#X#X#X#X#X#X#X#X#X#X#X#X#X#X#X#X#X#X#X#X#X#X#X#X#X#X#X#X#X#X#X{.{.J.S.w.k f d d l ~. X$X8X$X#X#X#X#X#X#X#X#X#X#X#X#X#X#X#X#X#X#X#X#X#X#X#X#X#X#X#X#X#X#X#X#X#X#X#X#X#X#X#X#X#X#X#X#X#X#X#X#X#X#X#X#X#X#X#X#X#X#X#X#X#X#X#X#X#X#X#X#X#X#X#X#X#X#X#X#X#X#X#X#X#X#X#X#X#X#X#X#X#X#X#X#X#X#X#X#X#X#X#X#X#X#X#X#X#X#X#X#X#X#X#X#X#X#X#X#X#X#X#X#X#X#X#X#X#X#X#X#X#X#X#X#X#X#X#X#X#X#X#X#X#X#X#X#X#X#X#X#X#X#X#X#X#X#X#X#X#X#X#X#X#X#X#X#X#X#X#X#X#X#X",
"[ [ [ [ [ [ [ [ [ [ [ [ [ [ [ [ [ [ [ [ [ [ [ [ [ [ [ [ [ [ [ [ [ [ [ [ [ [ [ [ [ [ [ [ [ [ [ [ [ [ [ [ [ [ [ [ [ [ [ [ [ [ [ [ [ [ [ [ [ [ [ [ [ [ [ [ [ [ [ [ [ [ [ [ [ [ [ [ [ [ [ [ [ [ [ [ [ [ [ [ [ [ [ [ [ [ [ [ [ [ [ [ [ [ [ [ [ [ [ [ [ [ [ [ [ [ [ [ [ [ [ [ [ [ [ [ [ [ [ [ [ [ [ [ [ [ ` ` [ [ [ [ [ [ [ [ [ [ [ [ [ [ [ [ [ [ [ [ [ [ [ [ [ [ [ [ [ [ [ [ [ [ [ [ [ [ [ [ [ [ [ [ [ [ [ [ [ [ [ [ [ [ [ [ [ [ [ [ [ [ [ [ [ [ [ [ [ [ [ [ [ [ [ [ [ [ [ [ [ [ [ [ Y N n n F.l a a j V.F.F.F.F.F.F.F.F.F.F.F.a a A.>X>X>X>X>X>X>X>X>X>X>X>X>X>X>X>X=X%X%X%X^.^.^.I.w.w.w.k a a a a a a a d d d d d j j l N.N.N.N.F.F.F.F.F.F.F.F.F.F.F.F.F.F.F.F.F.F.F.F.F.F.F.F.F.F.F.F.F.F.F.F.F.F.F.F.F.F.F.F.F.F.F.F.F.F.F.F.F.F.F.F.F.F.F.F.F.F.F.F.F.F.F.F.F.F.F.F.F.F.F.V.V.V.V.V.N.N.l k k d a a a a a a a a a a a d d f f j k k w.S.S.S.~.].].].].].].].].].].].].].].].].].].].].].].].].].].].].].].].].].].].].].].].].].].].].].].].].].].].].].].].].].].].].].].].].].].].].].].].].].].].].].].].].].].].].].].].].].].].].].].].].].].].].].].].].].].K.X.X.D X.y.K.].].].].].].].].].].].].].].].].].].].].].].].].].].].].{.{.{.{.{.+X+X+X#X#X#X#X#X#X#X#X#X#X#X#X#X#X#X#X#X#X#X#X#X#X#X#X#X#X#X#X#X#X#X#X#X#X#X#X#X#X#X#X#X#X{.J.S.w.j d d l ~.#X$X$X$X#X#X#X#X#X#X#X#X#X#X#X#X#X#X#X#X#X#X#X#X#X#X#X#X#X#X#X#X#X#X#X#X#X#X#X#X#X#X#X#X#X#X#X#X#X#X#X#X#X#X#X#X#X#X#X#X#X#X#X#X#X#X#X#X#X#X#X#X#X#X#X#X#X#X#X#X#X#X#X#X#X#X#X#X#X#X#X#X#X#X#X#X#X#X#X#X#X#X#X#X#X#X#X#X#X#X#X#X#X#X#X#X#X#X#X#X#X#X#X#X#X#X#X#X#X#X#X#X#X#X#X#X#X#X#X#X#X#X#X#X#X#X#X#X#X#X#X#X#X#X#X#X#X#X#X#X#X#X#X#X#X#X#X#X#X#X#X#X",
"[ [ [ [ [ [ [ [ [ [ [ [ [ [ [ [ [ [ [ [ [ [ [ [ [ [ [ [ [ [ [ [ [ [ [ [ [ [ [ [ [ [ [ [ [ [ [ [ [ [ [ [ [ [ [ [ [ [ [ [ [ [ [ [ [ [ [ [ [ [ [ [ [ [ [ [ [ [ [ [ [ [ [ [ [ [ [ [ [ [ [ [ [ [ [ [ [ [ [ [ [ [ [ [ [ [ [ [ [ [ [ [ [ [ [ [ [ [ [ [ [ [ [ [ [ [ [ [ [ [ [ [ [ [ [ [ [ [ [ [ [ [ [ [ [ [ [ [ [ [ [ [ [ [ [ [ [ [ [ [ [ [ [ [ [ [ [ [ [ [ [ [ [ [ [ [ [ [ [ [ [ [ [ [ [ [ [ [ [ [ [ [ [ [ [ [ [ [ [ [ [ [ [ [ [ [ [ [ [ [ [ [ [ [ [ [ [ [ [ [ [ [ [ [ [ [ [ [ [ [ [ ` Y N n n F.l a a j V.V.F.F.F.F.F.F.F.F.F.F.a a A.>X>X>X>X>X>X>X>X>X=X%X%X^.^.^.^.I.w.w.w.k a a a a a a a d d d d d f j l N.N.N.N.F.F.F.F.F.F.F.F.F.F.F.F.F.F.F.F.F.F.F.F.F.F.F.F.F.F.F.F.F.F.F.F.F.F.F.F.F.F.F.F.F.F.F.F.F.F.F.F.F.F.F.F.F.F.F.F.F.F.F.F.F.F.F.F.F.F.F.F.F.F.F.V.V.V.V.V.N.N.l k k k d a a a a a a a a a a a d f f j j k w.w.S.S.~.].].].].].].].].].].].].].].].].].].].].].].].].].].].].].].].].].].].].].].].].].].].].].].].].].].].].].].].].].].].].].].].].].].].].].].].].].].].].].].].].].].].].].].].].].].].].].].].].].].].].].].].].].].].].].].].].].].].].].].].].].].].].].].].].].].].].].].].].].].].].].].].].{.{.{.{.}.+X+X#X#X#X#X#X#X#X#X#X#X#X#X#X#X#X#X#X#X#X#X#X#X#X#X#X#X#X#X#X#X#X#X#X#X#X#X#X#X#X#X#X#X#X#X#X#X#X#X#X#X{.J.w.l j d l F.~. X$X8X$X#X#X#X#X#X#X#X#X#X#X#X#X#X#X#X#X#X#X#X#X#X#X#X#X#X#X#X#X#X#X#X#X#X#X#X#X#X#X#X#X#X#X#X#X#X#X#X#X#X#X#X#X#X#X#X#X#X#X#X#X#X#X#X#X#X#X#X#X#X#X#X#X#X#X#X#X#X#X#X#X#X#X#X#X#X#X#X#X#X#X#X#X#X#X#X#X#X#X#X#X#X#X#X#X#X#X#X#X#X#X#X#X#X#X#X#X#X#X#X#X#X#X#X#X#X#X#X#X#X#X#X#X#X#X#X#X#X#X#X#X#X#X#X#X#X#X#X#X#X#X#X#X#X#X#X#X#X#X#X#X#X#X#X#X#X",
"[ [ [ [ [ [ [ [ [ [ [ [ [ [ [ [ [ [ [ [ [ [ [ [ [ [ [ [ [ [ [ [ [ [ [ [ [ [ [ [ [ [ [ [ [ [ [ [ [ [ [ [ [ [ [ [ [ [ [ [ [ [ [ [ [ [ [ [ [ [ [ [ [ [ [ [ [ [ [ [ [ [ [ [ [ [ [ [ [ [ [ [ [ [ [ [ [ [ [ [ [ [ [ [ [ [ [ [ [ [ [ [ [ [ [ [ [ [ [ [ [ [ [ [ [ [ [ [ [ [ [ [ [ [ [ [ [ [ [ [ [ [ [ [ [ [ [ [ [ [ [ [ [ [ [ [ [ [ [ [ [ [ [ [ [ [ [ [ [ [ [ [ [ [ [ [ [ [ [ [ [ [ [ [ [ [ [ [ [ [ [ [ [ [ [ [ [ [ [ [ [ [ [ [ [ [ [ [ [ [ [ [ [ [ [ [ [ [ [ [ [ [ [ [ [ [ [ [ [ [ [ ` Y M n n F.l a a j F.V.F.F.F.F.F.F.F.F.F.F.a a A.>X>X=X*X*X^.^.^.^.I.w.w.k k a a a a a a a d d d d d d d l N.N.N.N.F.F.F.F.F.F.F.F.F.F.F.F.F.F.F.F.F.F.F.F.F.F.F.F.F.F.F.F.F.F.F.F.F.F.F.F.F.F.F.F.F.F.F.F.F.F.F.F.F.F.F.F.F.F.F.F.F.F.F.F.F.F.F.F.F.F.F.F.F.F.F.V.V.V.V.V.N.N.l k k k d a a a a a a a a a a a d d d f j k k w.S.S.~.~.].].].].].].].].].].].].].].].].].].].].].].].].].].].].].].].].].].].].].].].].].].].].].].].].].].].].].].].].].].].].].].].].].].].].].].].].].].].].].].].].].].].].].].].].].].].].].].].].].].].].].].].].].].].].].].].].].].].].].].].].].].].].].].].].].].].].].].].].].].].].].].].].].{.{.{.{.{.+X+X+X#X#X#X#X#X#X#X#X#X#X#X#X#X#X#X#X#X#X#X#X#X#X#X#X#X#X#X#X#X#X#X#X#X#X#X#X#X#X#X#X#X#X#X#X#X#X#X#X#X#X#X#X#X#X#X#X#X{.J.w.k f d l ~.$X8X8X$X#X#X#X#X#X#X#X#X#X#X#X#X#X#X#X#X#X#X#X#X#X#X#X#X#X#X#X#X#X#X#X#X#X#X#X#X#X#X#X#X#X#X#X#X#X#X#X#X#X#X#X#X#X#X#X#X#X#X#X#X#X#X#X#X#X#X#X#X#X#X#X#X#X#X#X#X#X#X#X#X#X#X#X#X#X#X#X#X#X#X#X#X#X#X#X#X#X#X#X#X#X#X#X#X#X#X#X#X#X#X#X#X#X#X#X#X#X#X#X#X#X#X#X#X#X#X#X#X#X#X#X#X#X#X#X#X#X#X#X#X#X#X#X#X#X#X#X#X#X#X#X#X#X#X#X#X#X#X#X#X#X#X#X",
"[ [ [ [ [ [ [ [ [ [ [ [ [ [ [ [ [ [ [ [ [ [ [ [ [ [ [ [ [ [ [ [ [ [ [ [ [ [ [ [ [ [ [ [ [ [ [ [ [ [ [ [ [ [ [ [ [ [ [ [ [ [ [ [ [ [ [ [ [ [ [ [ [ [ [ [ [ [ [ [ [ [ [ [ [ [ [ [ [ [ [ [ [ [ [ [ [ [ [ [ [ [ [ [ [ [ [ [ [ [ [ [ [ [ [ [ [ [ [ [ [ [ [ [ [ [ [ [ [ [ [ [ [ [ [ [ [ [ [ [ [ [ [ [ [ [ [ [ [ [ [ [ [ [ [ [ [ [ [ [ [ [ [ [ [ [ [ [ [ [ [ [ [ [ [ [ [ [ [ [ [ [ [ [ [ [ [ [ [ [ [ [ [ [ [ [ [ [ [ [ [ [ [ [ [ [ [ [ [ [ [ [ [ [ [ [ [ [ [ [ [ [ [ [ [ [ [ [ [ [ ` Y Y n n n F.l a a j F.F.F.F.F.F.F.F.F.F.F.F.a a w.^.^.U.w.w.k k a a a a a a a d d d d d d d l N.N.N.N.F.V.F.F.F.F.F.F.F.F.F.F.F.F.F.F.F.F.F.F.F.F.F.F.F.F.F.F.F.F.V.F.F.F.F.F.F.F.F.F.F.F.F.F.F.F.F.F.F.F.F.F.F.F.F.F.F.F.F.F.F.F.F.F.F.F.F.F.F.F.F.F.V.V.V.V.B.N.l l k k f a a a a a a a a a a a a d d d j k k w.w.S.S.~.].].].].].].].].].].].].].].].].].].].].].].].].].].].].].].].].].].].].].].].].].].].].].].].].].].].].].].].].].].].].].].].].].].].].].].].].].].].].].].].].].].].].].].].].].].].].].].].].].].].].].].].].].].].].].].].].].].].].].].].].].].].].].].].].].].].].].].].].].].].].].].].].].].].{.{.{.{.{.}.+X+X#X#X#X#X#X#X#X#X#X#X#X#X#X#X#X#X#X#X#X#X#X#X#X#X#X#X#X#X#X#X#X#X#X#X#X#X#X#X#X#X#X#X#X#X#X#X#X#X#X#X#X#X#X#X#X#X#X#X#X#X#X#X#X#X#X'.C.k j d l ~.}. X8X8X$X#X#X#X#X#X#X#X#X#X#X#X#X#X#X#X#X#X#X#X#X#X#X#X#X#X#X#X#X#X#X#X#X#X#X#X#X#X#X#X#X#X#X#X#X#X#X#X#X#X#X#X#X#X#X#X#X#X#X#X#X#X#X#X#X#X#X#X#X#X#X#X#X#X#X#X#X#X#X#X#X#X#X#X#X#X#X#X#X#X#X#X#X#X#X#X#X#X#X#X#X#X#X#X#X#X#X#X#X#X#X#X#X#X#X#X#X#X#X#X#X#X#X#X#X#X#X#X#X#X#X#X#X#X#X#X#X#X#X#X#X#X#X#X#X#X#X#X#X#X#X#X#X#X#X#X#X#X#X#X#X",
"[ [ [ [ [ [ [ [ [ [ [ [ [ [ [ [ [ [ [ [ [ [ [ [ [ [ [ [ [ [ [ [ [ [ [ [ [ [ [ [ [ [ [ [ [ [ [ [ [ [ [ [ [ [ [ [ [ [ [ [ [ [ [ [ [ [ [ [ [ [ [ [ [ [ [ [ [ [ [ [ [ [ [ [ [ [ [ [ [ [ [ [ [ [ [ [ [ [ [ [ [ [ [ [ [ [ [ [ [ [ [ [ [ [ [ [ [ [ [ [ [ [ [ [ [ [ [ [ [ [ [ [ [ [ [ [ [ [ [ [ [ [ [ [ [ [ [ [ [ [ [ [ [ [ [ [ [ [ [ [ [ [ [ [ [ [ [ [ [ [ [ [ [ [ [ [ [ [ [ [ [ [ [ [ [ [ [ [ [ [ [ [ [ [ [ [ [ [ [ [ [ [ [ [ [ [ [ [ [ [ [ [ [ [ [ [ [ [ [ [ [ [ [ [ [ [ [ [ [ ' ` Y Y n n n F.l a a j F.F.F.F.F.F.F.F.F.F.F.F.a a a a a a a a a a d d d d d g g l N.N.N.N.F.F.F.F.F.F.F.F.V.F.F.F.F.F.F.F.F.F.F.F.F.F.F.F.F.F.F.F.F.F.F.F.F.F.F.F.F.V.F.F.F.F.F.F.F.F.F.F.F.F.F.F.F.F.F.F.F.F.F.F.F.F.F.F.F.F.F.F.F.F.F.F.V.V.V.V.V.V.N.l k k f a a a a a a a a a a a a d d d d j k k w.S.S.~.].].].].].].].].].].].].].].].].].].].].].].].].].].].].].].].].].].].].].].].].].].].].].].].].].].].].].].].].].].].].].].].].].].].].].].].].].].].].].].].].].].].].].].].].].].].].].].].].].].].].].].].].].].].].].].].].].].].].].].].].].].].].].].].].].].].].].].].].].].].].].].].].].].].].].{.{.{.{.{.}.+X+X#X#X#X#X#X#X#X#X#X#X#X#X#X#X#X#X#X#X#X#X#X#X#X#X#X#X#X#X#X#X#X#X#X#X#X#X#X#X#X#X#X#X#X#X#X#X#X#X#X#X#X#X#X#X#X#X#X#X#X#X#X#X#X#X#X#X#X#X#X#X#X#X'.H.l k f d l ~.$X8X8X$X#X#X#X#X#X#X#X#X#X#X#X#X#X#X#X#X#X#X#X#X#X#X#X#X#X#X#X#X#X#X#X#X#X#X#X#X#X#X#X#X#X#X#X#X#X#X#X#X#X#X#X#X#X#X#X#X#X#X#X#X#X#X#X#X#X#X#X#X#X#X#X#X#X#X#X#X#X#X#X#X#X#X#X#X#X#X#X#X#X#X#X#X#X#X#X#X#X#X#X#X#X#X#X#X#X#X#X#X#X#X#X#X#X#X#X#X#X#X#X#X#X#X#X#X#X#X#X#X#X#X#X#X#X#X#X#X#X#X#X#X#X#X#X#X#X#X#X#X#X#X#X#X#X#X#X#X#X#X",
"[ [ [ [ [ [ [ [ [ [ [ [ [ [ [ [ [ [ [ [ [ [ [ [ [ [ [ [ [ [ [ [ [ [ [ [ [ [ [ [ [ [ [ [ [ [ [ [ [ [ [ [ [ [ [ [ [ [ [ [ [ [ [ [ [ [ [ [ [ [ [ [ [ [ [ [ [ [ [ [ [ [ [ [ [ [ [ [ [ [ [ [ [ [ [ [ [ [ [ [ [ [ [ [ [ [ [ [ [ [ [ [ [ [ [ [ [ [ [ [ [ [ [ [ [ [ [ [ [ [ [ [ [ [ [ [ [ [ [ [ [ [ [ [ [ [ [ [ [ [ [ [ [ [ [ [ [ [ [ [ [ [ [ [ [ [ [ [ [ [ [ [ [ [ [ [ [ [ [ [ [ [ [ [ [ [ [ [ [ [ [ [ [ [ [ [ [ [ [ [ [ [ [ [ [ [ [ [ [ [ [ [ [ [ [ [ [ [ [ [ [ [ [ [ [ [ [ [ [ ` Y Y Y n n n F.l a a j H.H.H.F.F.F.F.F.F.F.F.F.d a d d d d d d d d l N.N.N.N.F.F.F.F.F.F.F.F.F.F.F.F.F.F.F.F.F.F.F.F.F.F.F.F.F.F.F.F.F.F.F.F.F.F.F.F.F.F.F.F.F.F.F.F.V.F.F.F.F.F.F.F.F.F.F.F.F.F.F.F.F.F.F.F.F.F.F.F.F.F.F.F.V.V.V.V.V.N.N.l k k d d a a a a a a a a a a a a d d d j k k w.S.S.S.~.].].].].].].].].].].].].].].].].].].].].].].].].].].].].].].].].].].].].].].].].].].].].].].].].].].].].].].].].].].].].].].].].].].].].].].].].].].].].].].].].].].].].].].].].].].].].].].].].].].].].].].].].].].].].].].].].].].].].].].].].].].].].].].].].].].].].].].].].].].].].].].].].].].].].].].].{.{.{.{.}.+X+X+X#X#X#X#X#X#X#X#X#X#X#X#X#X#X#X#X#X#X#X#X#X#X#X#X#X#X#X#X#X#X#X#X#X#X#X#X#X#X#X#X#X#X#X#X#X#X#X#X#X#X#X#X#X#X#X#X#X#X#X#X#X#X#X#X#X#X#X#X#X#X#X#X#X#X#X#X#X#X#X'.C.k f d l ~.$X$X8X8X$X#X#X#X#X#X#X#X#X#X#X#X#X#X#X#X#X#X#X#X#X#X#X#X#X#X#X#X#X#X#X#X#X#X#X#X#X#X#X#X#X#X#X#X#X#X#X#X#X#X#X#X#X#X#X#X#X#X#X#X#X#X#X#X#X#X#X#X#X#X#X#X#X#X#X#X#X#X#X#X#X#X#X#X#X#X#X#X#X#X#X#X#X#X#X#X#X#X#X#X#X#X#X#X#X#X#X#X#X#X#X#X#X#X#X#X#X#X#X#X#X#X#X#X#X#X#X#X#X#X#X#X#X#X#X#X#X#X#X#X#X#X#X#X#X#X#X#X#X#X#X#X#X#X#X#X",
"[ [ [ [ [ [ [ [ [ [ [ [ [ [ [ [ [ [ [ [ [ [ [ [ [ [ [ [ [ [ [ [ [ [ [ [ [ [ [ [ [ [ [ [ [ [ [ [ [ [ [ [ [ [ [ [ [ [ [ [ [ [ [ [ [ [ [ [ [ [ [ [ [ [ [ [ [ [ [ [ [ [ [ [ [ [ [ [ [ [ [ [ [ [ [ [ [ [ [ [ [ [ [ [ [ [ [ [ [ [ [ [ [ [ [ [ [ [ [ [ [ [ [ [ [ [ [ [ [ [ [ [ [ [ [ [ [ [ [ [ [ [ [ [ [ [ [ [ [ [ [ [ [ [ [ [ [ [ [ [ [ [ [ [ [ [ [ [ [ [ [ [ [ [ [ [ [ [ [ [ [ [ [ [ [ [ [ [ [ [ [ [ [ [ [ [ [ [ [ [ [ [ [ [ [ [ [ [ [ [ [ [ [ [ [ [ [ [ [ [ [ [ [ [ [ [ [ [ ` Y Y Y Y n n n F.l a a j F.F.F.F.F.F.F.F.F.F.F.F.l d l l x.x.N.F.F.F.F.F.F.F.F.F.F.F.F.F.F.F.F.F.F.F.F.F.F.F.F.F.F.F.F.F.F.F.F.F.F.F.F.F.F.F.F.F.F.F.F.F.F.F.F.F.F.F.F.F.F.F.F.F.F.F.F.F.F.F.F.F.F.F.F.F.F.F.F.F.V.V.V.V.V.N.N.l k k k d a a a a a a a a a a a a d d d d j k k B.S.S.~.].].].].].].].].].].].].].].].].].].].].].].].].].].].].].].].].].].].].].].].].].].].].].].].].].].].].].].].].].].].].].].].].].].].].].].].].].].].].].].].].].].].].].].].].].].].].].].].].].].].].].].].].].].].].].].].].].].].].].].].].].].].].].].].].].].].].].].].].].].].].].].].].].].].].].].].].].{.{.{.{.{.+X+X+X#X#X#X#X#X#X#X#X#X#X#X#X#X#X#X#X#X#X#X#X#X#X#X#X#X#X#X#X#X#X#X#X#X#X#X#X#X#X#X#X#X#X#X#X#X#X#X#X#X#X#X#X#X#X#X#X#X#X#X#X#X#X#X#X#X#X#X#X#X#X#X#X#X#X#X#X#X#X#X#X#X#X#X#X#X#X'.C.l k f l F.~.$X8X8X$X$X#X#X#X#X#X#X#X#X#X#X#X#X#X#X#X#X#X#X#X#X#X#X#X#X#X#X#X#X#X#X#X#X#X#X#X#X#X#X#X#X#X#X#X#X#X#X#X#X#X#X#X#X#X#X#X#X#X#X#X#X#X#X#X#X#X#X#X#X#X#X#X#X#X#X#X#X#X#X#X#X#X#X#X#X#X#X#X#X#X#X#X#X#X#X#X#X#X#X#X#X#X#X#X#X#X#X#X#X#X#X#X#X#X#X#X#X#X#X#X#X#X#X#X#X#X#X#X#X#X#X#X#X#X#X#X#X#X#X#X#X#X#X#X#X#X#X#X#X#X#X#X#X",
"[ [ [ [ [ [ [ [ [ [ [ [ [ [ [ [ [ [ [ [ [ [ [ [ [ [ [ [ [ [ [ [ [ [ [ [ [ [ [ [ [ [ [ [ [ [ [ [ [ [ [ [ [ [ [ [ [ [ [ [ [ [ [ [ [ [ [ [ [ [ [ [ [ [ [ [ [ [ [ [ [ [ [ [ [ [ [ [ [ [ [ [ [ [ [ [ [ [ [ [ [ [ [ [ [ [ [ [ [ [ [ [ [ [ [ [ [ [ [ [ [ [ [ [ [ [ [ [ [ [ [ [ [ [ [ [ [ [ [ [ [ [ [ [ [ [ [ [ [ [ [ [ [ [ [ [ [ [ [ [ [ [ [ [ [ [ [ [ [ [ [ [ [ [ [ [ [ [ [ [ [ [ [ [ [ [ [ [ [ [ [ [ [ [ [ [ [ [ [ [ [ [ [ [ [ [ [ [ [ [ [ [ [ [ [ [ [ [ [ [ [ [ [ [ [ [ [ ` Y Y Y Y Y n n n F.l a a j F.F.F.F.F.F.F.F.F.F.F.F.F.F.F.F.F.C.F.F.F.F.F.F.F.F.F.F.F.F.F.F.F.F.F.F.F.F.F.F.F.F.F.F.F.F.F.F.F.F.F.F.F.F.F.F.F.F.F.F.F.F.F.F.F.F.F.F.F.F.F.F.F.F.F.F.F.F.F.F.F.F.F.F.F.F.V.V.V.V.N.B.l l k k d a a a a a a a a a a a a a d d d j k k w.S.S.S.~.].].].].].].].].].].].].].].].].].].].].].].].].].].].].].].].].].].].].].].].].].].].].].].].].].].].].].].].].].].].].].].].].].].].].].].].].].].].].].].].].].].].].].].].].].].].].].].].].].].].].].].].].].].].].].].].].].].].].].].].].].].].].].].].].].].].].].].].].].].].].].].].].].].].].].].].].].].{.{.{.{.{.+X+X+X#X#X#X#X#X#X#X#X#X#X#X#X#X#X#X#X#X#X#X#X#X#X#X#X#X#X#X#X#X#X#X#X#X#X+X#X#X#X#X#X#X#X#X#X#X#X#X#X#X#X#X#X#X#X#X#X#X#X#X#X#X#X#X#X#X#X#X#X#X#X#X#X#X#X#X#X#X#X#X#X#X#X#X#X#X#X#X#X#X#X#X#X#X#X'.C.k f d l ~.$XgXgX8X$X#X#X#X#X#X#X#X#X#X#X#X#X#X#X#X#X#X#X#X#X#X#X#X#X#X#X#X#X#X#X#X#X#X#X#X#X#X#X#X#X#X#X#X#X#X#X#X#X#X#X#X#X#X#X#X#X#X#X#X#X#X#X#X#X#X#X#X#X#X#X#X#X#X#X#X#X#X#X#X#X#X#X#X#X#X#X#X#X#X#X#X#X#X#X#X#X#X#X#X#X#X#X#X#X#X#X#X#X#X#X#X#X#X#X#X#X#X#X#X#X#X#X#X#X#X#X#X#X#X#X#X#X#X#X#X#X#X#X#X#X#X#X#X#X#X#X#X#X#X#X",
"[ [ [ [ [ [ [ [ [ [ [ [ [ [ [ [ [ [ [ [ [ [ [ [ [ [ [ [ [ [ [ [ [ [ [ [ [ [ [ [ [ [ [ [ [ [ [ [ [ [ [ [ [ [ [ [ [ [ [ [ [ [ [ [ [ [ [ [ [ [ [ [ [ [ [ [ [ [ [ [ [ [ [ [ [ [ [ [ [ [ [ [ [ [ [ [ [ [ [ [ [ [ [ [ [ [ [ [ [ [ [ [ [ [ [ [ [ [ [ [ [ [ [ [ [ [ [ [ [ [ [ [ [ [ [ [ [ [ [ [ [ [ [ [ [ [ [ [ [ [ [ [ [ [ [ [ [ [ [ [ [ [ [ [ [ [ [ [ [ [ [ [ [ [ [ [ [ [ [ [ [ [ [ [ [ [ [ [ [ [ [ [ [ [ [ [ [ [ [ [ [ [ [ [ [ [ [ [ [ [ [ [ [ [ [ [ [ [ [ [ [ [ [ [ [ [ ` ` Y Y Y Y Y n n n F.l a a j F.F.F.F.F.F.F.F.F.F.F.F.F.F.F.C.C.F.F.F.F.F.F.F.F.F.F.F.F.F.F.F.F.F.F.F.F.F.F.F.F.F.F.F.F.F.F.F.F.F.F.F.F.F.F.F.F.F.F.F.F.F.F.F.F.F.F.F.F.F.F.F.F.F.F.F.F.F.F.V.V.V.V.V.V.N.l k k d a a a a a a a a a a a a a d d f f j k k w.S.S.~.].].].].].].].].].].].].].].].].].].].].].].].].].].].].].].].].].].].].].].].].].].].].].].].].].].].].].].].].].].].].].].].].].].].].].].].].].].].].].].].].].].].].].].].].].].].].].].].].].].].].].].].].].].].].].].].].].].].].].].].].].].].].].].].].].].].].].].].].].].].].].].].].].].].].].].].].].].].].{.{.{.{.{.}.+X+X#X#X#X#X#X#X#X#X#X#X#X#X#X#X#X#X#X#X#X#X#X#X#X#X#X#X#X#X#X#X#X#X#X#X#X#X#X#X}.}.+X#X#X#X#X#X#X#X#X#X#X#X#X#X#X#X#X#X#X#X#X#X#X#X#X#X#X#X#X#X#X#X#X#X#X#X#X#X#X#X#X#X#X#X#X#X#X#X#X#X#X#X#X#X#X#X#X#X#X#X#X'.C.k j d l ~. X$X8X8X$X$X#X#X#X#X#X#X#X#X#X#X#X#X#X#X#X#X#X#X#X#X#X#X#X#X#X#X#X#X#X#X#X#X#X#X#X#X#X#X#X#X#X#X#X#X#X#X#X#X#X#X#X#X#X#X#X#X#X#X#X#X#X#X#X#X#X#X#X#X#X#X#X#X#X#X#X#X#X#X#X#X#X#X#X#X#X#X#X#X#X#X#X#X#X#X#X#X#X#X#X#X#X#X#X#X#X#X#X#X#X#X#X#X#X#X#X#X#X#X#X#X#X#X#X#X#X#X#X#X#X#X#X#X#X#X#X#X#X#X#X#X#X#X#X#X#X#X#X",
"[ [ [ [ [ [ [ [ [ [ [ [ [ [ [ [ [ [ [ [ [ [ [ [ [ [ [ [ [ [ [ [ [ [ [ [ [ [ [ [ [ [ [ [ [ [ [ [ [ [ [ [ [ [ [ [ [ [ [ [ [ [ [ [ [ [ [ [ [ [ [ [ [ [ [ [ [ [ [ [ [ [ [ [ [ [ [ [ [ [ [ [ [ [ [ [ [ [ [ [ [ [ [ [ [ [ [ [ [ [ [ [ [ [ [ [ [ [ [ [ [ [ [ [ [ [ [ [ [ [ [ [ [ [ [ [ [ [ [ [ [ [ [ [ [ [ [ [ [ [ [ [ [ [ [ [ [ [ [ [ [ [ [ [ [ [ [ [ [ [ [ [ [ [ [ [ [ [ [ [ [ [ [ [ [ [ [ [ [ [ [ [ [ [ [ [ [ [ [ [ [ [ [ [ [ [ [ [ [ [ [ [ [ [ [ [ [ [ [ [ [ [ [ [ [ ` ` Y Y Y Y Y Y n n n F.l a a j F.F.F.F.F.F.F.F.F.F.F.F.F.F.F.C.C.F.F.F.F.F.F.F.F.F.F.F.F.F.F.F.F.F.F.F.F.F.F.F.F.F.F.F.F.F.F.F.F.F.F.F.F.F.F.F.F.F.F.F.F.F.F.F.F.F.F.F.F.F.F.F.V.V.V.V.V.N.N.l k k d d a a a a a a a a a a a a d d d d j k k w.S.S.S.~.].].].].].].].].].].].].].].].].].].].].].].].].].].].].].].].].].].].].].].].].].].].].].].].].].].].].].].].].].].].].].].].].].].].].].].].].].].].].].].].].].].].].].].].].].].].].].].].].].].].].].].].].].].].].].].].].].].].].].].].].].].].].].].].].].].].].].].].].].].].].].].].].].].].].].].].].].].].].].{.{.{.{.{.}.+X+X#X#X#X#X#X#X#X#X#X#X#X#X#X#X#X#X#X#X#X#X#X#X#X#X#X#X#X#X#X#X#X#X#X#X#X#X#X#X#X#X#X#X+X+X#X#X#X#X#X#X#X#X#X#X#X#X#X#X#X#X#X#X#X#X#X#X#X#X#X#X#X#X#X#X#X#X#X#X#X#X#X#X#X#X#X#X#X#X#X#X#X#X#X#X#X#X#X#X#X#X#X#X#X#X#X#X#X#X'.H.V.k d d o.).$X8XgX8X$X#X#X#X#X#X#X#X#X#X#X#X#X#X#X#X#X#X#X#X#X#X#X#X#X#X#X#X#X#X#X#X#X#X#X#X#X#X#X#X#X#X#X#X#X#X#X#X#X#X#X#X#X#X#X#X#X#X#X#X#X#X#X#X#X#X#X#X#X#X#X#X#X#X#X#X#X#X#X#X#X#X#X#X#X#X#X#X#X#X#X#X#X#X#X#X#X#X#X#X#X#X#X#X#X#X#X#X#X#X#X#X#X#X#X#X#X#X#X#X#X#X#X#X#X#X#X#X#X#X#X#X#X#X#X#X#X#X#X#X#X#X#X#X#X#X",
"[ [ [ [ [ [ [ [ [ [ [ [ [ [ [ [ [ [ [ [ [ [ [ [ [ [ [ [ [ [ [ [ [ [ [ [ [ [ [ [ [ [ [ [ [ [ [ [ [ [ [ [ [ [ [ [ [ [ [ [ [ [ [ [ [ [ [ [ [ [ [ [ [ [ [ [ [ [ [ [ [ [ [ [ [ [ [ [ [ [ [ [ [ [ [ [ [ [ [ [ [ [ [ [ [ [ [ [ [ [ [ [ [ [ [ [ [ [ [ [ [ [ [ [ [ [ [ [ [ [ [ [ [ [ [ [ [ [ [ [ [ [ [ [ [ [ [ [ [ [ [ [ [ [ [ [ [ [ [ [ [ [ [ [ [ [ [ [ [ [ [ [ [ [ [ [ [ [ [ [ [ [ [ [ [ [ [ [ [ [ [ [ [ [ [ [ [ [ [ [ [ [ [ [ [ [ [ [ [ [ [ [ [ [ [ [ [ [ [ [ [ [ [ [ ` ` Y Y Y Y Y Y Y n n n F.l a a j F.F.F.F.F.F.F.F.F.F.F.F.F.F.F.C.C.F.F.F.F.F.F.F.F.F.F.F.F.F.F.F.F.F.F.F.F.F.F.F.F.F.F.F.F.F.F.F.F.F.F.F.F.F.F.F.F.F.F.F.F.F.F.F.F.V.V.V.V.V.N.N.l k l k d a a a a a a a a a a a a a d d d j j k w.w.S.S.~.].].].].].].].].].].].].].].].].].].].].].].].].].].].].].].].].].].].].].].].].].].].].].].].].].].].].].].].].].].].].].].].].].].].].].].].].].].].].].].].].].].].].].].].].].].].].].].].].].].].].].].].].].].].].].].].].].].].].].].].].].].].].].].].].].].].].].].].].].].].].].].].].].].].].].].].].].].].].].].].{.{.{.{.{.}.+X+X#X#X#X#X#X#X#X#X#X#X#X#X#X#X#X#X#X#X#X#X#X#X#X#X#X#X#X#X#X#X#X#X#X#X#X#X#X#X#X#X#X#X#X#X#X#X#X#X#X#X#X#X#X#X#X#X#X#X#X#X#X#X#X#X#X#X#X#X#X#X#X#X#X#X#X#X#X#X#X#X#X#X#X#X#X#X#X#X#X#X#X#X#X#X#X#X#X#X#X#X#X#X#X#X#X#X#X#X#X#X#X#X#X#X#X#X'.C.k f d o.).$X8X8X8X$X$X#X#X#X#X#X#X#X#X#X#X#X#X#X#X#X#X#X#X#X#X#X#X#X#X#X#X#X#X#X#X#X#X#X#X#X#X#X#X#X#X#X#X#X#X#X#X#X#X#X#X#X#X#X#X#X#X#X#X#X#X#X#X#X#X#X#X#X#X#X#X#X#X#X#X#X#X#X#X#X#X#X#X#X#X#X#X#X#X#X#X#X#X#X#X#X#X#X#X#X#X#X#X#X#X#X#X#X#X#X#X#X#X#X#X#X#X#X#X#X#X#X#X#X#X#X#X#X#X#X#X#X#X#X#X#X#X#X#X#X#X#X#X",
"[ [ [ [ [ [ [ [ [ [ [ [ [ [ [ [ [ [ [ [ [ [ [ [ [ [ [ [ [ [ [ [ [ [ [ [ [ [ [ [ [ [ [ [ [ [ [ [ [ [ [ [ [ [ [ [ [ [ [ [ [ [ [ [ [ [ [ [ [ [ [ [ [ [ [ [ [ [ [ [ [ [ [ [ [ [ [ [ [ [ [ [ [ [ [ [ [ [ [ [ [ [ [ [ [ [ [ [ [ [ [ [ [ [ [ [ [ [ [ [ [ [ [ [ [ [ [ [ [ [ [ [ [ [ [ [ [ [ [ [ [ [ [ [ [ [ [ [ [ [ [ [ [ [ [ [ [ [ [ [ [ [ [ [ [ [ [ [ [ [ [ [ [ [ [ [ [ [ [ [ [ [ [ [ [ [ [ [ [ [ [ [ [ [ [ [ [ [ [ [ [ [ [ [ [ [ [ [ [ [ [ [ [ [ [ [ [ [ [ [ [ [ [ ' ` Y Y Y Y Y Y Y Y n n n F.l a a j F.F.F.F.F.F.F.F.F.F.F.F.F.F.F.C.C.F.F.F.F.F.F.F.F.F.F.F.F.F.F.F.F.F.F.F.F.F.F.F.F.F.F.F.F.F.F.F.F.F.F.F.F.F.F.F.F.F.F.V.V.V.V.N.N.l k k k d a a a a a a a a a a a a a d d d d j j k w.S.S.~.~.].].].].].].].].].].].].].].].].].].].].].].].].].].].].].].].].].].].].].].].].].].].].].].].].].].].].].].].].].].].].].].].].].].].].].].].].].].].].].].].].].].].].].].].].].].].].].].].].].].].].].].].].].].].].].].].].].].].].].].].].].].].].].].].].].].].].].].].].].].].].].].].].].].].].].].].].].].].].].].].].{.{.{.{.{.}.+X+X#X#X#X#X#X#X#X#X#X#X#X#X#X#X#X#X#X#X#X#X#X#X#X#X#X#X#X#X#X#X#X#X#X#X#X#X#X#X#X#X#X#X#X#X#X#X#X#X#X#X#X#X#X#X#X#X#X#X#X#X#X#X#X#X#X#X#X#X#X#X#X#X#X#X#X#X#X#X#X#X#X#X#X#X#X#X#X#X#X#X#X#X#X#X#X#X#X#X#X#X#X#X#X#X#X#X#X#X#X#X#X#X#X#X#X#X#X#X#X#X#X#X#X'.C.l k f o.F.).$X8XgX8X$X#X#X#X#X#X#X#X#X#X#X#X#X#X#X#X#X#X#X#X#X#X#X#X#X#X#X#X#X#X#X#X#X#X#X#X#X#X#X#X#X#X#X#X#X#X#X#X#X#X#X#X#X#X#X#X#X#X#X#X#X#X#X#X#X#X#X#X#X#X#X#X#X#X#X#X#X#X#X#X#X#X#X#X#X#X#X#X#X#X#X#X#X#X#X#X#X#X#X#X#X#X#X#X#X#X#X#X#X#X#X#X#X#X#X#X#X#X#X#X#X#X#X#X#X#X#X#X#X#X#X#X#X#X#X#X#X#X#X#X#X",
"[ [ [ [ [ [ [ [ [ [ [ [ [ [ [ [ [ [ [ [ [ [ [ [ [ [ [ [ [ [ [ [ [ [ [ [ [ [ [ [ [ [ [ [ [ [ [ [ [ [ [ [ [ [ [ [ [ [ [ [ [ [ [ [ [ [ [ [ [ [ [ [ [ [ [ [ [ [ [ [ [ [ [ [ [ [ [ [ [ [ [ [ [ [ [ [ [ [ [ [ [ [ [ [ [ [ [ [ [ [ [ [ [ [ [ [ [ [ [ [ [ [ [ [ [ [ [ [ [ [ [ [ [ [ [ [ [ [ [ [ [ [ [ [ [ [ [ [ [ [ [ [ [ [ [ [ [ [ [ [ [ [ [ [ [ [ [ [ [ [ [ [ [ [ [ [ [ [ [ [ [ [ [ [ [ [ [ [ [ [ [ [ [ [ [ [ [ [ [ [ [ [ [ [ [ [ [ [ [ [ [ [ [ [ [ [ [ [ [ [ [ [ ` ` Y Y Y Y Y Y Y Y U n n n F.l a a j F.F.F.F.F.F.F.F.F.F.F.F.F.F.F.F.F.F.F.F.F.F.F.F.F.F.F.F.F.F.F.F.F.F.F.F.F.F.F.F.F.F.F.F.F.F.F.F.F.F.F.F.V.V.V.V.V.V.N.l k k d a a a a a a a a a a a a a a d d d j j j w.w.S.S.~.].].].].].].].].].].].].].].].].].].].].].].].].].].].].].].].].].].].].].].].].].].].].].].].].].].].].].].].].].].].].].].].].].].].].].].].].].].].].].].].].].].].].].].].].].].].].].].].].].].].].].].].].].].].].].].].].].].].].].].].].].].].].].].].].].].].].].].].].].].].].].].].].].].].].].].].].].].].].].].].].].].{.{.{.{.{.}.+X+X#X#X#X#X#X#X#X#X#X#X#X#X#X#X#X#X#X#X#X#X#X#X#X#X#X#X#X#X#X#X#X#X#X#X#X#X#X#X#X#X#X#X#X#X#X#X#X#X#X#X#X#X#X#X#X#X#X#X#X#X#X#X#X#X#X#X#X#X#X#X#X#X#X#X#X#X#X#X#X#X#X#X#X#X#X#X#X#X#X#X#X#X#X#X#X#X#X#X#X#X#X#X#X#X#X#X#X#X#X#X#X#X#X#X#X#X#X#X#X#X#X#X#X#X#X#X#X#X#X#X#X'.C.k d d l ).$X8XgX8X$X$X#X#X#X#X#X#X#X#X#X#X#X#X#X#X#X#X#X#X#X#X#X#X#X#X#X#X#X#X#X#X#X#X#X#X#X#X#X#X#X#X#X#X#X#X#X#X#X#X#X#X#X#X#X#X#X#X#X#X#X#X#X#X#X#X#X#X#X#X#X#X#X#X#X#X#X#X#X#X#X#X#X#X#X#X#X#X#X#X#X#X#X#X#X#X#X#X#X#X#X#X#X#X#X#X#X#X#X#X#X#X#X#X#X#X#X#X#X#X#X#X#X#X#X#X#X#X#X#X#X#X#X#X#X#X#X#X#X",
"[ [ [ [ [ [ [ [ [ [ [ [ [ [ [ [ [ [ [ [ [ [ [ [ [ [ [ [ [ [ [ [ [ [ [ [ [ [ [ [ [ [ [ [ [ [ [ [ [ [ [ [ [ [ [ [ [ [ [ [ [ [ [ [ [ [ [ [ [ [ [ [ [ [ [ [ [ [ [ [ [ [ [ [ [ [ [ [ [ [ [ [ [ [ [ [ [ [ [ [ [ [ [ [ [ [ [ [ [ [ [ [ [ [ [ [ [ [ [ [ [ [ [ [ [ [ [ [ [ [ [ [ [ [ [ [ [ [ [ [ [ [ [ [ [ [ [ [ [ [ [ [ [ [ [ [ [ [ [ [ [ [ [ [ [ [ [ [ [ [ [ [ [ [ [ [ [ [ [ [ [ [ [ [ [ [ [ [ [ [ [ [ [ [ [ [ [ [ [ [ [ [ [ [ [ [ [ [ [ [ [ [ [ [ [ [ [ [ [ [ ' ` Y Y Y Y Y Y Y Y Y Y U n n n F.l a a j F.F.F.V.F.F.F.F.F.F.F.F.F.F.F.F.F.F.F.F.F.F.F.F.F.F.F.F.F.F.F.F.F.F.F.F.F.F.F.F.F.F.F.F.F.V.V.V.V.V.V.V.l k k d d a a a a a a a a a a a a a d d d d f j j w.S.S.~.].].].].].].].].].].].].].].].].].].].].].].].].].].].].].].].].].].].].].].].].].].].].].].].].].].].].].].].].].].].].].].].].].].].].].].].].].].].].].].].].].].].].].].].].].].].].].].].].].].].].].].].].].].].].].].].].].].].].].].].].].].].].].].].].].].].].].].].].].].].].].].].].].].].].].].].].].].].].].].].].].].].{.{.{.{.{.{.+X+X+X#X#X#X#X#X#X#X#X#X#X#X#X#X#X#X#X#X#X#X#X#X#X#X#X#X#X#X#X#X#X#X#X#X#X#X#X#X#X#X#X#X#X#X#X#X#X#X#X#X#X#X#X#X#X#X#X#X#X#X#X#X#X#X#X#X#X#X#X#X#X#X#X#X#X#X#X#X#X#X#X#X#X#X#X#X#X#X#X#X#X#X#X#X#X#X#X#X#X#X#X#X#X#X#X#X#X#X#X#X#X#X#X#X#X#X#X#X#X#X#X#X#X#X#X#X#X#X#X#X#X#X#X#X#X#X#X#X#X'.V.l j d o.). X$X8XgX8X$X#X#X#X#X#X#X#X#X#X#X#X#X#X#X#X#X#X#X#X#X#X#X#X#X#X#X#X#X#X#X#X#X#X#X#X#X#X#X#X#X#X#X#X#X#X#X#X#X#X#X#X#X#X#X#X#X#X#X#X#X#X#X#X#X#X#X#X#X#X#X#X#X#X#X#X#X#X#X#X#X#X#X#X#X#X#X#X#X#X#X#X#X#X#X#X#X#X#X#X#X#X#X#X#X#X#X#X#X#X#X#X#X#X#X#X#X#X#X#X#X#X#X#X#X#X#X#X#X#X#X#X#X#X#X#X",
"[ [ [ [ [ [ [ [ [ [ [ [ [ [ [ [ [ [ [ [ [ [ [ [ [ [ [ [ [ [ [ [ [ [ [ [ [ [ [ [ [ [ [ [ [ [ [ [ [ [ [ [ [ [ [ [ [ [ [ [ [ [ [ [ [ [ [ [ [ [ [ [ [ [ [ [ [ [ [ [ [ [ [ [ [ [ [ [ [ [ [ [ [ [ [ [ [ [ [ [ [ [ [ [ [ [ [ [ [ [ [ [ [ [ [ [ [ [ [ [ [ [ [ [ [ [ [ [ [ [ [ [ [ [ [ [ [ [ [ [ [ [ [ [ [ [ [ [ [ [ [ [ [ [ [ [ [ [ [ [ [ [ [ [ [ [ [ [ [ [ [ [ [ [ [ [ [ [ [ [ [ [ [ [ [ [ [ [ [ [ [ [ [ [ [ [ [ [ [ [ [ [ [ [ [ [ [ [ [ [ [ [ [ [ [ [ [ [ [ ' ` Y Y Y Y Y Y Y Y Y Y Y U n n n F.l a a j F.F.F.F.F.F.F.F.F.F.F.F.F.F.F.F.F.F.F.F.F.F.F.F.F.F.F.F.F.F.F.F.F.F.F.F.F.F.V.V.V.V.V.N.N.l k k k d a a a a a a a a a a a a a a d d d f j k w.S.S.S.~.].].].].].].].].].].].].].].].].].].].].].].].].].].].].].].].].].].].].].].].].].].].].].].].].].].].].].].].].].].].].].].].].].].].].].].].].].].].].].].].].].].].].].].].].].].].].].].].].].].].].].].].].].].].].].].].].].].].].].].].].].].].].].].].].].].].].].].].].].].].].].].].].].].].].].].].].].].].].].].].].].].].{.{.{.{.{.{.}.+X+X+X#X#X#X#X#X#X#X#X#X#X#X#X#X#X#X#X#X#X#X#X#X#X#X#X#X#X#X#X#X#X#X#X#X#X#X#X#X#X#X#X#X#X#X#X#X#X#X#X#X#X#X#X#X#X#X#X#X#X#X#X#X#X#X#X#X#X#X#X#X#X#X#X#X#X#X#X#X#X#X#X#X#X#X#X#X#X#X#X#X#X#X#X#X#X#X#X#X#X#X#X#X#X#X#X#X#X#X#X#X#X#X#X#X#X#X#X#X#X#X#X#X#X#X#X#X#X#X#X#X#X#X#X#X#X#X#X#X#X#X#X#X#X#X#X#X#XH.B.k f d l ).$X8XgX8X$X$X#X#X#X#X#X#X#X#X#X#X#X#X#X#X#X#X#X#X#X#X#X#X#X#X#X#X#X#X#X#X#X#X#X#X#X#X#X#X#X#X#X#X#X#X#X#X#X#X#X#X#X#X#X#X#X#X#X#X#X#X#X#X#X#X#X#X#X#X#X#X#X#X#X#X#X#X#X#X#X#X#X#X#X#X#X#X#X#X#X#X#X#X#X#X#X#X#X#X#X#X#X#X#X#X#X#X#X#X#X#X#X#X#X#X#X#X#X#X#X#X#X#X#X#X#X#X#X#X#X#X#X#X",
"[ [ [ [ [ [ [ [ [ [ [ [ [ [ [ [ [ [ [ [ [ [ [ [ [ [ [ [ [ [ [ [ [ [ [ [ [ [ [ [ [ [ [ [ [ [ [ [ [ [ [ [ [ [ [ [ [ [ [ [ [ [ [ [ [ [ [ [ [ [ [ [ [ [ [ [ [ [ [ [ [ [ [ [ [ [ [ [ [ [ [ [ [ [ [ [ [ [ [ [ [ [ [ [ [ [ [ [ [ [ [ [ [ [ [ [ [ [ [ [ [ [ [ [ [ [ [ [ [ [ [ [ [ [ [ [ [ [ [ [ [ [ [ [ [ [ [ [ [ [ [ [ [ [ [ [ [ [ [ [ [ [ [ [ [ [ [ [ [ [ [ [ [ [ [ [ [ [ [ [ [ [ [ [ [ [ [ [ [ [ [ [ [ [ [ [ [ [ [ [ [ [ [ [ [ [ [ [ [ [ [ [ [ [ [ [ [ ' ` ` Y Y Y Y Y Y Y Y Y Y Y Y U n n n F.l a a j F.F.F.F.F.F.F.F.F.F.F.F.F.F.F.F.F.F.F.F.F.F.F.F.F.F.F.F.F.F.F.V.V.V.V.V.N.N.l k k k d a a a a a a a a a a a a a a d d d d f j j w.S.S.~.].].].].].].].].].].].].].].].].].].].].].].].].].].].].].].].].].].].].].].].].].].].].].].].].].].].].].].].].].].].].].].].].].].].].].].].].].].].].].].].].].].].].].].].].].].].].].].].].].].].].].].].].].].].].].].].].].].].].].].].].].].].].].].].].].].].].].].].].].].].].].].].].].].].].].].].].].].].].].].].].].].].].].{.{.{.{.{.}.+X+X+X#X#X#X#X#X#X#X#X#X#X#X#X#X#X#X#X#X#X#X#X#X#X#X#X#X#X#X#X#X#X#X#X#X#X#X#X#X#X#X#X#X#X#X#X#X#X#X#X#X#X#X#X#X#X#X#X#X#X#X#X#X#X#X#X#X#X#X#X#X#X#X#X#X#X#X#X#X#X#X#X#X#X#X#X#X#X#X#X#X#X#X#X#X#X#X#X#X#X#X#X#X#X#X#X#X#X#X#X#X#X#X#X#X#X#X#X#X#X#X#X#X#X#X#X#X#X#X#X#X#X#X#X#X#X#X#X#X#X#X#X#X#X#X#X#X#X#X#X#X#X#X#X#X#X'.B.k d d l ). X8X8XgX8X$X#X#X#X#X#X#X#X#X#X#X#X#X#X#X#X#X#X#X#X#X#X#X#X#X#X#X#X#X#X#X#X#X#X#X#X#X#X#X#X#X#X#X#X#X#X#X#X#X#X#X#X#X#X#X#X#X#X#X#X#X#X#X#X#X#X#X#X#X#X#X#X#X#X#X#X#X#X#X#X#X#X#X#X#X#X#X#X#X#X#X#X#X#X#X#X#X#X#X#X#X#X#X#X#X#X#X#X#X#X#X#X#X#X#X#X#X#X#X#X#X#X#X#X#X#X#X#X#X#X#X",
"[ [ [ [ [ [ [ [ [ [ [ [ [ [ [ [ [ [ [ [ [ [ [ [ [ [ [ [ [ [ [ [ [ [ [ [ [ [ [ [ [ [ [ [ [ [ [ [ [ [ [ [ [ [ [ [ [ [ [ [ [ [ [ [ [ [ [ [ [ [ [ [ [ [ [ [ [ [ [ [ [ [ [ [ [ [ [ [ [ [ [ [ [ [ [ [ [ [ [ [ [ [ [ [ [ [ [ [ [ [ [ [ [ [ [ [ [ [ [ [ [ [ [ [ [ [ [ [ [ [ [ [ [ [ [ [ [ [ [ [ [ [ [ [ [ [ [ [ [ [ [ [ [ [ [ [ [ [ [ [ [ [ [ [ [ [ [ [ [ [ [ [ [ [ [ [ [ [ [ [ [ [ [ [ [ [ [ [ [ [ [ [ [ [ [ [ [ [ [ [ [ [ [ [ [ [ [ [ [ [ [ [ [ [ [ [ ' ` Y Y Y Y Y Y Y Y Y Y Y Y Y Y U n n n F.l a a j F.F.F.F.F.F.F.F.F.F.F.F.F.F.F.F.F.F.F.F.F.F.F.F.F.V.V.V.V.V.V.l l l k d a a a a a a a a a a a a a a a d d d f k j w.S.S.S.~.].].].].].].].].].].].].].].].].].].].].].].].].].].].].].].].].].].].].].].].].].].].].].].].].].].].].].].].].].].].].].].].].].].].].].].].].].].].].].].].].].].].].].].].].].].].].].].].].].].].].].].].].].].].].].].].].].].].].].].].].].].].].].].].].].].].].].].].].].].].].].].].].].].].].].].].].].].].].].].].].].].].].].{.{.{.{.{.{.}.+X+X+X#X#X#X#X#X#X#X#X#X#X#X#X#X#X#X#X#X#X#X#X#X#X#X#X#X#X#X#X#X#X#X#X#X#X#X#X#X#X#X#X#X#X#X#X#X#X#X#X#X#X#X#X#X#X#X#X#X#X#X#X#X#X#X#X#X#X#X#X#X#X#X#X#X#X#X#X#X#X#X#X#X#X#X#X#X#X#X#X#X#X#X#X#X#X#X#X#X#X#X#X#X#X#X#X#X#X#X#X#X#X#X#X#X#X#X#X#X#X#X#X#X#X#X#X#X#X#X#X#X#X#X#X#X#X#X#X#X#X#X#X#X#X#X#X#X#X#X#X#X#X#X#X#X#X#X#X#X#X#X#X#X'.B.k j d d F.).$X8XgX8X$X$X#X#X#X#X#X#X#X#X#X#X#X#X#X#X#X#X#X#X#X#X#X#X#X#X#X#X#X#X#X#X#X#X#X#X#X#X#X#X#X#X#X#X#X#X#X#X#X#X#X#X#X#X#X#X#X#X#X#X#X#X#X#X#X#X#X#X#X#X#X#X#X#X#X#X#X#X#X#X#X#X#X#X#X#X#X#X#X#X#X#X#X#X#X#X#X#X#X#X#X#X#X#X#X#X#X#X#X#X#X#X#X#X#X#X#X#X#X#X#X#X#X#X#X#X#X#X#X",
"[ [ [ [ [ [ [ [ [ [ [ [ [ [ [ [ [ [ [ [ [ [ [ [ [ [ [ [ [ [ [ [ [ [ [ [ [ [ [ [ [ [ [ [ [ [ [ [ [ [ [ [ [ [ [ [ [ [ [ [ [ [ [ [ [ [ [ [ [ [ [ [ [ [ [ [ [ [ [ [ [ [ [ [ [ [ [ [ [ [ [ [ [ [ [ [ [ [ [ [ [ [ [ [ [ [ [ [ [ [ [ [ [ [ [ [ [ [ [ [ [ [ [ [ [ [ [ [ [ [ [ [ [ [ [ [ [ [ [ [ [ [ [ [ [ [ [ [ [ [ [ [ [ [ [ [ [ [ [ [ [ [ [ [ [ [ [ [ [ [ [ [ [ [ [ [ [ [ [ [ [ [ [ [ [ [ [ [ [ [ [ [ [ [ [ [ [ [ [ [ [ [ [ [ [ [ [ [ [ [ [ [ [ [ ' ` ` Y Y Y Y Y Y Y Y Y Y Y Y Y Y Y U n n n F.l a a j F.F.F.F.F.F.F.F.F.F.F.F.F.F.F.F.F.F.V.V.V.V.V.V.V.l k k d d a a a a a a a a a a a a a a d d d d f j j w.S.S.~.].].].].].].].].].].].].].].].].].].].].].].].].].].].].].].].].].].].].].].].].].].].].].].].].].].].].].].].].].].].].].].].].].].].].].].].].].].].].].].].].].].].].].].].].].].].].].].].].].].].].].].].].].].].].].].].].].].].].].].].].].].].].].].].].].].].].].].].].].].].].].].].].].].].].].].].].].].].].].].].].].].].].].].].{.{.{.{.{.}.+X+X+X#X#X#X#X#X#X#X#X#X#X#X#X#X#X#X#X#X#X#X#X#X#X#X#X#X#X#X#X#X#X#X#X#X#X#X#X#X#X#X#X#X#X#X#X#X#X#X#X#X#X#X#X#X#X#X#X#X#X#X#X#X#X#X#X#X#X#X#X#X#X#X#X#X#X#X#X#X#X#X#X#X#X#X#X#X#X#X#X#X#X#X#X#X#X#X#X#X#X#X#X#X#X#X#X#X#X#X#X#X#X#X#X#X#X#X#X#X#X#X#X#X#X#X#X#X#X#X#X#X#X#X#X#X#X#X#X#X#X#X#X#X#X#X#X#X#X#X#X#X#X#X#X#X#X#X#X#X#X#X#X#X#X#X#X#X#X#X#X#X{.J.o.j d d o.).$X8XgXgX8X$X#X#X#X#X#X#X#X#X#X#X#X#X#X#X#X#X#X#X#X#X#X#X#X#X#X#X#X#X#X#X#X#X#X#X#X#X#X#X#X#X#X#X#X#X#X#X#X#X#X#X#X#X#X#X#X#X#X#X#X#X#X#X#X#X#X#X#X#X#X#X#X#X#X#X#X#X#X#X#X#X#X#X#X#X#X#X#X#X#X#X#X#X#X#X#X#X#X#X#X#X#X#X#X#X#X#X#X#X#X#X#X#X#X#X#X#X#X#X#X#X#X#X#X#X#X",
"[ [ [ [ [ [ [ [ [ [ [ [ [ [ [ [ [ [ [ [ [ [ [ [ [ [ [ [ [ [ [ [ [ [ [ [ [ [ [ [ [ [ [ [ [ [ [ [ [ [ [ [ [ [ [ [ [ [ [ [ [ [ [ [ [ [ [ [ [ [ [ [ [ [ [ [ [ [ [ [ [ [ [ [ [ [ [ [ [ [ [ [ [ [ [ [ [ [ [ [ [ [ [ [ [ [ [ [ [ [ [ [ [ [ [ [ [ [ [ [ [ [ [ [ [ [ [ [ [ [ [ [ [ [ [ [ [ [ [ [ [ [ [ [ [ [ [ [ [ [ [ [ [ [ [ [ [ [ [ [ [ [ [ [ [ [ [ [ [ [ [ [ [ [ [ [ [ [ [ [ [ [ [ [ [ [ [ [ [ [ [ [ [ [ [ [ [ [ [ [ [ [ [ [ [ [ [ [ [ [ [ [ [ ' ` Y Y Y Y Y Y Y Y Y Y Y Y Y Y Y Y Y U n n n F.l a a j F.F.F.F.F.F.F.F.F.F.F.V.V.V.V.V.V.V.l k k k d a a a a a a a a a a a a a a d d d d f j j w.S.S.S.~.].].].].].].].].].].].].].].].].].].].].].].].].].].].].].].].].].].].].].].].].].].].].].].].].].].].].].].].].].].].].].].].].].].].].].].].].].].].].].].].].].].].].].].].].].].].].].].].].].].].].].].].].].].].].].].].].].].].].].].].].].].].].].].].].].].].].].].].].].].].].].].].].].].].].].].].].].].].].].].].].].].].].].].].{.{.{.{.{.{.+X+X+X#X#X#X#X#X#X#X#X#X#X#X#X#X#X#X#X#X#X#X#X#X#X#X#X#X#X#X#X#X#X#X#X#X#X#X#X#X#X#X#X#X#X#X#X#X#X#X#X#X#X#X#X#X#X#X#X#X#X#X#X#X#X#X#X#X#X#X#X#X#X#X#X#X#X#X#X#X#X#X#X#X#X#X#X#X#X#X#X#X#X#X#X#X#X#X#X#X#X#X#X#X#X#X#X#X#X#X#X#X#X#X#X#X#X#X#X#X#X#X#X#X#X#X#X#X#X#X#X#X#X#X#X#X#X#X#X#X#X#X#X#X#X#X#X#X#X#X#X#X#X#X#X#X#X#X#X#X#X#X#X#X#X#X#X#X#X#X#X#X#X#X#X#X#X#X#X#X{.J.w.k d d o.). X$XgXgX8X$X$X#X#X#X#X#X#X#X#X#X#X#X#X#X#X#X#X#X#X#X#X#X#X#X#X#X#X#X#X#X#X#X#X#X#X#X#X#X#X#X#X#X#X#X#X#X#X#X#X#X#X#X#X#X#X#X#X#X#X#X#X#X#X#X#X#X#X#X#X#X#X#X#X#X#X#X#X#X#X#X#X#X#X#X#X#X#X#X#X#X#X#X#X#X#X#X#X#X#X#X#X#X#X#X#X#X#X#X#X#X#X#X#X#X#X#X#X#X#X#X#X#X#X",
"[ [ [ [ [ [ [ [ [ [ [ [ [ [ [ [ [ [ [ [ [ [ [ [ [ [ [ [ [ [ [ [ [ [ [ [ [ [ [ [ [ [ [ [ [ [ [ [ [ [ [ [ [ [ [ [ [ [ [ [ [ [ [ [ [ [ [ [ [ [ [ [ [ [ [ [ [ [ [ [ [ [ [ [ [ [ [ [ [ [ [ [ [ [ [ [ [ [ [ [ [ [ [ [ [ [ [ [ [ [ [ [ [ [ [ [ [ [ [ [ [ [ [ [ [ [ [ [ [ [ [ [ [ [ [ [ [ [ [ [ [ [ [ [ [ [ [ [ [ [ [ [ [ [ [ [ [ [ [ [ [ [ [ [ [ [ [ [ [ [ [ [ [ [ [ [ [ [ [ [ [ [ [ [ [ [ [ [ [ [ [ [ [ [ [ [ [ [ [ [ [ [ [ [ [ [ [ [ [ [ [ ' ` ` Y Y Y Y Y Y Y Y Y Y Y Y Y Y Y Y Y Y U n n n F.l a a j F.F.F.F.V.V.V.V.V.V.V.o.k k k d a a a a a a a a a a a a a a a d d d j f j w.w.S.S.~.].].].].].].].].].].].].].].].].].].].].].].].].].].].].].].].].].].].].].].].].].].].].].].].].].].].].].].].].].].].].].].].].].].].].].].].].].].].].].].].].].].].].].].].].].].].].].].].].].].].].].].].].].].].].].].].].].].].].].].].].].].].].].].].].].].].].].].].].].].].].].].].].].].].].].].].].].].].].].].].].].].].].].].].].{.{.{.{.{.{.}.+X+X+X#X#X#X#X#X#X#X#X#X#X#X#X#X#X#X#X#X#X#X#X#X#X#X#X#X#X#X#X#X#X#X#X#X#X#X#X#X#X#X#X#X#X#X#X#X#X#X#X#X#X#X#X#X#X#X#X#X#X#X#X#X#X#X#X#X#X#X#X#X#X#X#X+X}.}.}.#X#X#X#X#X#X#X#X#X#X#X#X#X#X#X#X#X#X#X#X#X#X#X#X#X#X#X#X#X#X#X#X+X+X#X#X#X#X#X#X#X#X#X#X#X#X#X#X#X#X#X#X#X#X#X#X#X#X#X#X#X#X#X#X#X#X#X#X#X#X#X#X#X#X#X#X#X#X#X#X#X#X#X#X#X#X#X#X#X#X#X#X#X#X#X#X#X#X#X#X#X#X#X#X#X#X#X#X#X~.w.o.f d d o.).$XgXgXgX8X$X#X#X#X#X#X#X#X#X#X#X#X#X#X#X#X#X#X#X#X#X#X#X#X#X#X#X#X#X#X#X#X#X#X#X#X#X#X#X#X#X#X#X#X#X#X#X#X#X#X#X#X#X#X#X#X#X#X#X#X#X#X#X#X#X#X#X#X#X#X#X#X#X#X#X#X#X#X#X#X#X#X#X#X#X#X#X#X#X#X#X#X#X#X#X#X#X#X#X#X#X#X#X#X#X#X#X#X#X#X#X#X#X#X#X#X#X#X#X#X#X",
"[ [ [ [ [ [ [ [ [ [ [ [ [ [ [ [ [ [ [ [ [ [ [ [ [ [ [ [ [ [ [ [ [ [ [ [ [ [ [ [ [ [ [ [ [ [ [ [ [ [ [ [ [ [ [ [ [ [ [ [ [ [ [ [ [ [ [ [ [ [ [ [ [ [ [ [ [ [ [ [ [ [ [ [ [ [ [ [ [ [ [ [ [ [ [ [ [ [ [ [ [ [ [ [ [ [ [ [ [ [ [ [ [ [ [ [ [ [ [ [ [ [ [ [ [ [ [ [ [ [ [ [ [ [ [ [ [ [ [ [ [ [ [ [ [ [ [ [ [ [ [ [ [ [ [ [ [ [ [ [ [ [ [ [ [ [ [ [ [ [ [ [ [ [ [ [ [ [ [ [ [ [ [ [ [ [ [ [ [ [ [ [ [ [ [ [ [ [ [ [ [ [ [ [ [ [ [ [ [ ' ` ` Y Y Y Y Y Y Y Y Y Y Y Y Y Y Y Y Y Y Y Y I n n n F.l a a d V.V.V.V.l l k k d a a a a a a a a a a a a a a a d d d d f j j w.S.S.~.~.].].].].].].].].].].].].].].].].].].].].].].].].].].].].].].].].].].].].].].].].].].].].].].].].].].].].].].].].].].].].].].].].].].].].].].].].].].].].].].].].].].].].].].].].].].].].].].].].].].].].].].].].].].].].].].].].].].].].].].].].].].].].].].].].].].].].].].].].].].].].].].].].].].].].].].].].].].].].].].].].].].].].].].].].].{.{.{.{.{.}.+X+X+X#X#X#X#X#X#X#X#X#X#X#X#X#X#X#X#X#X#X#X#X#X#X#X#X#X#X#X#X#X#X#X#X#X#X#X#X#X#X#X#X#X#X#X#X#X#X#X#X#X#X#X#X#X#X#X#X#X#X#X#X#X#X#X#X#X#X#X#X#X#X#X#X#X#X#X#X#X+X{.{.{.+X#X#X#X#X#X#X#X#X#X#X#X#X#X#X#X#X#X#X#X#X#X#X#X#X#X#X#X#X#X#X#X+X{.{.#X#X#X#X#X#X#X#X#X#X#X#X#X#X#X#X#X#X#X#X#X#X#X#X#X#X#X#X#X#X#X#X#X#X#X#X#X#X#X#X#X#X#X#X#X#X#X#X#X#X#X#X#X#X#X#X#X#X#X#X#X#X#X#X#X#X#X#X#X#X#X#X#X#X#X#X#X{.J.o.f d d o.). X8XgXgX8X8X$X#X#X#X#X#X#X#X#X#X#X#X#X#X#X#X#X#X#X#X#X#X#X#X#X}.}.#X#X#X#X#X#X#X#X#X#X#X#X#X#X#X#X#X#X#X#X#X#X#X#X#X#X#X#X#X#X#X#X#X#X#X#X#X#X#X#X#X#X#X#X#X#X#X#X#X#X#X#X#X#X#X#X#X#X#X#X#X#X#X#X#X#X#X#X#X#X#X#X#X#X#X#X#X#X#X#X#X#X#X#X#X#X#X#X#X#X#X",
"[ [ [ [ [ [ [ [ [ [ [ [ [ [ [ [ [ [ [ [ [ [ [ [ [ [ [ [ [ [ [ [ [ [ [ [ [ [ [ [ [ [ [ [ [ [ [ [ [ [ [ [ [ [ [ [ [ [ [ [ [ [ [ [ [ [ [ [ [ [ [ [ [ [ [ [ [ [ [ [ [ [ [ [ [ [ [ [ [ [ [ [ [ [ [ [ [ [ [ [ [ [ [ [ [ [ [ [ [ [ [ [ [ [ [ [ [ [ [ [ [ [ [ [ [ [ [ [ [ [ [ [ [ [ [ [ [ [ [ [ [ [ [ [ [ [ [ [ [ [ [ [ [ [ [ [ [ [ [ [ [ [ [ [ [ [ [ [ [ [ [ [ [ [ [ [ [ [ [ [ [ [ [ [ [ [ [ [ [ [ [ [ [ [ [ [ [ [ [ [ [ [ [ [ [ [ [ ' ' ` Y Y Y Y Y Y Y Y Y Y Y Y Y Y Y Y Y Y Y Y Y Y K n n 6 F.l a a a k d a a a a a a a a a a a a a a a a d d d f j j w.w.S.S.~.].].].].{.].].].].].].].].].].].].].].].].].].].].].].].].].].].].].].].].].].].].].].].].].].].].].].].].].].].].].].].].].].].].].].].].].].].].].].].].].].].].].].].].].].].].].].].].].].].].].].].].].].].].].].].].].].].].].].].].].].].].].].].].].].].].].].].].].].].].].].].].].].].].].].].].].].].].].].].].].].].].].].].].].].].].].{.{.{.{.{.{.}.+X+X+X#X#X#X#X#X#X#X#X#X#X#X#X#X#X#X#X#X#X#X#X#X#X#X#X#X#X#X#X#X#X#X#X#X#X#X#X#X#X#X#X#X#X#X#X#X#X#X#X#X#X#X#X#X#X#X#X#X#X#X#X#X#X#X#X#X#X#X#X#X#X#X#X#X#X#X#X#X#X#X#X#X#X#X+X+X#X#X#X#X#X#X#X#X#X#X#X#X#X#X#X#X#X#X#X#X#X#X#X#X#X#X#X#X#X#X#X#X#X#X+X+X#X#X#X#X#X#X#X#X#X#X#X#X#X#X#X#X#X#X#X#X#X#X#X#X#X#X#X#X#X#X#X#X#X#X#X#X#X#X#X#X#X#X#X#X#X#X#X#X#X#X#X#X#X#X#X#X#X#X#X#X#X#X#X#X#X#X#X#X#X#X#X#X#X#X#X#X#X#X#X{.J.o.j f d d F.).$XgXgXgX8X$X#X#X#X#X#X#X#X#X#X#X#X#X#X#X#X#X#X#X#X#X#X#X}.{.}.#X#X#X#X#X#X#X#X#X#X#X#X#X#X#X#X#X+X+X+X#X#X#X#X#X#X#X#X#X#X#X#X#X#X#X#X#X#X#X#X#X#X#X#X#X#X#X#X#X#X#X#X#X#X#X#X#X#X#X#X#X#X#X#X#X#X#X#X#X#X#X#X#X#X#X#X#X#X#X#X#X#X#X#X#X#X#X#X#X#X",
"[ [ [ [ [ [ [ [ [ [ [ [ [ [ [ [ [ [ [ [ [ [ [ [ [ [ [ [ [ [ [ [ [ [ [ [ [ [ [ [ [ [ [ [ [ [ [ [ [ [ [ [ [ [ [ [ [ [ [ [ [ [ [ [ [ [ [ [ [ [ [ [ [ [ [ [ [ [ [ [ [ [ [ [ [ [ [ [ [ [ [ [ [ [ [ [ [ [ [ [ [ [ [ [ [ [ [ [ [ [ [ [ [ [ [ [ [ [ [ [ [ [ [ [ [ [ [ [ [ [ [ [ [ [ [ [ [ [ [ [ [ [ [ [ [ [ [ [ [ [ [ [ [ [ [ [ [ [ [ [ [ [ [ [ [ [ [ [ [ [ [ [ [ [ [ [ [ [ [ [ [ [ [ [ [ [ [ [ [ [ [ [ [ [ [ [ [ [ [ [ [ [ [ [ [ [ ' ` ` Y Y Y Y Y Y Y Y Y Y Y Y Y Y Y Y Y Y Y Y Y Y Y K n n 7 V.k a a a a a a a a a a a a a a d d d d f j j w.S.S.~.].].].].].].].].].].].].].].].].].].].].].].].].].].].].].].].].].].].].].].].].].].].].].].].].].].].].].].].].].].].].].].].].].].].].].].].].].].].].].].].].].].].].].].].].].].].].].].].].].].].].].].].].].].].].].].].].].].].].].].].].].].].].].].].].].].].].].].].].].].].].].].].].].].].].].].].].].].].].].].].].].].].].].].].].].].].{.{.{.{.{.{.}.+X+X+X#X#X#X#X#X#X#X#X#X#X#X#X#X#X#X#X#X#X#X#X#X#X#X#X#X#X#X#X#X#X#X#X#X#X#X#X#X#X#X#X#X#X#X#X#X#X#X#X#X#X#X#X#X#X#X#X#X#X#X#X#X#X#X#X#X#X#X#X#X#X#X#X#X#X#X#X#X#X#X#X#X#X#X#X#X#X#X#X#X#X#X#X#X#X#X#X#X#X#X#X#X#X#X#X#X#X#X#X#X#X#X#X#X#X#X#X#X#X#X#X#X#X#X#X#X#X#X#X#X#X#X#X#X#X#X#X#X#X#X#X#X#X#X#X#X#X#X#X#X#X#X#X#X#X#X#X#X#X#X#X#X#X#X#X#X#X#X#X#X#X#X#X#X#X#X#X#X#X#X#X#X#X#X#X#X#X#X#X#X#X#X#X#X#X#X#X#X#X#X#X#X#X#X#X#X#X#X#X{.J.e.k f d d o.).$XgXgXgX8X8X$X#X#X#X#X#X#X#X#X#X#X#X#X#X#X#X#X#X#X#X#X}.{.#X#X#X#X#X#X#X#X#X#X#X#X#X#X#X#X+X{.{.{.+X#X#X#X#X#X#X#X#X#X#X#X#X#X#X#X#X#X#X#X#X#X#X#X#X#X#X#X#X#X#X#X#X#X#X#X#X#X#X#X#X#X#X#X#X#X#X#X#X#X#X#X#X#X#X#X#X#X#X#X#X#X#X#X#X#X#X#X#X#X",
"[ [ [ [ [ [ [ [ [ [ [ [ [ [ [ [ [ [ [ [ [ [ [ [ [ [ [ [ [ [ [ [ [ [ [ [ [ [ [ [ [ [ [ [ [ [ [ [ [ [ [ [ [ [ [ [ [ [ [ [ [ [ [ [ [ [ [ [ [ [ [ [ [ [ [ [ [ [ [ [ [ [ [ [ [ [ [ [ [ [ [ [ [ [ [ [ [ [ [ [ [ [ [ [ [ [ [ [ [ [ [ [ [ [ [ [ [ [ [ [ [ [ [ [ [ [ [ [ [ [ [ [ [ [ [ [ [ [ [ [ [ [ [ [ [ [ [ [ [ [ [ [ [ [ [ [ [ [ [ [ [ [ [ [ [ [ [ [ [ [ [ [ [ [ [ [ [ [ [ [ [ [ [ [ [ [ [ [ [ [ [ [ [ [ [ [ [ [ [ [ [ [ [ [ ' ` ` Y Y Y Y Y Y Y Y Y Y Y Y Y Y Y Y Y Y Y Y Y Y Y Y Y K n n 7 k a a a a a a a a a d d d f j j w.S.S.S.~.].].].].].].].].].].].].].].].].].].].].].].].].].].].].].].].].].].].].].].].].].].].].].].].].].].].].].].].].].].].].].].].].].].].].].].].].].].].].].].].].].].].].].].].].].].].].].].].].].].].].].].].].].].].].].].].].].].].].].].].].].].].].].].].].].].].].].].].].].].].].].].].].].].].].].].].].].].].].].].].].].].].].].].].].].].].].{.{.{.{.{.}.+X+X+X#X#X#X#X#X#X#X#X#X#X#X#X#X#X#X#X#X#X#X#X#X#X#X#X#X#X#X#X#X#X#X#X#X#X#X#X#X#X#X#X#X#X#X#X#X#X#X#X#X#X#X#X#X#X#X#X#X#X#X#X#X#X#X#X#X#X#X#X#X#X#X#X#X#X#X#X#X#X#X#X#X#X#X#X#X#X#X#X#X#X#X#X#X#X#X#X#X#X#X#X#X#X#X#X#X#X#X#X#X#X#X#X#X#X#X#X#X#X#X#X#X#X#X#X#X#X#X#X#X#X#X#X#X#X#X#X#X#X#X#X#X#X#X#X#X#X#X#X#X#X#X#X#X#X#X#X#X#X#X#X#X#X#X#X#X#X#X#X#X#X#X#X#X#X#X#X#X#X#X#X#X#X#X#X#X#X#X#X#X#X#X#X#X#X#X#X#X#X#X#X#X#X#X#X#X#X#X#X#X#X#X#X#X#X#X#X{.J.e.o.j d d l ). X$XgXgXgX8X$X#X#X#X#X#X#X#X#X#X#X#X#X#X#X#X#X#X#X#X#X#X#X#X#X#X#X#X#X#X#X#X#X#X#X#X#X#X}.{.{.+X#X#X#X#X#X#X#X#X#X#X#X#X#X#X#X#X#X#X#X#X#X#X#X#X#X#X#X#X#X#X#X#X#X#X#X#X#X#X#X#X#X#X#X#X#X#X#X#X#X#X#X#X#X#X#X#X#X#X#X#X#X#X#X#X#X#X#X#X#X",
"[ [ [ [ [ [ [ [ [ [ [ [ [ [ [ [ [ [ [ [ [ [ [ [ [ [ [ [ [ [ [ [ [ [ [ [ [ [ [ [ [ [ [ [ [ [ [ [ [ [ [ [ [ [ [ [ [ [ [ [ [ [ [ [ [ [ [ [ [ [ [ [ [ [ [ [ [ [ [ [ [ [ [ [ [ [ [ [ [ [ [ [ [ [ [ [ [ [ [ [ [ [ [ [ [ [ [ [ [ [ [ [ [ [ [ [ [ [ [ [ [ [ [ [ [ [ [ [ [ [ [ [ [ [ [ [ [ [ [ [ [ [ [ [ [ [ [ [ [ [ [ [ [ [ [ [ [ [ [ [ [ [ [ [ [ [ [ [ [ [ [ [ [ [ [ [ [ [ [ [ [ [ [ [ [ [ [ [ [ [ [ [ [ [ [ [ [ [ [ [ [ ' ' ` ` Y Y Y Y Y Y Y Y Y Y Y Y Y Y Y Y Y Y Y Y Y Y Y Y Y Y Y K n n 7 a a a d d d d f j j w.S.S.~.].].].].].].].].].].].].].].].].].].].].].].].].].].].].].].].].].].].].].].].].].].].].].].].].].].].].].].].].].].].].].].].].].].].].].].].].].].].].].].].].].].].].].].].].].].].].].].].].].].].].].].].].].].].].].].].].].].].].].].].].].].].].].].].].].].].].].].].].].].].].].].].].].].].].].].].].].].].].].].].].].].].].].].].].].].].].].{.{.{.{.{.{.}.+X+X+X#X#X#X#X#X#X#X#X#X#X#X#X#X#X#X#X#X#X#X#X#X#X#X#X#X#X#X#X#X#X#X#X#X#X#X#X#X#X#X#X#X#X#X#X#X#X#X#X#X#X#X#X#X#X#X#X#X#X#X#X#X#X#X#X#X#X#X#X#X#X#X#X#X#X#X#X#X#X#X#X#X}.}.+X#X#X#X#X#X#X#X#X#X#X#X#X#X#X#X#X#X#X#X#X#X#X#X#X#X#X#X#X#X#X#X#X#X#X#X#X#X#X#X#X#X#X#X#X#X#X#X#X#X#X#X#X#X#X#X#X#X#X#X#X#X#X#X#X#X#X#X#X#X#X#X#X#X#X#X#X#X#X#X#X#X#X#X#X#X#X#X#X#X#X#X#X#X#X#X#X#X#X#X#X#X#X#X#X#X#X#X#X#X#X#X#X#X#X#X#X#X#X#X#X#X#X#X#X#X#X#X#X#X#X#X#X#X#X#X#X#X#X#X#X{.J.w.k f d d o.).$XgXgXgX8X8X$X#X#X#X#X#X#X#X#X#X#X#X#X#X#X#X#X#X#X#X#X#X#X#X#X#X#X#X#X#X#X#X#X#X#X#X#X#X#X#X#X#X#X#X#X#X#X#X#X#X#X#X#X#X#X#X#X#X#X#X#X#X#X#X#X#X#X#X#X#X#X#X#X#X#X#X#X#X#X#X#X#X#X#X#X#X#X#X#X#X#X#X#X#X#X#X#X#X#X#X#X#X#X#X#X#X#X#X",
"[ [ [ [ [ [ [ [ [ [ [ [ [ [ [ [ [ [ [ [ [ [ [ [ [ [ [ [ [ [ [ [ [ [ [ [ [ [ [ [ [ [ [ [ [ [ [ [ [ [ [ [ [ [ [ [ [ [ [ [ [ [ [ [ [ [ [ [ [ [ [ [ [ [ [ [ [ [ [ [ [ [ [ [ [ [ [ [ [ [ [ [ [ [ [ [ [ [ [ [ [ [ [ [ [ [ [ [ [ [ [ [ [ [ [ [ [ [ [ [ [ [ [ [ [ [ [ [ [ [ [ [ [ [ [ [ [ [ [ [ [ [ [ [ [ [ [ [ [ [ [ [ [ [ [ [ [ [ [ [ [ [ [ [ [ [ [ [ [ [ [ [ [ [ [ [ [ [ [ [ [ [ [ [ [ [ [ [ [ [ [ [ [ [ [ [ [ [ [ ' ' ` ` Y Y Y Y Y Y Y Y Y Y Y Y Y Y Y Y Y Y Y Y Y Y Y Y Y Y Y Y Y K n n 7 j j j w.S.S.S.~.].].].].].].].].].].].].].].].].].].].].].].].].].].].].].].].].].].].].].].].].].].].].].].].].].].].].].].].].].].].].].].].].].].].].].].].].].].].].].].].].].].].].].].].].].].].].].].].].].].].].].].].].].].].].].].].].].].].].].].].].].].].].].].].].].].].].].].].].].].].].].].].].].].].].].].].].].].].].].].].].].].].].].].].].].].].].].].].{.{.{.{.}.+X+X+X#X#X#X#X#X#X#X#X#X#X#X#X#X#X#X#X#X#X#X#X#X#X#X#X#X#X#X#X#X#X#X#X#X#X#X#X#X#X#X#X#X#X#X#X#X#X#X#X#X#X#X#X#X#X#X#X#X#X#X#X#X#X#X#X#X#X#X#X#X#X#X#X#X#X#X#X#X#X#X#X#X#X#X#X#X#X+X}.{.{.+X#X#X#X#X#X#X#X#X#X#X#X#X#X#X#X#X#X#X#X#X#X#X#X#X#X#X#X#X#X#X#X#X#X#X#X#X#X#X#X#X#X#X#X#X#X#X#X#X#X#X#X#X#X#X#X#X#X#X#X#X#X#X#X#X#X#X#X#X#X#X#X#X#X#X#X#X#X#X#X#X#X#X#X#X#X#X#X#X#X#X#X#X#X#X#X#X#X#X#X#X#X#X#X#X#X#X#X#X#X#X#X#X#X#X#X#X#X#X#X#X#X#X#X#X#X#X#X#X#X#X#X#X#X#X#X#X#X#X#X#X#X{.J.e.k f d d o.). X8XgXgXgX8X$X$X#X#X#X#X#X#X#X#X#X#X#X#X#X#X#X#X#X#X#X#X#X#X#X#X#X#X#X#X#X#X#X#X#X#X#X#X#X#X#X#X#X#X#X#X#X#X#X#X#X#X#X#X#X#X#X#X#X#X#X#X#X#X#X#X#X#X#X#X#X#X#X#X#X#X#X#X#X#X#X#X#X#X#X#X#X#X#X#X#X#X#X#X#X#X#X#X#X#X#X#X#X#X#X#X",
"[ [ [ [ [ [ [ [ [ [ [ [ [ [ [ [ [ [ [ [ [ [ [ [ [ [ [ [ [ [ [ [ [ [ [ [ [ [ [ [ [ [ [ [ [ [ [ [ [ [ [ [ [ [ [ [ [ [ [ [ [ [ [ [ [ [ [ [ [ [ [ [ [ [ [ [ [ [ [ [ [ [ [ [ [ [ [ [ [ [ [ [ [ [ [ [ [ [ [ [ [ [ [ [ [ [ [ [ [ [ [ [ [ [ [ [ [ [ [ [ [ [ [ [ [ [ [ [ [ [ [ [ [ [ [ [ [ [ [ [ [ [ [ [ [ [ [ [ [ [ [ [ [ [ [ [ [ [ [ [ [ [ [ [ [ [ [ [ [ [ [ [ [ [ [ [ [ [ [ [ [ [ [ [ [ [ [ [ [ [ [ [ [ [ [ [ [ ' ` ` ` Y Y Y Y Y Y Y Y Y Y Y Y Y Y Y Y Y Y Y Y Y Y Y Y Y Y Y Y Y Y Y K n n n ].].].].].].].].].].].].].].].].].].].].].].].].].].].].].].].].].].].].].].].].].].].].].].].].].].].].].].].].].].].].].].].].].].].].].].].].].].].].].].].].].].].].].].].].].].].].].].].].].].].].].].].].].].].].].].].].].].].].].].].].].].].].].].].].].].].].].].].].].].].].].].].].].].].].].].].].].].].].].].].].].].].].].].].].].].].].].].].].].{.{.{.{.{.}.+X+X+X#X#X#X#X#X#X#X#X#X#X#X#X#X#X#X#X#X#X#X#X#X#X#X#X#X#X#X#X#X#X#X#X#X#X#X#X#X#X#X#X#X#X#X#X#X#X#X#X#X#X#X#X#X#X#X#X#X#X#X#X#X#X#X#X#X#X#X#X#X#X#X#X#X#X#X#X#X#X#X#X#X#X#X#X#X#X#X#X#X#X#X#X#X#X#X#X#X#X#X#X#X#X#X#X#X#X#X#X#X#X#X#X#X#X#X#X#X#X#X#X#X#X#X#X#X#X#X#X#X#X#X#X#X#X#X#X#X#X#X#X#X#X#X#X#X#X#X#X#X#X#X#X#X#X#X#X#X#X#X#X#X#X#X#X#X#X#X#X#X#X#X#X#X#X#X#X#X#X#X#X#X#X#X#X#X#X#X#X#X#X#X#X#X#X#X#X#X#X#X#X#X#X#X#X#X#X#X#X#X#X#X#X#X#X#X#X#X#X#X#X#X#X#X#X#X#X#X#X#X#X#X#X#X#X#X#X#X#X#X{.J.e.o.j f d d F.).$XgXgXgXgX8X$X#X#X#X#X#X#X#X#X#X#X#X#X#X#X#X#X#X#X#X#X#X#X#X#X#X#X#X#X#X#X#X#X#X#X#X#X#X#X#X#X#X#X#X#X#X#X#X#X#X#X#X#X#X#X#X#X#X#X#X#X#X#X#X#X#X#X#X#X#X#X#X#X#X#X#X#X#X#X#X#X#X#X#X#X#X#X#X#X#X#X#X#X#X#X#X#X#X#X#X#X#X#X"
};
