/* XPM */
static char *a81255e6075e4521b28c45608627c6b0MtbZSeLNMhCw9l3n[] = {
/* columns rows colors chars-per-pixel */
"110 48 65 1 ",
"  c #374A37",
". c #374C37",
"X c #384E37",
"o c #3B4E3B",
"O c #3C4E3C",
"+ c #395537",
"@ c #395837",
"# c #3B5E37",
"$ c #3F513F",
"% c #3E593C",
"& c #3B6037",
"* c #3B6937",
"= c #3C6A37",
"- c #3C6C37",
"; c #3F623B",
": c #3D7237",
"> c #3E7737",
", c #40623C",
"< c #416D3C",
"1 c #415341",
"2 c #425442",
"3 c #455745",
"4 c #435D41",
"5 c #445E42",
"6 c #465846",
"7 c #485A48",
"8 c #4C5D4C",
"9 c #436640",
"0 c #456741",
"q c #657365",
"w c #657465",
"e c #697769",
"r c #6D7B6D",
"t c #727F72",
"y c #738073",
"u c #768376",
"i c #798579",
"p c #919B91",
"a c #929C92",
"s c #949E94",
"d c #97A097",
"f c #9BA49B",
"g c #9EA79E",
"h c #9FA89F",
"j c #A3ABA3",
"k c #A3ACA3",
"l c #A5ADA5",
"z c #BFC5BF",
"x c #C1C7C1",
"c c #C2C8C2",
"v c #C4CAC4",
"b c #C6CCC6",
"n c #C9CEC9",
"m c #CDD2CD",
"M c #D2D6D2",
"N c #EBEDEB",
"B c #ECEEEC",
"V c #EFF1EF",
"C c #F1F2F1",
"Z c #F3F4F3",
"A c #F6F6F6",
"S c #F7F8F7",
"D c #FBFBFB",
"F c #FBFCFB",
"G c #ffffff",
/* pixels */
">>>>>>>>>>>>>>>>>>>>>>>>>>>>>>>>>>>>>>>>>>>>>>>>>>>>>>>>>>>>>>>>>>>>>>>>>>>>>>>>>>>>>>>>>>>>>>>>>>>>>>>>>>>>>>",
">>>>>>>>>>>>>>>>>>>>>>>>>>>>>>>>>>>>>>>>>>>>>>>>>>>>>>>>>>>>>>>>>>>>>>>>>>>>>>>>>>>>>>>>>>>>>>>>>>>>>>>>>>>>>>",
">>>>>>>>>>>>>>>>>>>>>>>>>>>>>>>>>>>>>>>>>>>>>>>>>>>>>>>>>>>>>>>>>>>>>>>>>>>>>>>>>>>>>>>>>>>>>>>>>>>>>>>>>>>>>>",
">>>>>>>>>>>>>>>>>>>>>>>>>>>>>>>>>>>>>>>>>>>>>>>>>>>>>>>>>>>>>>>>>>>>>>>>>>>>>>>>>>>>>>>>>>>>>>>>>>>>>>>>>>>>>>",
">>>>>>>>>>>>>>>>>>>>>>>>>>>>>>>>>>>>>>>>>>>>>>>>>>>>>>>>>>>>>>>>>>>>>>>>>>>>>>>>>>>>>>>>>>>>>>>>>>>>>>>>>>>>>>",
">>>>>>>>>>>>>>>>>>>>>>>>>>>>>>>>>>>>>>>>>>>>>>>>>>>>>>>>>>>>>>>>>>>>>>>>>>>>>>>>>>>>>>>>>>>>>>>>>>>>>>>>>>>>>>",
">>>>>>>>>>>>>>>>>>>>>>>>>>>>>>>>>>>>>>>>>>>>>>>>>>>>>>>>>>>>>>>>>>>>>>>>>>>>>>>>>>>>>>>>>>>>>>>>>>>>>>>>>>>>>>",
">>>>>>>>>>>>>>>>>>>>>>>>>>>>>>>>>>>>>>>>>>>>>>>>>>>>>>>>>>>>>>>>>>>>>>>>>>>>>>>>:>>>>>>>>>>>>>>>>>:::::***:>>>",
">>>>>>>>>>>>>>>>>>>>>>>>>>>>>>>>>>>>>>>>>>>>>>>>>>>>>>>>>>::::::::::::::****:>>>###,,,,,,=>>>>>>>>O6666662+>>>",
">>>>>>>>>>>>>>:>>>>>>>>>>>>>>>>>::::::::********:>>>>>>>>:+55555222666666662+>>- 88iiiiii%>>>>>>>&eMMMMMMj ->>",
">>>>>>>>>>:##,%<,*::>>>>>>>>>>>#1111666666688886%*:>>>>>>+OllllllllMMMMMMMMf >>= GGGGGGGGi#>>>>>>#eGGGGGGM ->>",
">>>>>>>:#0188iiii86%*:>>>>>>>>& llllMMMMMMMGGGGMi6%:>>>>>#eGGGGGGGGGGGGGGGGj >># GGGGGGGGG6#>>>>> qGGGGGGG ->>",
">>>>>>*%1llGGGGGGGMi6%:>>>>>>># GGGGGGGGGGGGGGGGGMi%>>>>>+eGGGGGGGGGGGGGGGGm >>+ DGGGGGGGGM1#>>>>  GGGGGGG ->>",
">>>>>#1ilGGGGGGGGGGGMi1*>>>>>>+ GGGGGGGGGGGGGGGGGGGi+>>>- eGGGGGGGGGGGGGGGGm >>+ mGGGGGGGGGl1#>>>  GGGGGGG ->>",
">>>>#4lGGGGGGGGGGGGGGGl1*>>>>>  GGGGGGGGGGGGGGGGGGGG1*>>- eGGGGGGGGGGGGGDDDn >>+ mGGGGGGGGGGl1=>>  GGGGGGG ->>",
">>>*OlGGGGGGGGGGGGGGGGGl1=>>>>  GGGGGGGGGGDDGGGGGGGGl >>- eGGGGGGGCNNNNNzzzp >>+ mGGGGGGGGGGGl%>>  GGGGGGG =>>",
">>> iGGGGGGGGGGGGGGGGGGGl+>>>>  GGGGGGGANNzzCDGGGGGGGO&>> qGGGGGGGq         +>>+ mGGGGGGGGGGGGy#>  GGGGGGG &>>",
">>+3GGGGGGGGGDDDGGGGGGGGG1#>>>  GGGGGGGd    qzGGGGGGGr#>>  GGGGGGG          =>>+ mGGGGGGGGGGGGM1#  GGGGGGG &>>",
">= MGGGGGGGABzzzCDGGGGGGGl >>>+ DGGGGGGe      AGGGGGGf+>>  GGGGGGG7111111113#>>+ mGGGGGGGGGGGGGl1  GGGGGGGO&>>",
">+oGGGGGGGAa    qzAGGGGGGG1&>>+ mGGGGGGe      hGGGGGGf+>>  GGGGGGGGllllllllM ->+ nGGGGGGGGGGGGGGl1oDGGGGGGe&>>",
">+tGGGGGGDd       dGGGGGGGf#>>+ mGGGGGGe ...  MGGGGGGd+>>  GGGGGGGGGGGGGGGGG ->& fGGGGGGGGGGGGGGGluMGGGGGGe&>>",
"> mGGGGGGvq       qAGGGGGGh >>+ mGGGGGGt+;;913GGGGGGGq+>>  GGGGGGGGGGGGGGGGG ->& fGGGGGGDBDGGGGGGGGGGGGGGGe&>>",
"- MGGGGGGe .X@@.   dGGGGGGm >>+ mGGGGGGM7uukkMGGGGGGD &>>  GGGGGGGGGGGGGGGGG ->& fGGGGGGn vGGGGGGGGGGGGGGGe&>>",
"= GGGGGGGe &>>>-@  eGGGGGGm ->+ mGGGGGGGGGGGGGGGGGGGv ->>  GGGGGGGGGGGGGGGGG =>& fGGGGGGf qAGGGGGGGGGGGGGGe#>>",
"+ DGGGGGGr+>>>>>>. eGGGGGGm ->+ mGGGGGGGGGGGGGGGGGGZq+>>>+ DGGGGGGDZZZZZVVVV &>& fGGGGGGf  aSGGGGGGGGGGGGGe+>>",
"+ mGGGGGGf#>>>>>>& tGGGGGGm >>+ mGGGGGGGGGGGGGGGGGSq +>>>+ mGGGGGGvqqqqq     ->& fGGGGGGf   aSGGGGGGGGGGGGe+>>",
"+ nGGGGGGj$=>>>>>#$MGGGGGGv >>& nGGGGGGGGGGGGGGGSVa  ->>>+ mGGGGGGe         +>>& fGGGGGGf    aDGGGGGGGGGGGr+>>",
"+ dGGGGGGGj$#:::#$jGGGGGGGq+>>& fGGGGGGGZZZZZZVVa   +>>>>+ mGGGGGGuoooo$$$$$+=>& fGGGGGGh .   xGGGGGGGGGGGf+>>",
"+ wDGGGGGGGj32$23jGGGGGGGF ->>& fGGGGGGDwwwwww     .->>>>+ mGGGGGGGuuuujjjjjo&>- dGGGGGGm &.   AGGGGGGGGGGf+>>",
"&  dGGGGGGGGGMjMGGGGGGGGGc ->>& fGGGGGGf          .->>>>>+ mGGGGGGGGGGGGGGGGe&>- eGGGGGGm >&   wDGGGGGGGGGf+>>",
"&  wDGGGGGGGGGGGGGGGGGGGA +>>>& fGGGGGGf        .X->>>>>>+ mGGGGGGGGGGGGGGGGe&>- eGGGGGGm >>+   sDGGGGGGGGf+>>",
">.  sDGGGGGGGGGGGGGGGGGDw +>>>& fGGGGGGf .......&>>>>>>>>& nGGGGGGGGGGGGGGGGe&>- eGGGGGGm >>-.   sDGGGGGGGf+>>",
">&   sDGGGGGGGGGGGGGGGDs  ->>>& fGGGGGGf ----->>>>>>>>>>>& fGGGGGGGGGGGGGGGGe#>- eGGGGFFn >>>&.   sDDDAAAAs >>",
">>    sAGGGGGGGGGGGGGDs  +>>>>& fGGGGGGg >>>>>>>>>>>>>>>>& fGGDDDDDDDDAAAAAAw+>- wCCCCccs ->>>&    ssswwww .>>",
">>&    wCDGGGGGGGGGDCs  .>>>>>- sDDDDDDb >>>>>>>>>>>>>>>>& sccsssssssswwwwww &>-         +->>>>&           ->>",
">>>+     svAADDDAZvs    ->>>>>-  ssssssw.>>>>>>>>>>>>>>>>&                  +->-         ->>>>>>&          >>>",
">>>>+      wwsssw      &>>>>>>-         ->>>>>>>>>>>>>>>>&                  +>>>         ->>>>>>>+      ...>>>",
">>>>>+               .&>>>>>>>-         >>>>>>>>>>>>>>>>>&               ...+>>>........+->>>>>>>-&&&&&&--->>>",
">>>>>>&.            &>>>>>>>>>-         >>>>>>>>>>>>>>>>>&++++++&&&&&&&&&--->>>>>>>>>>>>>>>>>>>>>>>>>>>>>>>>>>",
">>>>>>>>&+..    ..&&>>>>>>>>>>>++&&&&&&&>>>>>>>>>>>>>>>>>>>>>>>>>>>>>>>>>>>>>>>>>>>>>>>>>>>>>>>>>>>>>>>>>>>>>>",
">>>>>>>>>>--&&&&->>>>>>>>>>>>>>>>>>>>>>>>>>>>>>>>>>>>>>>>>>>>>>>>>>>>>>>>>>>>>>>>>>>>>>>>>>>>>>>>>>>>>>>>>>>>>",
">>>>>>>>>>>>>>>>>>>>>>>>>>>>>>>>>>>>>>>>>>>>>>>>>>>>>>>>>>>>>>>>>>>>>>>>>>>>>>>>>>>>>>>>>>>>>>>>>>>>>>>>>>>>>>",
">>>>>>>>>>>>>>>>>>>>>>>>>>>>>>>>>>>>>>>>>>>>>>>>>>>>>>>>>>>>>>>>>>>>>>>>>>>>>>>>>>>>>>>>>>>>>>>>>>>>>>>>>>>>>>",
">>>>>>>>>>>>>>>>>>>>>>>>>>>>>>>>>>>>>>>>>>>>>>>>>>>>>>>>>>>>>>>>>>>>>>>>>>>>>>>>>>>>>>>>>>>>>>>>>>>>>>>>>>>>>>",
">>>>>>>>>>>>>>>>>>>>>>>>>>>>>>>>>>>>>>>>>>>>>>>>>>>>>>>>>>>>>>>>>>>>>>>>>>>>>>>>>>>>>>>>>>>>>>>>>>>>>>>>>>>>>>",
">>>>>>>>>>>>>>>>>>>>>>>>>>>>>>>>>>>>>>>>>>>>>>>>>>>>>>>>>>>>>>>>>>>>>>>>>>>>>>>>>>>>>>>>>>>>>>>>>>>>>>>>>>>>>>",
">>>>>>>>>>>>>>>>>>>>>>>>>>>>>>>>>>>>>>>>>>>>>>>>>>>>>>>>>>>>>>>>>>>>>>>>>>>>>>>>>>>>>>>>>>>>>>>>>>>>>>>>>>>>>>",
">>>>>>>>>>>>>>>>>>>>>>>>>>>>>>>>>>>>>>>>>>>>>>>>>>>>>>>>>>>>>>>>>>>>>>>>>>>>>>>>>>>>>>>>>>>>>>>>>>>>>>>>>>>>>>"
};
