#ifndef PROJECT_ORDER_TICKET_XPM
#define PROJECT_ORDER_TICKET_XPM

static char *order_ticket_xpm[] = {
"30 72 7 1",
"  c #FFFFFE",
". c #5E3B22",
"+ c #FFF2C7",
"@ c #E6C987",
"# c #C79B57",
"- c #8D5A2E",
"* c #D94A3A",
"   ........................   ",
"  .++++++++++++++++++++++++.  ",
" .++++++++++++++++++++++++++. ",
".++++++++++++++++++++++++++++.",
".++++++++++++++++++++++++++++.",
".+++@@@++++++++++++++++@@@+++.",
".++@@@@@++++++++++++++@@@@@++.",
".+++@@@++++++++++++++++@@@+++.",
".++++++++++++++++++++++++++++.",
".++++++++++++++++++++++++++++.",
".++++++++++++++++++++++++++++.",
".++++++++++++++++++++++++++++.",
".++++++++++++++++++++++++++++.",
".++++++++++++++++++++++++++++.",
".++++++++++++++++++++++++++++.",
".++++++++++++++++++++++++++++.",
".++++++++++++++++++++++++++++.",
".++++++++++++++++++++++++++++.",
".++++++++++++++++++++++++++++.",
".++++++++++++++++++++++++++++.",
".++++++++++++++++++++++++++++.",
".++++++++++++++++++++++++++++.",
".++++++++++++++++++++++++++++.",
".++++++++++++++++++++++++++++.",
".++++++++++++++++++++++++++++.",
".++++++++++++++++++++++++++++.",
".++++++++++++++++++++++++++++.",
".++++++++++++++++++++++++++++.",
".++++++++++++++++++++++++++++.",
".++++++++++++++++++++++++++++.",
".++++++++++++++++++++++++++++.",
".++++++++++++++++++++++++++++.",
".++++++++++++++++++++++++++++.",
".++++++++++++++++++++++++++++.",
".++++++++++++++++++++++++++++.",
".++++++++++++++++++++++++++++.",
".++++++++++++++++++++++++++++.",
".++++++++++++++++++++++++++++.",
".++++++++++++++++++++++++++++.",
".++++++++++++++++++++++++++++.",
".++++++++++++++++++++++++++++.",
".++++++++++++++++++++++++++++.",
".++++++++++++++++++++++++++++.",
".++++++++++++++++++++++++++++.",
".++++++++++++++++++++++++++++.",
".++++++++++++++++++++++++++++.",
".++++++++++++++++++++++++++++.",
".++++++++++++++++++++++++++++.",
".++++++++++++++++++++++++++++.",
".++++++++++++++++++++++++++++.",
".++++++++++++++++++++++++++++.",
".++++++++++++++++++++++++++++.",
".++++++++++++++++++++++++++++.",
".++++++++++++++++++++++++++++.",
".++++++++++++++++++++++++++++.",
".++++++++++++++++++++++++++++.",
".++++++++++++++++++++++++++++.",
".++++++++++++++++++++++++++++.",
".++++++++++++++++++++++++++++.",
".++++++++++++++++++++++++++++.",
".++++++++++++++++++++++++++++.",
".++++++++++++++++++++++++++++.",
".++++++++++++++++++++++++++++.",
".++++++++++++++++++++++++++++.",
".++++++++++++++++++++++++++++.",
".++++++++++++++++++++++++++++.",
" .++++++++++++++++++++++++++. ",
"  .++++++++++++++++++++++++.  ",
"   .+++.+++.+++.+++.+++.++    ",
"    .+. .+. .+. .+. .+. .     ",
"                              ",
"                              "
};

#endif
